qml/filters/cineWarm.cube
#Generated with IWLTBAP LUT Generator
#Website: http://luts.iwltbap.com
TITLE "FG_CineWarm"
#LUT size
LUT_3D_SIZE 5
#LUT data points
0.066667 0.090196 0.090196
0.227451 0.098039 0.070588
0.733333 0.196078 0.000000
0.968627 0.270588 0.000000
1.000000 0.521569 0.345098
0.309804 0.188235 0.015686
0.270588 0.203922 0.035294
0.788235 0.360784 0.003922
1.000000 0.380392 0.000000
0.996078 0.564706 0.286275
0.290196 0.486275 0.000000
0.003922 0.584314 0.003922
0.749020 0.549020 0.003922
1.000000 0.592157 0.000000
1.000000 0.686275 0.313725
0.360784 0.709804 0.215686
0.000000 0.760784 0.470588
0.458824 0.788235 0.239216
0.996078 0.760784 0.000000
0.992157 0.878431 0.482353
0.745098 0.996078 0.788235
0.662745 0.996078 0.862745
0.752941 1.000000 0.768627
1.000000 0.968627 0.682353
1.000000 0.921569 0.768627
0.003922 0.137255 0.141176
0.180392 0.164706 0.121569
0.600000 0.286275 0.000000
0.854902 0.337255 0.003922
1.000000 0.521569 0.101961
0.435294 0.239216 0.043137
0.227451 0.211765 0.164706
0.807843 0.423529 0.000000
0.992157 0.419608 0.000000
1.000000 0.611765 0.396078
0.376471 0.517647 0.133333
0.003922 0.564706 0.274510
0.721569 0.564706 0.192157
1.000000 0.607843 0.000000
0.996078 0.701961 0.352941
0.415686 0.721569 0.313725
0.243137 0.760784 0.568627
0.494118 0.780392 0.423529
1.000000 0.772549 0.250980
1.000000 0.882353 0.505882
0.788235 1.000000 0.803922
0.701961 0.992157 0.886275
0.764706 1.000000 0.796078
1.000000 0.964706 0.764706
0.996078 0.921569 0.756863
0.000000 0.235294 0.317647
0.003922 0.211765 0.345098
0.439216 0.211765 0.258824
0.870588 0.411765 0.243137
0.996078 0.568627 0.215686
0.486275 0.286275 0.274510
0.121569 0.278431 0.407843
0.580392 0.380392 0.407843
0.988235 0.525490 0.384314
1.000000 0.643137 0.439216
0.454902 0.513725 0.431373
0.258824 0.549020 0.545098
0.666667 0.627451 0.580392
1.000000 0.713725 0.568627
1.000000 0.713725 0.403922
0.505882 0.741176 0.505882
0.388235 0.756863 0.686275
0.458824 0.752941 0.592157
0.952941 0.811765 0.607843
1.000000 0.890196 0.545098
0.764706 1.000000 0.843137
0.701961 1.000000 0.941176
0.784314 0.996078 0.894118
1.000000 0.980392 0.866667
0.996078 0.921569 0.756863
0.000000 0.333333 0.486275
0.000000 0.356863 0.509804
0.443137 0.352941 0.556863
0.725490 0.474510 0.537255
1.000000 0.729412 0.729412
0.439216 0.329412 0.517647
0.207843 0.474510 0.658824
0.556863 0.466667 0.670588
0.815686 0.545098 0.635294
1.000000 0.749020 0.764706
0.400000 0.517647 0.564706
0.254902 0.588235 0.670588
0.501961 0.568627 0.670588
0.823529 0.682353 0.698039
1.000000 0.843137 0.807843
0.560784 0.686275 0.674510
0.384314 0.752941 0.760784
0.545098 0.749020 0.741176
0.917647 0.866667 0.831373
1.000000 0.925490 0.858824
0.803922 0.952941 0.956863
0.647059 1.000000 0.992157
0.807843 1.000000 0.976471
0.964706 0.976471 0.941176
1.000000 0.960784 0.925490
0.309804 0.686275 0.882353
0.388235 0.701961 0.894118
0.509804 0.619608 0.874510
0.874510 0.643137 0.894118
1.000000 0.694118 0.909804
0.505882 0.576471 0.835294
0.431373 0.725490 0.941176
0.545098 0.654902 0.933333
0.913725 0.674510 0.937255
0.996078 0.745098 0.980392
0.443137 0.721569 0.890196
0.329412 0.811765 0.972549
0.560784 0.780392 0.968627
0.878431 0.749020 0.964706
1.000000 0.776471 0.952941
0.517647 0.890196 0.976471
0.317647 0.909804 0.984314
0.494118 0.909804 0.996078
0.768627 0.850980 0.972549
0.988235 0.913725 1.000000
0.541176 0.976471 0.980392
0.400000 0.992157 0.996078
0.596078 0.992157 0.992157
0.874510 0.992157 1.000000
1.000000 1.000000 0.992157
