qml/filters/cineCold.cube
#Generated with IWLTBAP LUT Generator
#Website: http://luts.iwltbap.com
TITLE "FG_CineCold"
#LUT size
LUT_3D_SIZE 9
#LUT data points
0.000000 0.000000 0.000000
0.101961 0.000000 0.003922
0.227451 0.035294 0.019608
0.352941 0.082353 0.031373
0.482353 0.121569 0.062745
0.623529 0.160784 0.113725
0.756863 0.200000 0.160784
0.882353 0.247059 0.200000
0.996078 0.298039 0.250980
0.000000 0.129412 0.007843
0.121569 0.133333 0.019608
0.239216 0.129412 0.043137
0.364706 0.149020 0.066667
0.498039 0.176471 0.094118
0.631373 0.207843 0.129412
0.764706 0.243137 0.176471
0.882353 0.278431 0.215686
0.996078 0.317647 0.254902
0.000000 0.266667 0.074510
0.086275 0.274510 0.078431
0.250980 0.286275 0.101961
0.396078 0.278431 0.137255
0.533333 0.286275 0.164706
0.674510 0.301961 0.184314
0.792157 0.317647 0.215686
0.905882 0.345098 0.250980
0.996078 0.388235 0.286275
0.000000 0.400000 0.152941
0.090196 0.407843 0.168627
0.235294 0.415686 0.172549
0.400000 0.435294 0.188235
0.564706 0.439216 0.215686
0.705882 0.423529 0.243137
0.823529 0.415686 0.270588
0.925490 0.431373 0.294118
1.000000 0.454902 0.325490
0.007843 0.549020 0.215686
0.137255 0.549020 0.219608
0.266667 0.556863 0.223529
0.419608 0.568627 0.235294
0.592157 0.588235 0.266667
0.725490 0.576471 0.290196
0.862745 0.564706 0.329412
0.964706 0.560784 0.368627
1.000000 0.584314 0.400000
0.176471 0.670588 0.270588
0.231373 0.670588 0.278431
0.321569 0.682353 0.286275
0.447059 0.682353 0.290196
0.592157 0.694118 0.305882
0.737255 0.717647 0.325490
0.870588 0.713725 0.372549
0.972549 0.705882 0.411765
0.996078 0.705882 0.458824
0.298039 0.788235 0.325490
0.325490 0.784314 0.337255
0.400000 0.792157 0.345098
0.486275 0.788235 0.341176
0.611765 0.792157 0.368627
0.737255 0.807843 0.384314
0.866667 0.819608 0.427451
0.968627 0.831373 0.478431
0.996078 0.835294 0.513725
0.454902 0.909804 0.419608
0.470588 0.882353 0.407843
0.513725 0.886275 0.407843
0.568627 0.898039 0.419608
0.674510 0.898039 0.447059
0.756863 0.909804 0.458824
0.862745 0.917647 0.482353
0.968627 0.933333 0.521569
1.000000 0.933333 0.588235
0.607843 0.996078 0.498039
0.619608 0.992157 0.513725
0.647059 0.992157 0.509804
0.694118 1.000000 0.533333
0.745098 1.000000 0.529412
0.827451 1.000000 0.564706
0.894118 1.000000 0.588235
0.964706 1.000000 0.615686
0.996078 1.000000 0.650980
0.000000 0.000000 0.133333
0.101961 0.000000 0.145098
0.235294 0.019608 0.145098
0.345098 0.094118 0.156863
0.474510 0.164706 0.188235
0.611765 0.196078 0.211765
0.756863 0.231373 0.235294
0.878431 0.262745 0.258824
0.996078 0.305882 0.286275
0.003922 0.141176 0.164706
0.101961 0.145098 0.168627
0.235294 0.160784 0.176471
0.360784 0.188235 0.192157
0.490196 0.211765 0.203922
0.623529 0.235294 0.215686
0.756863 0.258824 0.235294
0.874510 0.286275 0.258824
0.988235 0.321569 0.294118
0.007843 0.262745 0.184314
0.090196 0.266667 0.188235
0.231373 0.278431 0.200000
0.368627 0.278431 0.215686
0.513725 0.290196 0.231373
0.650980 0.309804 0.243137
0.768627 0.325490 0.262745
0.898039 0.356863 0.286275
0.996078 0.392157 0.313725
0.003922 0.392157 0.211765
0.098039 0.392157 0.223529
0.235294 0.396078 0.223529
0.388235 0.415686 0.243137
0.541176 0.427451 0.262745
0.686275 0.415686 0.286275
0.800000 0.423529 0.298039
0.905882 0.431373 0.317647
0.992157 0.458824 0.341176
0.003922 0.537255 0.254902
0.125490 0.541176 0.258824
0.258824 0.545098 0.258824
0.411765 0.560784 0.274510
0.568627 0.576471 0.290196
0.713725 0.576471 0.309804
0.839216 0.568627 0.352941
0.960784 0.564706 0.392157
1.000000 0.584314 0.419608
0.176471 0.666667 0.298039
0.231373 0.674510 0.305882
0.321569 0.670588 0.317647
0.439216 0.678431 0.313725
0.588235 0.690196 0.341176
0.729412 0.713725 0.356863
0.862745 0.709804 0.400000
0.968627 0.705882 0.431373
0.996078 0.705882 0.474510
0.305882 0.784314 0.349020
0.333333 0.780392 0.345098
0.400000 0.784314 0.356863
0.490196 0.796078 0.364706
0.611765 0.796078 0.380392
0.737255 0.807843 0.407843
0.850980 0.815686 0.419608
0.964706 0.819608 0.474510
0.996078 0.827451 0.521569
0.474510 0.901961 0.431373
0.478431 0.882353 0.419608
0.513725 0.886275 0.423529
0.572549 0.890196 0.427451
0.666667 0.894118 0.454902
0.756863 0.905882 0.462745
0.862745 0.913725 0.498039
0.968627 0.921569 0.537255
0.996078 0.929412 0.584314
0.611765 0.996078 0.529412
0.607843 0.992157 0.509804
0.647059 0.996078 0.525490
0.690196 0.996078 0.525490
0.749020 1.000000 0.549020
0.827451 1.000000 0.564706
0.890196 0.996078 0.592157
0.968627 0.996078 0.619608
1.000000 1.000000 0.662745
0.000000 0.003922 0.266667
0.039216 0.003922 0.266667
0.219608 0.027451 0.294118
0.345098 0.074510 0.290196
0.478431 0.117647 0.278431
0.603922 0.145098 0.278431
0.713725 0.250980 0.305882
0.862745 0.282353 0.337255
0.980392 0.329412 0.345098
0.003922 0.152941 0.294118
0.039216 0.149020 0.301961
0.219608 0.156863 0.301961
0.356863 0.172549 0.305882
0.482353 0.192157 0.298039
0.596078 0.239216 0.305882
0.733333 0.278431 0.321569
0.858824 0.305882 0.329412
0.980392 0.349020 0.349020
0.000000 0.262745 0.286275
0.058824 0.266667 0.290196
0.207843 0.266667 0.294118
0.341176 0.282353 0.301961
0.478431 0.298039 0.309804
0.619608 0.321569 0.329412
0.745098 0.341176 0.325490
0.874510 0.368627 0.349020
1.000000 0.407843 0.364706
0.000000 0.388235 0.305882
0.078431 0.388235 0.305882
0.219608 0.396078 0.313725
0.368627 0.407843 0.313725
0.525490 0.415686 0.333333
0.662745 0.423529 0.352941
0.776471 0.431373 0.356863
0.890196 0.450980 0.372549
1.000000 0.478431 0.396078
0.003922 0.529412 0.329412
0.125490 0.533333 0.333333
0.254902 0.541176 0.333333
0.400000 0.552941 0.345098
0.568627 0.568627 0.356863
0.701961 0.568627 0.380392
0.839216 0.568627 0.415686
0.937255 0.568627 0.427451
1.000000 0.603922 0.462745
0.196078 0.658824 0.360784
0.235294 0.658824 0.360784
0.325490 0.666667 0.360784
0.427451 0.674510 0.364706
0.576471 0.678431 0.384314
0.725490 0.701961 0.411765
0.847059 0.709804 0.450980
0.960784 0.705882 0.478431
1.000000 0.713725 0.513725
0.329412 0.784314 0.403922
0.360784 0.780392 0.403922
0.411765 0.780392 0.403922
0.501961 0.780392 0.411765
0.615686 0.792157 0.427451
0.733333 0.807843 0.447059
0.854902 0.815686 0.466667
0.960784 0.823529 0.505882
0.996078 0.823529 0.545098
0.470588 0.901961 0.458824
0.482353 0.882353 0.450980
0.517647 0.882353 0.454902
0.584314 0.882353 0.458824
0.650980 0.890196 0.474510
0.756863 0.901961 0.490196
0.866667 0.913725 0.521569
0.964706 0.929412 0.556863
1.000000 0.933333 0.611765
0.603922 1.000000 0.537255
0.615686 1.000000 0.533333
0.643137 0.996078 0.541176
0.690196 1.000000 0.545098
0.752941 1.000000 0.564706
0.819608 0.996078 0.584314
0.901961 1.000000 0.615686
0.960784 0.996078 0.639216
0.992157 1.000000 0.670588
0.000000 0.019608 0.388235
0.000000 0.027451 0.392157
0.200000 0.047059 0.403922
0.341176 0.074510 0.400000
0.474510 0.113725 0.415686
0.611765 0.137255 0.407843
0.737255 0.152941 0.380392
0.862745 0.184314 0.372549
0.972549 0.301961 0.403922
0.003922 0.152941 0.407843
0.000000 0.152941 0.407843
0.196078 0.160784 0.407843
0.364706 0.176471 0.411765
0.490196 0.184314 0.411765
0.619608 0.200000 0.403922
0.745098 0.215686 0.392157
0.858824 0.243137 0.380392
0.956863 0.356863 0.403922
0.000000 0.278431 0.380392
0.007843 0.278431 0.400000
0.188235 0.270588 0.392157
0.337255 0.274510 0.388235
0.470588 0.278431 0.396078
0.603922 0.290196 0.388235
0.729412 0.309804 0.380392
0.839216 0.380392 0.411765
0.976471 0.419608 0.427451
0.000000 0.392157 0.384314
0.047059 0.392157 0.396078
0.211765 0.392157 0.392157
0.349020 0.392157 0.400000
0.482353 0.403922 0.400000
0.615686 0.419608 0.415686
0.741176 0.435294 0.419608
0.854902 0.462745 0.431373
0.984314 0.490196 0.443137
0.003922 0.521569 0.407843
0.109804 0.521569 0.403922
0.247059 0.521569 0.407843
0.380392 0.533333 0.411765
0.549020 0.552941 0.431373
0.690196 0.556863 0.450980
0.807843 0.572549 0.478431
0.917647 0.588235 0.494118
1.000000 0.607843 0.505882
0.207843 0.650980 0.423529
0.254902 0.647059 0.427451
0.345098 0.654902 0.439216
0.447059 0.662745 0.447059
0.576471 0.674510 0.458824
0.717647 0.698039 0.478431
0.843137 0.701961 0.505882
0.952941 0.705882 0.529412
1.000000 0.721569 0.564706
0.356863 0.776471 0.462745
0.392157 0.768627 0.470588
0.435294 0.776471 0.466667
0.513725 0.784314 0.466667
0.611765 0.784314 0.482353
0.733333 0.796078 0.501961
0.850980 0.815686 0.521569
0.956863 0.827451 0.564706
0.996078 0.831373 0.596078
0.482353 0.898039 0.505882
0.486275 0.878431 0.494118
0.525490 0.882353 0.501961
0.588235 0.882353 0.509804
0.666667 0.890196 0.517647
0.764706 0.901961 0.541176
0.858824 0.909804 0.564706
0.960784 0.929412 0.596078
1.000000 0.933333 0.650980
0.596078 0.996078 0.568627
0.611765 1.000000 0.564706
0.639216 0.996078 0.580392
0.686275 0.996078 0.576471
0.741176 0.996078 0.588235
0.819608 1.000000 0.615686
0.898039 1.000000 0.643137
0.968627 1.000000 0.666667
0.996078 1.000000 0.701961
0.007843 0.050980 0.505882
0.007843 0.058824 0.505882
0.168627 0.082353 0.505882
0.341176 0.094118 0.505882
0.490196 0.113725 0.501961
0.611765 0.137255 0.501961
0.737255 0.156863 0.501961
0.866667 0.192157 0.482353
0.988235 0.219608 0.470588
0.003922 0.164706 0.517647
0.000000 0.168627 0.517647
0.172549 0.172549 0.509804
0.349020 0.176471 0.517647
0.486275 0.184314 0.505882
0.619608 0.196078 0.494118
0.737255 0.203922 0.501961
0.858824 0.223529 0.478431
0.972549 0.254902 0.478431
0.000000 0.290196 0.466667
0.003922 0.290196 0.486275
0.172549 0.270588 0.490196
0.333333 0.278431 0.486275
0.478431 0.282353 0.490196
0.600000 0.286275 0.486275
0.737255 0.298039 0.494118
0.854902 0.313725 0.478431
0.988235 0.337255 0.486275
0.000000 0.403922 0.478431
0.000000 0.400000 0.490196
0.203922 0.403922 0.478431
0.337255 0.392157 0.494118
0.486275 0.392157 0.486275
0.607843 0.396078 0.498039
0.729412 0.403922 0.482353
0.850980 0.411765 0.470588
0.964706 0.466667 0.494118
0.000000 0.517647 0.498039
0.109804 0.521569 0.494118
0.243137 0.529412 0.501961
0.380392 0.525490 0.498039
0.509804 0.517647 0.498039
0.631373 0.537255 0.505882
0.764706 0.552941 0.521569
0.882353 0.576471 0.529412
1.000000 0.607843 0.545098
0.211765 0.643137 0.498039
0.266667 0.647059 0.509804
0.341176 0.643137 0.501961
0.447059 0.647059 0.509804
0.556863 0.650980 0.525490
0.698039 0.674510 0.541176
0.827451 0.690196 0.564706
0.933333 0.713725 0.592157
1.000000 0.721569 0.603922
0.349020 0.764706 0.521569
0.372549 0.764706 0.521569
0.431373 0.768627 0.529412
0.509804 0.764706 0.529412
0.603922 0.776471 0.537255
0.717647 0.788235 0.552941
0.847059 0.811765 0.580392
0.952941 0.823529 0.615686
1.000000 0.835294 0.654902
0.470588 0.894118 0.560784
0.474510 0.870588 0.556863
0.517647 0.878431 0.552941
0.588235 0.882353 0.560784
0.658824 0.890196 0.576471
0.749020 0.901961 0.584314
0.862745 0.909804 0.611765
0.960784 0.929412 0.647059
1.000000 0.937255 0.698039
0.584314 1.000000 0.615686
0.600000 1.000000 0.611765
0.627451 1.000000 0.615686
0.670588 1.000000 0.627451
0.737255 1.000000 0.635294
0.807843 0.996078 0.650980
0.890196 0.996078 0.678431
0.968627 1.000000 0.705882
0.996078 1.000000 0.737255
0.003922 0.082353 0.611765
0.000000 0.086275 0.603922
0.145098 0.094118 0.607843
0.321569 0.117647 0.603922
0.482353 0.125490 0.607843
0.607843 0.137255 0.588235
0.741176 0.156863 0.580392
0.862745 0.180392 0.584314
0.984314 0.219608 0.588235
0.003922 0.176471 0.603922
0.000000 0.176471 0.611765
0.152941 0.176471 0.607843
0.337255 0.184314 0.603922
0.490196 0.188235 0.596078
0.619608 0.196078 0.592157
0.737255 0.200000 0.584314
0.858824 0.223529 0.592157
0.980392 0.239216 0.576471
0.000000 0.282353 0.580392
0.003922 0.274510 0.580392
0.145098 0.274510 0.576471
0.325490 0.274510 0.584314
0.466667 0.278431 0.568627
0.611765 0.294118 0.572549
0.733333 0.290196 0.572549
0.850980 0.317647 0.576471
0.988235 0.341176 0.580392
0.000000 0.403922 0.560784
0.015686 0.403922 0.564706
0.215686 0.403922 0.560784
0.317647 0.388235 0.568627
0.478431 0.392157 0.576471
0.600000 0.400000 0.568627
0.717647 0.392157 0.564706
0.843137 0.400000 0.580392
0.972549 0.411765 0.584314
0.019608 0.529412 0.568627
0.141176 0.529412 0.580392
0.247059 0.529412 0.576471
0.380392 0.529412 0.580392
0.501961 0.513725 0.580392
0.623529 0.513725 0.572549
0.745098 0.525490 0.576471
0.862745 0.525490 0.568627
0.996078 0.537255 0.580392
0.219608 0.643137 0.588235
0.262745 0.639216 0.592157
0.337255 0.643137 0.588235
0.435294 0.635294 0.576471
0.533333 0.643137 0.588235
0.658824 0.635294 0.588235
0.776471 0.650980 0.600000
0.894118 0.674510 0.623529
1.000000 0.705882 0.631373
0.329412 0.749020 0.584314
0.352941 0.745098 0.592157
0.407843 0.752941 0.588235
0.490196 0.756863 0.603922
0.584314 0.760784 0.607843
0.694118 0.764706 0.615686
0.827451 0.792157 0.639216
0.945098 0.811765 0.674510
1.000000 0.831373 0.713725
0.443137 0.882353 0.615686
0.450980 0.866667 0.607843
0.490196 0.866667 0.607843
0.552941 0.874510 0.615686
0.643137 0.878431 0.635294
0.737255 0.890196 0.643137
0.847059 0.905882 0.674510
0.956863 0.929412 0.717647
1.000000 0.937255 0.756863
0.549020 1.000000 0.666667
0.552941 1.000000 0.658824
0.588235 1.000000 0.666667
0.650980 1.000000 0.670588
0.713725 1.000000 0.690196
0.796078 1.000000 0.705882
0.878431 1.000000 0.725490
0.960784 1.000000 0.760784
1.000000 1.000000 0.788235
0.007843 0.113725 0.713725
0.003922 0.117647 0.717647
0.098039 0.129412 0.705882
0.321569 0.133333 0.705882
0.474510 0.145098 0.694118
0.619608 0.145098 0.690196
0.756863 0.160784 0.690196
0.870588 0.180392 0.678431
0.988235 0.219608 0.682353
0.000000 0.184314 0.709804
0.003922 0.192157 0.717647
0.105882 0.196078 0.713725
0.325490 0.196078 0.705882
0.474510 0.196078 0.705882
0.619608 0.203922 0.690196
0.745098 0.203922 0.682353
0.866667 0.219608 0.682353
0.984314 0.250980 0.670588
0.000000 0.278431 0.670588
0.000000 0.274510 0.674510
0.109804 0.286275 0.674510
0.325490 0.282353 0.682353
0.462745 0.290196 0.674510
0.611765 0.294118 0.674510
0.741176 0.294118 0.670588
0.866667 0.305882 0.674510
0.988235 0.337255 0.690196
0.000000 0.411765 0.658824
0.027451 0.411765 0.666667
0.145098 0.396078 0.674510
0.313725 0.384314 0.674510
0.462745 0.396078 0.670588
0.592157 0.392157 0.662745
0.725490 0.403922 0.666667
0.854902 0.403922 0.674510
0.988235 0.419608 0.690196
0.027451 0.529412 0.674510
0.137255 0.541176 0.670588
0.266667 0.537255 0.666667
0.380392 0.537255 0.666667
0.494118 0.513725 0.678431
0.627451 0.517647 0.678431
0.749020 0.521569 0.686275
0.874510 0.517647 0.678431
1.000000 0.537255 0.694118
0.227451 0.654902 0.682353
0.262745 0.654902 0.686275
0.341176 0.654902 0.682353
0.427451 0.650980 0.686275
0.533333 0.643137 0.686275
0.639216 0.631373 0.686275
0.760784 0.627451 0.690196
0.886275 0.635294 0.690196
0.992157 0.650980 0.694118
0.298039 0.756863 0.682353
0.341176 0.760784 0.690196
0.388235 0.756863 0.686275
0.466667 0.749020 0.694118
0.564706 0.752941 0.690196
0.666667 0.749020 0.690196
0.780392 0.749020 0.698039
0.894118 0.768627 0.717647
1.000000 0.803922 0.737255
0.407843 0.870588 0.705882
0.415686 0.854902 0.690196
0.458824 0.858824 0.701961
0.521569 0.862745 0.698039
0.607843 0.866667 0.709804
0.709804 0.878431 0.709804
0.819608 0.882353 0.737255
0.949020 0.925490 0.792157
1.000000 0.933333 0.831373
0.513725 1.000000 0.749020
0.521569 1.000000 0.745098
0.564706 1.000000 0.752941
0.607843 1.000000 0.749020
0.678431 0.996078 0.756863
0.772549 1.000000 0.772549
0.870588 1.000000 0.792157
0.949020 1.000000 0.819608
1.000000 1.000000 0.850980
0.000000 0.141176 0.847059
0.003922 0.141176 0.839216
0.003922 0.149020 0.839216
0.286275 0.160784 0.839216
0.466667 0.152941 0.831373
0.615686 0.164706 0.819608
0.749020 0.168627 0.803922
0.882353 0.188235 0.807843
0.992157 0.227451 0.807843
0.000000 0.200000 0.854902
0.000000 0.207843 0.850980
0.000000 0.211765 0.847059
0.294118 0.207843 0.835294
0.462745 0.211765 0.823529
0.615686 0.211765 0.811765
0.749020 0.215686 0.811765
0.882353 0.223529 0.800000
0.996078 0.250980 0.807843
0.000000 0.282353 0.796078
0.000000 0.294118 0.800000
0.007843 0.282353 0.800000
0.286275 0.286275 0.796078
0.450980 0.294118 0.811765
0.603922 0.294118 0.796078
0.745098 0.301961 0.815686
0.866667 0.317647 0.800000
1.000000 0.337255 0.811765
0.000000 0.403922 0.803922
0.000000 0.407843 0.796078
0.007843 0.388235 0.796078
0.282353 0.388235 0.792157
0.454902 0.388235 0.796078
0.607843 0.392157 0.792157
0.741176 0.396078 0.796078
0.866667 0.403922 0.796078
0.984314 0.415686 0.796078
0.007843 0.541176 0.800000
0.105882 0.549020 0.807843
0.243137 0.549020 0.800000
0.349020 0.533333 0.807843
0.462745 0.509804 0.800000
0.619608 0.509804 0.807843
0.756863 0.513725 0.807843
0.882353 0.521569 0.815686
0.992157 0.533333 0.811765
0.200000 0.674510 0.827451
0.227451 0.682353 0.819608
0.309804 0.670588 0.815686
0.403922 0.658824 0.807843
0.517647 0.654902 0.811765
0.627451 0.639216 0.815686
0.776471 0.635294 0.823529
0.894118 0.627451 0.827451
1.000000 0.643137 0.843137
0.258824 0.780392 0.800000
0.305882 0.776471 0.811765
0.360784 0.776471 0.819608
0.450980 0.772549 0.819608
0.541176 0.768627 0.815686
0.654902 0.764706 0.819608
0.760784 0.749020 0.823529
0.898039 0.752941 0.831373
0.992157 0.760784 0.831373
0.372549 0.894118 0.843137
0.384314 0.866667 0.823529
0.431373 0.878431 0.819608
0.498039 0.874510 0.827451
0.592157 0.882353 0.823529
0.674510 0.878431 0.831373
0.788235 0.882353 0.831373
0.913725 0.890196 0.843137
1.000000 0.913725 0.870588
0.462745 1.000000 0.866667
0.478431 1.000000 0.854902
0.513725 1.000000 0.862745
0.564706 1.000000 0.862745
0.643137 1.000000 0.870588
0.729412 1.000000 0.862745
0.831373 1.000000 0.882353
0.941176 1.000000 0.901961
1.000000 0.992157 0.941176
0.000000 0.168627 0.996078
0.000000 0.172549 1.000000
0.000000 0.172549 1.000000
0.211765 0.180392 1.000000
0.435294 0.180392 0.996078
0.603922 0.180392 0.992157
0.752941 0.188235 0.984314
0.898039 0.200000 0.976471
0.996078 0.243137 0.976471
0.000000 0.219608 1.000000
0.000000 0.215686 0.996078
0.000000 0.219608 1.000000
0.203922 0.215686 1.000000
0.431373 0.219608 1.000000
0.600000 0.219608 0.984314
0.756863 0.227451 0.984314
0.894118 0.235294 0.976471
1.000000 0.274510 0.988235
0.007843 0.294118 0.976471
0.000000 0.294118 0.972549
0.000000 0.294118 0.976471
0.192157 0.294118 0.972549
0.423529 0.298039 0.976471
0.588235 0.301961 0.968627
0.756863 0.301961 0.980392
0.894118 0.317647 0.976471
0.996078 0.356863 0.988235
0.000000 0.388235 0.968627
0.000000 0.392157 0.972549
0.000000 0.396078 0.972549
0.168627 0.392157 0.976471
0.423529 0.388235 0.980392
0.588235 0.392157 0.968627
0.745098 0.400000 0.980392
0.890196 0.407843 0.976471
1.000000 0.427451 0.976471
0.000000 0.560784 0.976471
0.007843 0.552941 0.980392
0.000000 0.545098 0.980392
0.168627 0.517647 0.988235
0.415686 0.513725 0.984314
0.592157 0.513725 0.988235
0.749020 0.517647 0.988235
0.894118 0.521569 0.984314
1.000000 0.541176 1.000000
0.000000 0.694118 0.996078
0.000000 0.701961 1.000000
0.168627 0.690196 0.992157
0.325490 0.670588 1.000000
0.447059 0.647059 0.996078
0.580392 0.619608 0.992157
0.752941 0.631373 1.000000
0.898039 0.635294 1.000000
1.000000 0.650980 1.000000
0.113725 0.815686 1.000000
0.176471 0.811765 1.000000
0.270588 0.807843 1.000000
0.376471 0.807843 1.000000
0.490196 0.792157 0.996078
0.619608 0.776471 1.000000
0.729412 0.745098 0.992157
0.890196 0.756863 1.000000
0.996078 0.756863 0.988235
0.325490 0.921569 0.996078
0.352941 0.917647 0.992157
0.403922 0.917647 0.996078
0.478431 0.917647 1.000000
0.560784 0.913725 1.000000
0.662745 0.905882 0.996078
0.764706 0.901961 0.988235
0.890196 0.898039 0.996078
1.000000 0.898039 1.000000
0.450980 1.000000 0.996078
0.470588 1.000000 0.988235
0.509804 0.996078 0.996078
0.560784 0.996078 1.000000
0.627451 0.996078 0.992157
0.717647 0.996078 1.000000
0.823529 0.996078 0.992157
0.929412 1.000000 1.000000
1.000000 1.000000 1.000000
