qml/filters/cineOrangeTeal.cube
#Generated with IWLTBAP LUT Generator
#Website: http://luts.iwltbap.com
TITLE "FGCineTealOrange2"
#LUT size
LUT_3D_SIZE 9
#LUT data points
0.105882 0.101961 0.086275
0.141176 0.101961 0.094118
0.266667 0.113725 0.086275
0.415686 0.137255 0.058824
0.615686 0.196078 0.000000
0.823529 0.266667 0.000000
0.952941 0.325490 0.000000
0.992157 0.356863 0.000000
0.996078 0.388235 0.000000
0.109804 0.113725 0.082353
0.168627 0.117647 0.086275
0.266667 0.125490 0.078431
0.407843 0.149020 0.062745
0.592157 0.200000 0.003922
0.792157 0.274510 0.000000
0.921569 0.317647 0.003922
1.000000 0.352941 0.000000
1.000000 0.384314 0.003922
0.121569 0.164706 0.109804
0.176471 0.172549 0.094118
0.286275 0.192157 0.090196
0.447059 0.203922 0.050980
0.647059 0.239216 0.000000
0.823529 0.301961 0.000000
0.945098 0.345098 0.000000
0.996078 0.376471 0.000000
1.000000 0.400000 0.003922
0.160784 0.239216 0.141176
0.192157 0.254902 0.145098
0.294118 0.282353 0.113725
0.462745 0.309804 0.086275
0.639216 0.337255 0.000000
0.784314 0.349020 0.000000
0.917647 0.349020 0.000000
0.992157 0.384314 0.000000
0.992157 0.403922 0.000000
0.184314 0.368627 0.196078
0.223529 0.396078 0.203922
0.337255 0.423529 0.180392
0.501961 0.462745 0.113725
0.690196 0.474510 0.019608
0.835294 0.474510 0.007843
0.949020 0.458824 0.000000
0.996078 0.435294 0.000000
0.996078 0.435294 0.003922
0.235294 0.592157 0.329412
0.270588 0.588235 0.317647
0.372549 0.600000 0.298039
0.525490 0.627451 0.239216
0.717647 0.643137 0.141176
0.870588 0.607843 0.054902
0.964706 0.572549 0.000000
0.992157 0.545098 0.000000
0.996078 0.505882 0.003922
0.250980 0.666667 0.384314
0.301961 0.666667 0.388235
0.368627 0.686275 0.368627
0.501961 0.713725 0.337255
0.670588 0.741176 0.270588
0.835294 0.725490 0.192157
0.952941 0.666667 0.113725
1.000000 0.627451 0.000000
1.000000 0.596078 0.003922
0.403922 0.807843 0.529412
0.443137 0.819608 0.560784
0.474510 0.827451 0.545098
0.556863 0.831373 0.545098
0.682353 0.850980 0.501961
0.831373 0.854902 0.431373
0.952941 0.811765 0.333333
0.996078 0.745098 0.262745
1.000000 0.701961 0.160784
0.564706 0.886275 0.690196
0.596078 0.894118 0.701961
0.611765 0.898039 0.713725
0.635294 0.901961 0.694118
0.721569 0.913725 0.658824
0.811765 0.921569 0.623529
0.972549 0.917647 0.541176
1.000000 0.835294 0.435294
0.992157 0.788235 0.349020
0.098039 0.113725 0.125490
0.141176 0.098039 0.121569
0.243137 0.121569 0.109804
0.376471 0.152941 0.094118
0.564706 0.196078 0.015686
0.792157 0.262745 0.003922
0.921569 0.317647 0.000000
1.000000 0.352941 0.000000
1.000000 0.380392 0.003922
0.109804 0.129412 0.113725
0.145098 0.129412 0.117647
0.231373 0.137255 0.105882
0.364706 0.156863 0.101961
0.545098 0.196078 0.047059
0.749020 0.258824 0.000000
0.890196 0.309804 0.000000
0.996078 0.349020 0.000000
1.000000 0.380392 0.000000
0.164706 0.168627 0.149020
0.160784 0.184314 0.137255
0.254902 0.188235 0.121569
0.396078 0.200000 0.109804
0.600000 0.239216 0.062745
0.776471 0.294118 0.000000
0.913725 0.333333 0.003922
0.996078 0.368627 0.007843
1.000000 0.392157 0.000000
0.164706 0.247059 0.180392
0.192157 0.243137 0.172549
0.266667 0.266667 0.156863
0.407843 0.282353 0.129412
0.584314 0.309804 0.078431
0.749020 0.333333 0.007843
0.898039 0.345098 0.000000
1.000000 0.380392 0.007843
1.000000 0.400000 0.000000
0.200000 0.364706 0.219608
0.223529 0.372549 0.227451
0.305882 0.400000 0.211765
0.466667 0.439216 0.172549
0.647059 0.450980 0.117647
0.796078 0.454902 0.003922
0.921569 0.447059 0.000000
1.000000 0.431373 0.000000
0.992157 0.431373 0.000000
0.235294 0.552941 0.321569
0.243137 0.549020 0.313725
0.345098 0.560784 0.298039
0.486275 0.596078 0.266667
0.686275 0.623529 0.196078
0.835294 0.596078 0.141176
0.949020 0.560784 0.015686
1.000000 0.529412 0.007843
0.996078 0.501961 0.000000
0.243137 0.643137 0.388235
0.282353 0.654902 0.380392
0.341176 0.654902 0.360784
0.474510 0.682353 0.337255
0.635294 0.721569 0.298039
0.823529 0.717647 0.211765
0.937255 0.662745 0.176471
0.996078 0.627451 0.050980
0.996078 0.588235 0.000000
0.396078 0.803922 0.564706
0.439216 0.807843 0.560784
0.466667 0.815686 0.564706
0.549020 0.823529 0.541176
0.662745 0.839216 0.513725
0.819608 0.850980 0.447059
0.949020 0.807843 0.360784
1.000000 0.741176 0.294118
1.000000 0.698039 0.192157
0.549020 0.890196 0.686275
0.545098 0.890196 0.701961
0.580392 0.886275 0.690196
0.619608 0.894118 0.690196
0.705882 0.905882 0.674510
0.811765 0.913725 0.627451
0.960784 0.905882 0.556863
1.000000 0.839216 0.462745
0.996078 0.788235 0.349020
0.000000 0.149020 0.200000
0.105882 0.133333 0.196078
0.231373 0.145098 0.196078
0.364706 0.168627 0.180392
0.549020 0.227451 0.145098
0.756863 0.286275 0.098039
0.917647 0.329412 0.000000
0.992157 0.356863 0.000000
1.000000 0.388235 0.000000
0.086275 0.160784 0.188235
0.133333 0.160784 0.184314
0.227451 0.168627 0.188235
0.341176 0.192157 0.180392
0.521569 0.223529 0.160784
0.717647 0.274510 0.109804
0.874510 0.325490 0.000000
0.992157 0.356863 0.000000
1.000000 0.384314 0.000000
0.133333 0.207843 0.200000
0.176471 0.200000 0.192157
0.247059 0.207843 0.200000
0.372549 0.219608 0.192157
0.560784 0.262745 0.172549
0.745098 0.309804 0.129412
0.898039 0.345098 0.035294
0.988235 0.376471 0.003922
1.000000 0.400000 0.003922
0.184314 0.266667 0.239216
0.207843 0.274510 0.235294
0.250980 0.274510 0.219608
0.388235 0.290196 0.203922
0.552941 0.305882 0.184314
0.721569 0.317647 0.149020
0.886275 0.364706 0.070588
1.000000 0.392157 0.007843
1.000000 0.407843 0.000000
0.243137 0.400000 0.305882
0.254902 0.403922 0.305882
0.282353 0.396078 0.278431
0.427451 0.435294 0.250980
0.611765 0.447059 0.227451
0.772549 0.447059 0.180392
0.898039 0.439216 0.125490
1.000000 0.427451 0.000000
1.000000 0.427451 0.000000
0.290196 0.576471 0.407843
0.286275 0.564706 0.392157
0.329412 0.549020 0.364706
0.458824 0.580392 0.345098
0.650980 0.631373 0.313725
0.807843 0.596078 0.258824
0.929412 0.564706 0.200000
1.000000 0.541176 0.129412
1.000000 0.505882 0.003922
0.262745 0.654902 0.435294
0.301961 0.666667 0.443137
0.341176 0.658824 0.427451
0.450980 0.674510 0.407843
0.611765 0.705882 0.376471
0.792157 0.717647 0.309804
0.921569 0.670588 0.290196
1.000000 0.639216 0.235294
1.000000 0.600000 0.109804
0.419608 0.807843 0.588235
0.443137 0.807843 0.596078
0.462745 0.803922 0.600000
0.525490 0.815686 0.576471
0.643137 0.827451 0.552941
0.784314 0.839216 0.498039
0.929412 0.811765 0.435294
1.000000 0.752941 0.380392
1.000000 0.709804 0.298039
0.564706 0.890196 0.717647
0.572549 0.890196 0.721569
0.588235 0.890196 0.717647
0.623529 0.894118 0.713725
0.701961 0.898039 0.698039
0.792157 0.917647 0.670588
0.945098 0.917647 0.611765
1.000000 0.850980 0.529412
1.000000 0.792157 0.439216
0.000000 0.235294 0.345098
0.000000 0.215686 0.337255
0.196078 0.188235 0.345098
0.403922 0.207843 0.360784
0.596078 0.243137 0.341176
0.729412 0.341176 0.282353
0.882353 0.372549 0.231373
0.996078 0.400000 0.176471
1.000000 0.411765 0.043137
0.000000 0.231373 0.313725
0.000000 0.227451 0.313725
0.180392 0.203922 0.329412
0.384314 0.227451 0.333333
0.556863 0.247059 0.321569
0.694118 0.329412 0.262745
0.850980 0.364706 0.231373
0.984314 0.396078 0.160784
0.996078 0.407843 0.027451
0.003922 0.274510 0.325490
0.078431 0.274510 0.317647
0.207843 0.278431 0.325490
0.384314 0.298039 0.349020
0.541176 0.329412 0.321569
0.713725 0.368627 0.294118
0.870588 0.400000 0.262745
0.996078 0.419608 0.207843
0.984314 0.427451 0.074510
0.105882 0.321569 0.337255
0.156863 0.333333 0.352941
0.250980 0.329412 0.333333
0.360784 0.329412 0.321569
0.509804 0.341176 0.305882
0.694118 0.372549 0.290196
0.858824 0.407843 0.262745
0.984314 0.435294 0.203922
1.000000 0.431373 0.098039
0.196078 0.439216 0.419608
0.239216 0.466667 0.419608
0.325490 0.466667 0.427451
0.372549 0.447059 0.368627
0.568627 0.470588 0.360784
0.733333 0.466667 0.321569
0.878431 0.458824 0.301961
1.000000 0.466667 0.247059
0.996078 0.466667 0.168627
0.333333 0.619608 0.541176
0.360784 0.615686 0.529412
0.411765 0.603922 0.517647
0.423529 0.584314 0.458824
0.596078 0.627451 0.435294
0.780392 0.611765 0.407843
0.898039 0.588235 0.364706
1.000000 0.556863 0.313725
0.992157 0.521569 0.243137
0.396078 0.686275 0.580392
0.411765 0.701961 0.572549
0.396078 0.694118 0.541176
0.439216 0.678431 0.509804
0.568627 0.705882 0.486275
0.760784 0.729412 0.447059
0.898039 0.690196 0.431373
0.992157 0.662745 0.380392
1.000000 0.615686 0.309804
0.501961 0.811765 0.686275
0.517647 0.815686 0.674510
0.517647 0.823529 0.670588
0.533333 0.811765 0.647059
0.615686 0.827451 0.631373
0.752941 0.839216 0.588235
0.901961 0.823529 0.545098
1.000000 0.772549 0.505882
1.000000 0.729412 0.435294
0.607843 0.898039 0.768627
0.607843 0.898039 0.768627
0.615686 0.894118 0.760784
0.631373 0.886275 0.752941
0.682353 0.898039 0.737255
0.784314 0.909804 0.713725
0.921569 0.913725 0.682353
1.000000 0.866667 0.615686
1.000000 0.819608 0.552941
0.015686 0.337255 0.521569
0.003922 0.321569 0.529412
0.003922 0.282353 0.533333
0.349020 0.278431 0.576471
0.631373 0.337255 0.592157
0.776471 0.431373 0.580392
0.854902 0.439216 0.447059
0.968627 0.494118 0.419608
1.000000 0.521569 0.400000
0.003922 0.325490 0.482353
0.003922 0.329412 0.486275
0.000000 0.317647 0.494118
0.337255 0.298039 0.537255
0.588235 0.341176 0.556863
0.737255 0.403922 0.533333
0.831373 0.443137 0.431373
0.945098 0.494118 0.411765
1.000000 0.498039 0.376471
0.003922 0.372549 0.509804
0.000000 0.380392 0.509804
0.000000 0.372549 0.509804
0.329412 0.352941 0.541176
0.588235 0.411765 0.572549
0.725490 0.447059 0.521569
0.815686 0.494118 0.450980
0.956863 0.513725 0.443137
1.000000 0.525490 0.411765
0.000000 0.415686 0.501961
0.007843 0.423529 0.509804
0.121569 0.415686 0.498039
0.313725 0.396078 0.470588
0.505882 0.435294 0.498039
0.650980 0.470588 0.470588
0.803922 0.490196 0.447059
0.949020 0.509804 0.423529
1.000000 0.509804 0.360784
0.000000 0.501961 0.545098
0.054902 0.517647 0.556863
0.247059 0.509804 0.533333
0.384314 0.501961 0.533333
0.505882 0.498039 0.501961
0.662745 0.509804 0.482353
0.831373 0.529412 0.458824
0.960784 0.545098 0.450980
1.000000 0.545098 0.384314
0.250980 0.666667 0.650980
0.305882 0.662745 0.643137
0.384314 0.654902 0.643137
0.470588 0.647059 0.619608
0.521569 0.615686 0.552941
0.717647 0.631373 0.549020
0.854902 0.619608 0.517647
0.972549 0.592157 0.478431
1.000000 0.584314 0.450980
0.372549 0.733333 0.690196
0.415686 0.745098 0.674510
0.462745 0.737255 0.686275
0.517647 0.725490 0.647059
0.529412 0.698039 0.592157
0.694118 0.737255 0.572549
0.858824 0.721569 0.572549
0.960784 0.690196 0.521569
1.000000 0.666667 0.482353
0.541176 0.835294 0.756863
0.572549 0.835294 0.764706
0.592157 0.839216 0.756863
0.596078 0.831373 0.733333
0.603922 0.811765 0.690196
0.713725 0.835294 0.674510
0.866667 0.843137 0.654902
0.968627 0.792157 0.627451
1.000000 0.772549 0.588235
0.674510 0.898039 0.831373
0.690196 0.901961 0.831373
0.678431 0.905882 0.819608
0.666667 0.894118 0.796078
0.674510 0.894118 0.788235
0.756863 0.905882 0.760784
0.878431 0.921569 0.752941
0.988235 0.894118 0.713725
1.000000 0.850980 0.674510
0.003922 0.439216 0.690196
0.003922 0.423529 0.690196
0.007843 0.411765 0.709804
0.062745 0.384314 0.713725
0.529412 0.419608 0.752941
0.764706 0.486275 0.752941
0.843137 0.580392 0.721569
0.933333 0.592157 0.658824
0.976471 0.670588 0.662745
0.000000 0.435294 0.650980
0.000000 0.435294 0.658824
0.000000 0.411765 0.658824
0.117647 0.380392 0.690196
0.501961 0.419608 0.713725
0.737255 0.498039 0.733333
0.831373 0.576471 0.709804
0.925490 0.588235 0.631373
0.972549 0.662745 0.643137
0.000000 0.466667 0.662745
0.003922 0.466667 0.654902
0.003922 0.458824 0.658824
0.180392 0.447059 0.686275
0.501961 0.466667 0.721569
0.725490 0.537255 0.733333
0.827451 0.619608 0.729412
0.909804 0.623529 0.658824
0.976471 0.670588 0.654902
0.003922 0.494118 0.650980
0.000000 0.505882 0.658824
0.003922 0.494118 0.643137
0.176471 0.478431 0.643137
0.454902 0.498039 0.674510
0.694118 0.560784 0.698039
0.792157 0.619608 0.686275
0.874510 0.631373 0.635294
0.988235 0.654902 0.635294
0.000000 0.568627 0.674510
0.000000 0.572549 0.670588
0.000000 0.568627 0.670588
0.266667 0.556863 0.650980
0.454902 0.556863 0.647059
0.654902 0.607843 0.694118
0.776471 0.631373 0.658824
0.901961 0.662745 0.643137
0.996078 0.666667 0.627451
0.007843 0.682353 0.729412
0.137255 0.674510 0.729412
0.278431 0.666667 0.725490
0.388235 0.662745 0.694118
0.501961 0.647059 0.678431
0.619608 0.635294 0.647059
0.776471 0.654902 0.643137
0.909804 0.674510 0.635294
1.000000 0.678431 0.623529
0.266667 0.737255 0.733333
0.290196 0.741176 0.721569
0.364706 0.741176 0.733333
0.458824 0.752941 0.741176
0.564706 0.745098 0.737255
0.619608 0.721569 0.678431
0.792157 0.741176 0.670588
0.929412 0.729412 0.654902
1.000000 0.705882 0.631373
0.517647 0.858824 0.831373
0.549020 0.858824 0.843137
0.576471 0.854902 0.823529
0.619608 0.843137 0.815686
0.666667 0.835294 0.796078
0.639216 0.811765 0.745098
0.807843 0.847059 0.741176
0.929412 0.823529 0.741176
0.996078 0.800000 0.701961
0.635294 0.925490 0.858824
0.654902 0.921569 0.862745
0.670588 0.913725 0.854902
0.709804 0.913725 0.866667
0.733333 0.905882 0.847059
0.729412 0.898039 0.823529
0.839216 0.917647 0.803922
0.968627 0.901961 0.792157
1.000000 0.878431 0.768627
0.003922 0.533333 0.823529
0.003922 0.529412 0.839216
0.007843 0.521569 0.835294
0.011765 0.513725 0.839216
0.403922 0.529412 0.854902
0.686275 0.603922 0.874510
0.854902 0.674510 0.866667
0.898039 0.729412 0.839216
0.960784 0.772549 0.835294
0.007843 0.529412 0.800000
0.003922 0.533333 0.823529
0.000000 0.521569 0.823529
0.000000 0.517647 0.811765
0.411765 0.521569 0.839216
0.682353 0.607843 0.858824
0.843137 0.678431 0.858824
0.882353 0.725490 0.831373
0.956863 0.768627 0.831373
0.003922 0.556863 0.807843
0.000000 0.560784 0.819608
0.000000 0.556863 0.807843
0.000000 0.549020 0.819608
0.419608 0.568627 0.823529
0.678431 0.639216 0.847059
0.839216 0.705882 0.850980
0.886275 0.756863 0.839216
0.949020 0.776471 0.827451
0.000000 0.592157 0.807843
0.000000 0.588235 0.803922
0.000000 0.592157 0.788235
0.003922 0.588235 0.784314
0.423529 0.607843 0.811765
0.654902 0.658824 0.839216
0.819608 0.713725 0.850980
0.886275 0.760784 0.843137
0.941176 0.772549 0.811765
0.000000 0.639216 0.800000
0.007843 0.647059 0.815686
0.000000 0.639216 0.800000
0.011765 0.635294 0.788235
0.392157 0.635294 0.780392
0.627451 0.686275 0.815686
0.800000 0.737255 0.839216
0.874510 0.788235 0.839216
0.937255 0.792157 0.819608
0.003922 0.717647 0.831373
0.007843 0.721569 0.835294
0.082353 0.713725 0.823529
0.290196 0.709804 0.811765
0.443137 0.701961 0.796078
0.592157 0.701961 0.788235
0.772549 0.768627 0.823529
0.862745 0.780392 0.807843
0.945098 0.792157 0.803922
0.176471 0.772549 0.823529
0.243137 0.772549 0.827451
0.317647 0.772549 0.823529
0.423529 0.772549 0.819608
0.525490 0.776471 0.815686
0.623529 0.756863 0.792157
0.721569 0.752941 0.764706
0.862745 0.776471 0.784314
0.980392 0.792157 0.776471
0.427451 0.850980 0.862745
0.458824 0.847059 0.866667
0.494118 0.850980 0.854902
0.560784 0.850980 0.854902
0.643137 0.854902 0.862745
0.717647 0.850980 0.854902
0.733333 0.831373 0.807843
0.882353 0.850980 0.811765
0.980392 0.847059 0.803922
0.627451 0.937255 0.913725
0.650980 0.933333 0.917647
0.674510 0.929412 0.913725
0.701961 0.933333 0.909804
0.741176 0.925490 0.894118
0.780392 0.917647 0.890196
0.792157 0.913725 0.854902
0.937255 0.925490 0.858824
1.000000 0.913725 0.862745
0.000000 0.611765 0.913725
0.007843 0.611765 0.917647
0.000000 0.611765 0.913725
0.007843 0.623529 0.921569
0.470588 0.666667 0.913725
0.650980 0.713725 0.917647
0.819608 0.772549 0.929412
0.917647 0.819608 0.933333
0.933333 0.843137 0.921569
0.003922 0.611765 0.909804
0.003922 0.611765 0.909804
0.000000 0.619608 0.905882
0.000000 0.631373 0.901961
0.462745 0.674510 0.917647
0.650980 0.709804 0.925490
0.811765 0.768627 0.925490
0.905882 0.815686 0.925490
0.921569 0.839216 0.913725
0.000000 0.627451 0.909804
0.015686 0.635294 0.913725
0.000000 0.647059 0.898039
0.000000 0.650980 0.909804
0.466667 0.686275 0.909804
0.658824 0.729412 0.917647
0.823529 0.784314 0.929412
0.905882 0.827451 0.925490
0.925490 0.854902 0.917647
0.000000 0.650980 0.894118
0.000000 0.666667 0.898039
0.011765 0.666667 0.901961
0.000000 0.674510 0.894118
0.443137 0.701961 0.898039
0.647059 0.737255 0.901961
0.807843 0.792157 0.921569
0.894118 0.835294 0.925490
0.929412 0.858824 0.921569
0.003922 0.698039 0.901961
0.000000 0.705882 0.898039
0.007843 0.701961 0.901961
0.003922 0.705882 0.901961
0.380392 0.729412 0.894118
0.635294 0.764706 0.901961
0.796078 0.811765 0.925490
0.898039 0.847059 0.917647
0.925490 0.870588 0.921569
0.000000 0.760784 0.901961
0.000000 0.760784 0.901961
0.007843 0.756863 0.901961
0.207843 0.752941 0.905882
0.392157 0.768627 0.901961
0.572549 0.784314 0.878431
0.772549 0.819608 0.905882
0.886275 0.858824 0.921569
0.933333 0.882353 0.921569
0.054902 0.803922 0.905882
0.168627 0.811765 0.890196
0.286275 0.807843 0.898039
0.400000 0.823529 0.913725
0.494118 0.815686 0.898039
0.607843 0.815686 0.886275
0.713725 0.823529 0.878431
0.858824 0.866667 0.913725
0.929412 0.878431 0.905882
0.423529 0.862745 0.905882
0.443137 0.874510 0.917647
0.482353 0.866667 0.901961
0.541176 0.870588 0.909804
0.619608 0.870588 0.909804
0.682353 0.874510 0.898039
0.756863 0.862745 0.890196
0.835294 0.866667 0.878431
0.945098 0.878431 0.901961
0.580392 0.929412 0.945098
0.584314 0.929412 0.933333
0.619608 0.933333 0.937255
0.658824 0.929412 0.941176
0.701961 0.929412 0.941176
0.776471 0.933333 0.933333
0.835294 0.937255 0.925490
0.886275 0.933333 0.917647
0.972549 0.941176 0.933333
0.003922 0.682353 0.972549
0.003922 0.686275 0.964706
0.000000 0.705882 0.972549
0.301961 0.733333 0.972549
0.568627 0.780392 0.968627
0.701961 0.811765 0.964706
0.811765 0.839216 0.952941
0.901961 0.870588 0.960784
0.949020 0.905882 0.968627
0.007843 0.690196 0.964706
0.000000 0.694118 0.952941
0.015686 0.709804 0.960784
0.274510 0.737255 0.956863
0.564706 0.776471 0.964706
0.705882 0.803922 0.952941
0.811765 0.835294 0.960784
0.901961 0.870588 0.960784
0.949020 0.901961 0.956863
0.000000 0.705882 0.952941
0.003922 0.713725 0.968627
0.000000 0.725490 0.964706
0.282353 0.745098 0.972549
0.556863 0.784314 0.968627
0.705882 0.823529 0.956863
0.807843 0.850980 0.960784
0.905882 0.874510 0.956863
0.952941 0.905882 0.960784
0.003922 0.713725 0.952941
0.000000 0.729412 0.960784
0.000000 0.733333 0.952941
0.156863 0.756863 0.960784
0.521569 0.792157 0.952941
0.701961 0.819608 0.952941
0.803922 0.850980 0.952941
0.898039 0.886275 0.968627
0.952941 0.909804 0.964706
0.000000 0.745098 0.972549
0.000000 0.741176 0.968627
0.003922 0.741176 0.960784
0.000000 0.776471 0.949020
0.454902 0.800000 0.945098
0.678431 0.831373 0.960784
0.800000 0.854902 0.956863
0.890196 0.901961 0.968627
0.945098 0.913725 0.956863
0.007843 0.784314 0.960784
0.003922 0.784314 0.968627
0.000000 0.792157 0.972549
0.007843 0.792157 0.964706
0.352941 0.815686 0.956863
0.603922 0.839216 0.949020
0.788235 0.874510 0.964706
0.901961 0.898039 0.960784
0.964706 0.925490 0.968627
0.007843 0.831373 0.968627
0.003922 0.835294 0.952941
0.082353 0.835294 0.964706
0.309804 0.843137 0.960784
0.443137 0.850980 0.956863
0.576471 0.850980 0.952941
0.729412 0.874510 0.949020
0.878431 0.905882 0.968627
0.952941 0.945098 0.964706
0.356863 0.890196 0.976471
0.384314 0.886275 0.960784
0.431373 0.890196 0.960784
0.501961 0.898039 0.960784
0.580392 0.898039 0.964706
0.674510 0.905882 0.960784
0.756863 0.909804 0.960784
0.843137 0.913725 0.952941
0.945098 0.960784 0.964706
0.568627 0.933333 0.964706
0.584314 0.937255 0.968627
0.611765 0.941176 0.980392
0.654902 0.941176 0.968627
0.709804 0.949020 0.968627
0.764706 0.952941 0.960784
0.843137 0.952941 0.968627
0.909804 0.964706 0.976471
0.952941 0.968627 0.972549
