qml/filters/cineDrama.cube
#Generated with IWLTBAP LUT Generator
#Website: http://luts.iwltbap.com
TITLE "FGCineDrama"
#LUT size
LUT_3D_SIZE 5
#LUT data points
0.050980 0.109804 0.090196
0.172549 0.101961 0.086275
0.756863 0.000000 0.050980
0.996078 0.003922 0.094118
0.992157 0.219608 0.290196
0.023529 0.176471 0.101961
0.235294 0.274510 0.039216
0.858824 0.301961 0.011765
1.000000 0.282353 0.156863
0.988235 0.384314 0.345098
0.007843 0.450980 0.000000
0.125490 0.482353 0.007843
0.756863 0.709804 0.003922
1.000000 0.658824 0.341176
1.000000 0.643137 0.501961
0.176471 0.713725 0.098039
0.266667 0.709804 0.121569
0.576471 0.792157 0.231373
0.917647 0.901961 0.407843
1.000000 0.850980 0.635294
0.505882 0.941176 0.458824
0.513725 0.949020 0.474510
0.603922 0.952941 0.529412
0.835294 0.968627 0.627451
1.000000 0.968627 0.737255
0.035294 0.105882 0.160784
0.168627 0.101961 0.164706
0.607843 0.000000 0.235294
0.937255 0.207843 0.329412
0.996078 0.435294 0.482353
0.007843 0.188235 0.149020
0.180392 0.227451 0.188235
0.729412 0.286275 0.270588
0.976471 0.407843 0.403922
0.992157 0.525490 0.517647
0.003922 0.482353 0.196078
0.164706 0.486275 0.196078
0.725490 0.674510 0.313725
1.000000 0.694118 0.537255
0.996078 0.713725 0.635294
0.262745 0.713725 0.247059
0.333333 0.713725 0.258824
0.572549 0.776471 0.345098
0.913725 0.901961 0.537255
1.000000 0.874510 0.725490
0.517647 0.941176 0.505882
0.545098 0.949020 0.521569
0.607843 0.952941 0.545098
0.835294 0.972549 0.658824
1.000000 0.972549 0.768627
0.003922 0.101961 0.454902
0.321569 0.011765 0.478431
0.666667 0.000000 0.466667
0.850980 0.121569 0.478431
1.000000 0.462745 0.592157
0.000000 0.321569 0.447059
0.129412 0.231373 0.470588
0.639216 0.223529 0.474510
0.850980 0.376471 0.513725
0.996078 0.572549 0.627451
0.000000 0.505882 0.388235
0.286275 0.521569 0.423529
0.654902 0.588235 0.549020
0.890196 0.698039 0.670588
1.000000 0.756863 0.749020
0.380392 0.725490 0.427451
0.474510 0.725490 0.478431
0.568627 0.733333 0.486275
0.886275 0.894118 0.709804
0.996078 0.905882 0.843137
0.549020 0.941176 0.588235
0.560784 0.945098 0.603922
0.635294 0.952941 0.635294
0.835294 0.968627 0.733333
0.992157 0.972549 0.847059
0.000000 0.113725 0.741176
0.309804 0.039216 0.737255
0.760784 0.003922 0.764706
0.921569 0.066667 0.709804
1.000000 0.392157 0.690196
0.000000 0.313725 0.729412
0.058824 0.266667 0.721569
0.725490 0.235294 0.752941
0.898039 0.345098 0.721569
1.000000 0.498039 0.705882
0.003922 0.631373 0.662745
0.003922 0.607843 0.670588
0.584314 0.537255 0.733333
0.839216 0.600000 0.729412
0.988235 0.686275 0.756863
0.278431 0.733333 0.611765
0.388235 0.737255 0.627451
0.580392 0.756863 0.666667
0.831373 0.835294 0.811765
0.980392 0.905882 0.882353
0.490196 0.949020 0.670588
0.525490 0.956863 0.678431
0.670588 0.956863 0.741176
0.807843 0.956863 0.803922
0.976471 0.968627 0.921569
0.000000 0.290196 0.960784
0.360784 0.282353 0.960784
0.690196 0.282353 0.960784
0.972549 0.333333 0.964706
0.996078 0.454902 0.901961
0.007843 0.411765 0.956863
0.341176 0.411765 0.976471
0.670588 0.419608 0.960784
0.956863 0.443137 0.960784
1.000000 0.537255 0.898039
0.258824 0.694118 0.945098
0.372549 0.662745 0.933333
0.580392 0.603922 0.949020
0.898039 0.635294 0.945098
0.996078 0.686275 0.909804
0.000000 0.894118 0.921569
0.196078 0.882353 0.925490
0.454902 0.870588 0.921569
0.772549 0.807843 0.937255
1.000000 0.854902 0.929412
0.501961 0.988235 0.878431
0.541176 0.980392 0.882353
0.662745 0.984314 0.898039
0.850980 0.976471 0.933333
0.956863 0.976471 0.960784
