qml/filters/cineWarm.cube
#Generated with IWLTBAP LUT Generator
#Website: http://luts.iwltbap.com
TITLE "FG_CineWarm"
#LUT size
LUT_3D_SIZE 25
#LUT data points
0.066667 0.090196 0.090196
0.058824 0.094118 0.090196
0.066667 0.090196 0.082353
0.082353 0.090196 0.086275
0.129412 0.098039 0.086275
0.172549 0.098039 0.074510
0.227451 0.098039 0.070588
0.294118 0.105882 0.058824
0.372549 0.117647 0.047059
0.462745 0.129412 0.019608
0.631373 0.176471 0.000000
0.686275 0.176471 0.000000
0.733333 0.196078 0.000000
0.776471 0.196078 0.007843
0.811765 0.211765 0.007843
0.858824 0.231373 0.003922
0.894118 0.247059 0.000000
0.929412 0.262745 0.000000
0.968627 0.270588 0.000000
1.000000 0.282353 0.015686
1.000000 0.294118 0.047059
1.000000 0.317647 0.090196
0.996078 0.337255 0.121569
1.000000 0.349020 0.168627
1.000000 0.521569 0.345098
0.152941 0.090196 0.090196
0.066667 0.090196 0.090196
0.066667 0.090196 0.090196
0.094118 0.094118 0.086275
0.137255 0.101961 0.082353
0.176471 0.101961 0.074510
0.223529 0.113725 0.062745
0.298039 0.117647 0.054902
0.372549 0.129412 0.039216
0.454902 0.141176 0.011765
0.564706 0.168627 0.003922
0.643137 0.188235 0.003922
0.737255 0.219608 0.000000
0.780392 0.223529 0.003922
0.819608 0.231373 0.000000
0.854902 0.239216 0.000000
0.894118 0.247059 0.000000
0.929412 0.262745 0.000000
0.960784 0.278431 0.007843
0.996078 0.290196 0.027451
0.996078 0.301961 0.058824
1.000000 0.305882 0.086275
0.996078 0.345098 0.125490
1.000000 0.317647 0.133333
1.000000 0.560784 0.403922
0.133333 0.101961 0.090196
0.070588 0.094118 0.094118
0.086275 0.094118 0.090196
0.098039 0.101961 0.082353
0.137255 0.109804 0.070588
0.180392 0.117647 0.066667
0.235294 0.129412 0.062745
0.301961 0.145098 0.047059
0.384314 0.152941 0.027451
0.462745 0.172549 0.000000
0.549020 0.196078 0.000000
0.639216 0.211765 0.000000
0.694118 0.219608 0.003922
0.788235 0.250980 0.000000
0.819608 0.258824 0.000000
0.854902 0.266667 0.000000
0.898039 0.270588 0.003922
0.929412 0.282353 0.000000
0.964706 0.290196 0.000000
1.000000 0.301961 0.019608
0.996078 0.309804 0.062745
1.000000 0.317647 0.082353
0.996078 0.345098 0.125490
0.996078 0.313725 0.145098
1.000000 0.450980 0.227451
0.223529 0.121569 0.066667
0.050980 0.117647 0.086275
0.070588 0.113725 0.082353
0.098039 0.121569 0.082353
0.133333 0.121569 0.086275
0.168627 0.137255 0.058824
0.227451 0.149020 0.050980
0.309804 0.168627 0.035294
0.392157 0.184314 0.011765
0.505882 0.211765 0.003922
0.588235 0.227451 0.000000
0.647059 0.239216 0.000000
0.701961 0.250980 0.003922
0.745098 0.254902 0.000000
0.827451 0.286275 0.000000
0.858824 0.290196 0.003922
0.894118 0.298039 0.003922
0.929412 0.294118 0.000000
0.960784 0.305882 0.000000
1.000000 0.313725 0.019608
1.000000 0.321569 0.062745
1.000000 0.329412 0.086275
1.000000 0.356863 0.125490
0.996078 0.333333 0.141176
1.000000 0.509804 0.290196
0.184314 0.137255 0.074510
0.019608 0.141176 0.082353
0.066667 0.137255 0.074510
0.082353 0.137255 0.070588
0.125490 0.145098 0.058824
0.172549 0.149020 0.062745
0.219608 0.168627 0.043137
0.301961 0.188235 0.031373
0.411765 0.231373 0.000000
0.529412 0.258824 0.000000
0.615686 0.266667 0.000000
0.666667 0.274510 0.000000
0.713725 0.282353 0.003922
0.752941 0.282353 0.003922
0.788235 0.286275 0.000000
0.874510 0.317647 0.003922
0.913725 0.313725 0.007843
0.937255 0.325490 0.003922
0.968627 0.325490 0.003922
1.000000 0.333333 0.000000
1.000000 0.341176 0.054902
1.000000 0.352941 0.101961
1.000000 0.364706 0.141176
1.000000 0.368627 0.164706
0.996078 0.384314 0.196078
0.000000 0.149020 0.090196
0.000000 0.149020 0.082353
0.003922 0.156863 0.074510
0.047059 0.164706 0.070588
0.129412 0.149020 0.054902
0.200000 0.152941 0.058824
0.290196 0.192157 0.035294
0.419608 0.239216 0.007843
0.549020 0.290196 0.000000
0.639216 0.313725 0.000000
0.690196 0.309804 0.000000
0.752941 0.329412 0.003922
0.784314 0.325490 0.011765
0.811765 0.333333 0.000000
0.850980 0.333333 0.000000
0.890196 0.341176 0.000000
0.925490 0.349020 0.003922
0.952941 0.356863 0.000000
0.988235 0.364706 0.003922
1.000000 0.368627 0.011765
1.000000 0.380392 0.000000
1.000000 0.380392 0.050980
0.996078 0.388235 0.098039
1.000000 0.392157 0.141176
1.000000 0.545098 0.274510
0.309804 0.188235 0.015686
0.000000 0.188235 0.086275
0.000000 0.180392 0.066667
0.074510 0.176471 0.070588
0.133333 0.176471 0.058824
0.180392 0.176471 0.058824
0.270588 0.203922 0.035294
0.415686 0.262745 0.007843
0.560784 0.325490 0.000000
0.674510 0.364706 0.000000
0.729412 0.376471 0.007843
0.756863 0.372549 0.000000
0.788235 0.360784 0.003922
0.843137 0.372549 0.000000
0.878431 0.364706 0.003922
0.909804 0.368627 0.000000
0.937255 0.372549 0.003922
0.968627 0.372549 0.003922
1.000000 0.380392 0.000000
0.992157 0.388235 0.003922
1.000000 0.392157 0.000000
1.000000 0.400000 0.054902
0.996078 0.396078 0.098039
0.992157 0.392157 0.129412
0.996078 0.564706 0.286275
0.247059 0.196078 0.023529
0.011765 0.211765 0.082353
0.000000 0.215686 0.062745
0.000000 0.215686 0.054902
0.082353 0.219608 0.054902
0.172549 0.215686 0.047059
0.243137 0.215686 0.043137
0.388235 0.282353 0.019608
0.552941 0.352941 0.003922
0.654902 0.388235 0.007843
0.725490 0.403922 0.011765
0.780392 0.411765 0.000000
0.815686 0.411765 0.000000
0.843137 0.407843 0.000000
0.898039 0.411765 0.003922
0.925490 0.403922 0.000000
0.952941 0.400000 0.007843
0.984314 0.407843 0.003922
0.996078 0.403922 0.007843
1.000000 0.407843 0.011765
1.000000 0.411765 0.000000
1.000000 0.419608 0.043137
1.000000 0.407843 0.098039
1.000000 0.388235 0.129412
1.000000 0.541176 0.239216
0.364706 0.239216 0.000000
0.000000 0.250980 0.094118
0.000000 0.262745 0.054902
0.000000 0.270588 0.054902
0.000000 0.266667 0.043137
0.125490 0.282353 0.039216
0.243137 0.294118 0.023529
0.337255 0.278431 0.023529
0.509804 0.368627 0.000000
0.635294 0.403922 0.000000
0.709804 0.427451 0.000000
0.780392 0.443137 0.007843
0.835294 0.458824 0.000000
0.882353 0.454902 0.000000
0.905882 0.447059 0.000000
0.945098 0.447059 0.003922
0.972549 0.439216 0.000000
1.000000 0.439216 0.000000
0.996078 0.435294 0.000000
0.996078 0.435294 0.000000
1.000000 0.439216 0.000000
1.000000 0.447059 0.047059
1.000000 0.427451 0.094118
0.996078 0.407843 0.129412
0.996078 0.619608 0.321569
0.250980 0.258824 0.003922
0.000000 0.305882 0.109804
0.000000 0.321569 0.070588
0.000000 0.329412 0.066667
0.003922 0.345098 0.039216
0.058824 0.364706 0.019608
0.250980 0.392157 0.000000
0.384314 0.411765 0.003922
0.474510 0.384314 0.007843
0.607843 0.439216 0.000000
0.686275 0.450980 0.003922
0.756863 0.458824 0.000000
0.815686 0.478431 0.000000
0.882353 0.494118 0.003922
0.933333 0.498039 0.003922
0.952941 0.482353 0.000000
0.996078 0.486275 0.007843
0.992157 0.482353 0.011765
1.000000 0.474510 0.000000
1.000000 0.470588 0.007843
1.000000 0.474510 0.000000
1.000000 0.466667 0.027451
0.996078 0.466667 0.109804
0.996078 0.474510 0.172549
1.000000 0.478431 0.207843
0.007843 0.392157 0.200000
0.003922 0.396078 0.192157
0.000000 0.400000 0.184314
0.000000 0.407843 0.137255
0.000000 0.419608 0.062745
0.000000 0.423529 0.000000
0.149020 0.458824 0.000000
0.333333 0.470588 0.000000
0.478431 0.501961 0.007843
0.556863 0.458824 0.000000
0.639216 0.482353 0.000000
0.709804 0.494118 0.000000
0.768627 0.505882 0.000000
0.827451 0.521569 0.003922
0.878431 0.529412 0.000000
0.941176 0.537255 0.000000
0.992157 0.529412 0.000000
0.996078 0.533333 0.000000
1.000000 0.533333 0.000000
1.000000 0.521569 0.000000
1.000000 0.521569 0.000000
0.996078 0.501961 0.000000
1.000000 0.490196 0.074510
0.988235 0.466667 0.125490
1.000000 0.623529 0.274510
0.474510 0.407843 0.000000
0.003922 0.462745 0.188235
0.000000 0.541176 0.223529
0.007843 0.498039 0.082353
0.000000 0.517647 0.043137
0.003922 0.517647 0.007843
0.000000 0.529412 0.000000
0.274510 0.541176 0.000000
0.439216 0.549020 0.011765
0.572549 0.572549 0.000000
0.627451 0.509804 0.000000
0.701961 0.509804 0.003922
0.752941 0.533333 0.000000
0.807843 0.537255 0.000000
0.870588 0.545098 0.003922
0.933333 0.552941 0.000000
0.984314 0.560784 0.000000
1.000000 0.568627 0.003922
0.996078 0.564706 0.000000
1.000000 0.556863 0.000000
0.996078 0.549020 0.000000
0.996078 0.529412 0.027451
0.996078 0.529412 0.090196
1.000000 0.529412 0.164706
0.996078 0.725490 0.419608
0.290196 0.486275 0.000000
0.000000 0.552941 0.247059
0.000000 0.584314 0.254902
0.000000 0.568627 0.184314
0.000000 0.568627 0.094118
0.003922 0.580392 0.023529
0.003922 0.584314 0.003922
0.164706 0.588235 0.007843
0.380392 0.596078 0.000000
0.517647 0.600000 0.000000
0.635294 0.600000 0.000000
0.682353 0.541176 0.000000
0.749020 0.549020 0.003922
0.800000 0.552941 0.000000
0.850980 0.568627 0.000000
0.905882 0.576471 0.000000
0.964706 0.584314 0.000000
1.000000 0.592157 0.000000
1.000000 0.592157 0.000000
0.996078 0.603922 0.000000
0.996078 0.592157 0.047059
1.000000 0.572549 0.090196
1.000000 0.564706 0.145098
1.000000 0.537255 0.168627
1.000000 0.686275 0.313725
0.545098 0.556863 0.000000
0.007843 0.568627 0.286275
0.003922 0.631373 0.309804
0.003922 0.603922 0.211765
0.000000 0.603922 0.164706
0.000000 0.615686 0.133333
0.007843 0.611765 0.031373
0.000000 0.623529 0.000000
0.274510 0.627451 0.000000
0.454902 0.627451 0.000000
0.588235 0.635294 0.000000
0.686275 0.639216 0.000000
0.713725 0.580392 0.000000
0.780392 0.580392 0.000000
0.839216 0.588235 0.000000
0.890196 0.603922 0.000000
0.952941 0.603922 0.000000
1.000000 0.615686 0.000000
0.996078 0.619608 0.003922
1.000000 0.627451 0.000000
1.000000 0.631373 0.105882
1.000000 0.611765 0.145098
0.996078 0.611765 0.192157
1.000000 0.592157 0.211765
1.000000 0.788235 0.462745
0.235294 0.568627 0.000000
0.007843 0.631373 0.341176
0.003922 0.662745 0.352941
0.003922 0.643137 0.317647
0.000000 0.635294 0.266667
0.000000 0.635294 0.196078
0.000000 0.643137 0.133333
0.003922 0.635294 0.054902
0.121569 0.650980 0.007843
0.376471 0.662745 0.007843
0.533333 0.662745 0.000000
0.643137 0.674510 0.003922
0.733333 0.678431 0.007843
0.764706 0.623529 0.011765
0.823529 0.615686 0.003922
0.878431 0.623529 0.000000
0.933333 0.627451 0.007843
0.980392 0.635294 0.000000
1.000000 0.639216 0.000000
0.996078 0.654902 0.000000
1.000000 0.654902 0.121569
1.000000 0.666667 0.211765
0.996078 0.662745 0.274510
1.000000 0.650980 0.305882
0.996078 0.650980 0.329412
0.000000 0.686275 0.400000
0.007843 0.678431 0.400000
0.007843 0.686275 0.407843
0.007843 0.686275 0.403922
0.000000 0.678431 0.388235
0.003922 0.674510 0.329412
0.003922 0.666667 0.231373
0.007843 0.654902 0.176471
0.000000 0.662745 0.094118
0.121569 0.686275 0.000000
0.372549 0.705882 0.000000
0.509804 0.709804 0.000000
0.627451 0.709804 0.003922
0.733333 0.717647 0.000000
0.792157 0.670588 0.003922
0.850980 0.650980 0.003922
0.909804 0.666667 0.003922
0.960784 0.670588 0.000000
0.996078 0.670588 0.000000
1.000000 0.682353 0.007843
0.996078 0.682353 0.105882
1.000000 0.682353 0.200000
0.992157 0.686275 0.262745
1.000000 0.682353 0.325490
1.000000 0.788235 0.411765
0.435294 0.647059 0.035294
0.000000 0.733333 0.447059
0.003922 0.701961 0.427451
0.000000 0.690196 0.403922
0.007843 0.698039 0.396078
0.003922 0.698039 0.384314
0.003922 0.694118 0.305882
0.007843 0.686275 0.262745
0.003922 0.682353 0.211765
0.003922 0.694118 0.156863
0.274510 0.713725 0.070588
0.435294 0.733333 0.000000
0.560784 0.745098 0.000000
0.682353 0.749020 0.003922
0.796078 0.756863 0.000000
0.835294 0.698039 0.000000
0.894118 0.686275 0.000000
0.952941 0.698039 0.003922
1.000000 0.698039 0.007843
1.000000 0.701961 0.011765
1.000000 0.705882 0.149020
1.000000 0.705882 0.215686
1.000000 0.709804 0.290196
0.988235 0.721569 0.341176
1.000000 0.839216 0.454902
0.003922 0.643137 0.184314
0.000000 0.772549 0.490196
0.000000 0.745098 0.486275
0.003922 0.713725 0.474510
0.000000 0.725490 0.462745
0.000000 0.729412 0.435294
0.000000 0.721569 0.388235
0.007843 0.725490 0.333333
0.000000 0.717647 0.301961
0.007843 0.717647 0.250980
0.172549 0.729412 0.227451
0.384314 0.752941 0.164706
0.513725 0.772549 0.003922
0.623529 0.784314 0.000000
0.737255 0.788235 0.000000
0.858824 0.800000 0.000000
0.890196 0.745098 0.000000
0.937255 0.729412 0.000000
0.996078 0.729412 0.007843
1.000000 0.733333 0.011765
0.996078 0.737255 0.164706
1.000000 0.733333 0.243137
1.000000 0.729412 0.321569
0.992157 0.741176 0.360784
1.000000 0.827451 0.439216
0.360784 0.709804 0.215686
0.003922 0.823529 0.537255
0.000000 0.756863 0.521569
0.003922 0.752941 0.517647
0.000000 0.749020 0.513725
0.000000 0.756863 0.501961
0.000000 0.760784 0.470588
0.003922 0.760784 0.427451
0.007843 0.760784 0.396078
0.000000 0.749020 0.345098
0.007843 0.749020 0.309804
0.290196 0.764706 0.290196
0.458824 0.788235 0.239216
0.584314 0.811765 0.125490
0.698039 0.823529 0.090196
0.807843 0.831373 0.070588
0.913725 0.839216 0.000000
0.949020 0.784314 0.000000
0.996078 0.760784 0.000000
1.000000 0.760784 0.098039
1.000000 0.760784 0.200000
1.000000 0.760784 0.270588
1.000000 0.760784 0.325490
1.000000 0.772549 0.392157
0.992157 0.878431 0.482353
0.011765 0.729412 0.337255
0.000000 0.839216 0.592157
0.003922 0.815686 0.572549
0.015686 0.796078 0.572549
0.105882 0.800000 0.564706
0.070588 0.803922 0.564706
0.000000 0.803922 0.541176
0.000000 0.807843 0.494118
0.007843 0.803922 0.474510
0.000000 0.796078 0.423529
0.000000 0.792157 0.400000
0.247059 0.800000 0.380392
0.407843 0.819608 0.356863
0.537255 0.835294 0.309804
0.654902 0.858824 0.219608
0.768627 0.870588 0.196078
0.874510 0.878431 0.164706
0.968627 0.870588 0.121569
1.000000 0.823529 0.000000
1.000000 0.796078 0.152941
1.000000 0.800000 0.247059
0.992157 0.800000 0.298039
1.000000 0.796078 0.368627
1.000000 0.796078 0.443137
0.996078 0.796078 0.478431
0.411765 0.917647 0.737255
0.403922 0.909804 0.729412
0.407843 0.913725 0.725490
0.419608 0.913725 0.729412
0.447059 0.905882 0.729412
0.431373 0.921569 0.701961
0.392157 0.925490 0.666667
0.400000 0.933333 0.643137
0.427451 0.929412 0.627451
0.517647 0.925490 0.615686
0.619608 0.929412 0.600000
0.725490 0.937255 0.600000
0.819608 0.937255 0.584314
0.905882 0.945098 0.556863
0.988235 0.941176 0.517647
0.996078 0.909804 0.513725
1.000000 0.894118 0.498039
0.996078 0.886275 0.498039
1.000000 0.882353 0.517647
1.000000 0.886275 0.525490
1.000000 0.878431 0.545098
1.000000 0.874510 0.541176
1.000000 0.858824 0.552941
1.000000 0.835294 0.596078
0.996078 0.905882 0.709804
0.737255 0.949020 0.611765
0.494118 0.941176 0.800000
0.498039 0.952941 0.768627
0.494118 0.949020 0.764706
0.482353 0.952941 0.752941
0.482353 0.945098 0.749020
0.454902 0.956863 0.725490
0.447059 0.964706 0.698039
0.462745 0.972549 0.690196
0.486275 0.960784 0.647059
0.603922 0.960784 0.650980
0.709804 0.960784 0.650980
0.792157 0.960784 0.639216
0.886275 0.964706 0.623529
0.964706 0.972549 0.592157
1.000000 0.960784 0.576471
1.000000 0.941176 0.552941
1.000000 0.925490 0.556863
0.996078 0.913725 0.556863
1.000000 0.905882 0.568627
1.000000 0.901961 0.572549
0.996078 0.890196 0.588235
1.000000 0.886275 0.588235
1.000000 0.854902 0.631373
0.996078 0.917647 0.709804
0.690196 0.976471 0.690196
0.537255 0.976471 0.819608
0.533333 0.988235 0.796078
0.533333 0.988235 0.803922
0.541176 0.988235 0.788235
0.529412 0.984314 0.784314
0.525490 0.992157 0.772549
0.486275 0.988235 0.741176
0.509804 0.992157 0.709804
0.533333 0.996078 0.705882
0.600000 1.000000 0.701961
0.682353 1.000000 0.690196
0.764706 0.996078 0.682353
0.858824 0.992157 0.686275
0.929412 0.988235 0.654902
0.980392 0.976471 0.623529
1.000000 0.956863 0.596078
1.000000 0.937255 0.592157
1.000000 0.925490 0.588235
1.000000 0.917647 0.607843
1.000000 0.909804 0.615686
1.000000 0.905882 0.611765
1.000000 0.898039 0.635294
1.000000 0.882353 0.647059
1.000000 0.913725 0.760784
0.741176 1.000000 0.701961
0.588235 0.992157 0.866667
0.600000 1.000000 0.843137
0.588235 1.000000 0.831373
0.600000 1.000000 0.835294
0.600000 1.000000 0.843137
0.584314 1.000000 0.811765
0.560784 1.000000 0.803922
0.560784 0.992157 0.776471
0.588235 1.000000 0.768627
0.607843 1.000000 0.749020
0.686275 1.000000 0.741176
0.764706 1.000000 0.741176
0.831373 1.000000 0.721569
0.890196 1.000000 0.709804
0.937255 0.980392 0.682353
0.996078 0.968627 0.654902
1.000000 0.956863 0.619608
1.000000 0.941176 0.623529
1.000000 0.925490 0.647059
1.000000 0.917647 0.654902
0.996078 0.913725 0.650980
1.000000 0.921569 0.674510
1.000000 0.882353 0.709804
0.996078 0.937255 0.784314
0.745098 0.996078 0.788235
0.666667 1.000000 0.890196
0.662745 1.000000 0.870588
0.658824 0.996078 0.874510
0.666667 1.000000 0.870588
0.678431 0.996078 0.866667
0.662745 0.996078 0.862745
0.658824 0.996078 0.843137
0.647059 0.996078 0.823529
0.662745 0.996078 0.823529
0.682353 0.992157 0.800000
0.686275 0.992157 0.788235
0.752941 1.000000 0.768627
0.811765 1.000000 0.776471
0.862745 0.996078 0.756863
0.909804 0.992157 0.737255
0.960784 0.980392 0.729412
0.996078 0.984314 0.705882
1.000000 0.968627 0.682353
1.000000 0.949020 0.690196
1.000000 0.937255 0.717647
1.000000 0.933333 0.737255
1.000000 0.933333 0.752941
1.000000 0.933333 0.764706
1.000000 0.921569 0.768627
0.058824 0.090196 0.098039
0.058824 0.101961 0.086275
0.047059 0.105882 0.086275
0.047059 0.113725 0.082353
0.039216 0.121569 0.086275
0.082353 0.133333 0.094118
0.121569 0.137255 0.078431
0.180392 0.156863 0.070588
0.239216 0.176471 0.047059
0.301961 0.196078 0.019608
0.364706 0.203922 0.000000
0.403922 0.207843 0.000000
0.494118 0.235294 0.000000
0.556863 0.250980 0.000000
0.615686 0.274510 0.003922
0.666667 0.290196 0.000000
0.717647 0.298039 0.000000
0.764706 0.305882 0.003922
0.807843 0.313725 0.000000
0.858824 0.325490 0.003922
0.894118 0.333333 0.000000
0.933333 0.337255 0.003922
0.956863 0.345098 0.015686
1.000000 0.392157 0.070588
0.992157 0.509804 0.003922
0.121569 0.109804 0.090196
0.000000 0.156863 0.082353
0.019608 0.129412 0.082353
0.023529 0.133333 0.074510
0.027451 0.137255 0.082353
0.054902 0.152941 0.078431
0.109804 0.164706 0.074510
0.168627 0.168627 0.066667
0.223529 0.184314 0.054902
0.282353 0.200000 0.023529
0.337255 0.207843 0.000000
0.380392 0.219608 0.000000
0.486275 0.262745 0.000000
0.552941 0.278431 0.003922
0.600000 0.286275 0.000000
0.658824 0.301961 0.000000
0.705882 0.309804 0.000000
0.756863 0.313725 0.000000
0.807843 0.329412 0.000000
0.850980 0.341176 0.003922
0.901961 0.341176 0.000000
0.937255 0.352941 0.000000
0.960784 0.352941 0.000000
0.996078 0.376471 0.058824
1.000000 0.517647 0.000000
0.082353 0.129412 0.082353
0.003922 0.172549 0.098039
0.003922 0.156863 0.082353
0.000000 0.160784 0.074510
0.000000 0.172549 0.070588
0.003922 0.176471 0.070588
0.066667 0.188235 0.058824
0.137255 0.200000 0.058824
0.192157 0.200000 0.043137
0.258824 0.211765 0.015686
0.317647 0.219608 0.000000
0.356863 0.231373 0.000000
0.447059 0.258824 0.000000
0.537255 0.294118 0.000000
0.603922 0.309804 0.000000
0.654902 0.321569 0.000000
0.705882 0.325490 0.007843
0.756863 0.341176 0.011765
0.803922 0.349020 0.007843
0.843137 0.352941 0.000000
0.894118 0.368627 0.000000
0.933333 0.364706 0.007843
0.964706 0.368627 0.000000
0.996078 0.376471 0.050980
0.996078 0.549020 0.000000
0.141176 0.145098 0.082353
0.000000 0.223529 0.098039
0.000000 0.192157 0.086275
0.000000 0.192157 0.066667
0.000000 0.196078 0.058824
0.000000 0.203922 0.054902
0.000000 0.215686 0.050980
0.074510 0.223529 0.039216
0.156863 0.231373 0.015686
0.227451 0.231373 0.003922
0.278431 0.231373 0.000000
0.333333 0.231373 0.000000
0.411765 0.278431 0.000000
0.509804 0.309804 0.000000
0.576471 0.333333 0.007843
0.650980 0.349020 0.000000
0.705882 0.356863 0.003922
0.756863 0.360784 0.000000
0.803922 0.380392 0.003922
0.850980 0.380392 0.000000
0.901961 0.388235 0.003922
0.941176 0.388235 0.007843
0.960784 0.392157 0.000000
1.000000 0.388235 0.066667
0.996078 0.556863 0.000000
0.043137 0.200000 0.058824
0.000000 0.235294 0.086275
0.003922 0.223529 0.070588
0.000000 0.231373 0.058824
0.000000 0.231373 0.043137
0.003922 0.239216 0.035294
0.000000 0.243137 0.019608
0.000000 0.250980 0.003922
0.105882 0.258824 0.003922
0.192157 0.254902 0.000000
0.254902 0.254902 0.003922
0.305882 0.250980 0.003922
0.396078 0.286275 0.000000
0.486275 0.325490 0.003922
0.564706 0.349020 0.000000
0.643137 0.372549 0.000000
0.694118 0.388235 0.000000
0.764706 0.400000 0.003922
0.811765 0.400000 0.000000
0.858824 0.411765 0.000000
0.905882 0.407843 0.000000
0.941176 0.415686 0.003922
0.984314 0.419608 0.000000
0.996078 0.419608 0.066667
0.992157 0.423529 0.121569
0.003922 0.160784 0.117647
0.000000 0.160784 0.113725
0.007843 0.156863 0.105882
0.011765 0.160784 0.070588
0.125490 0.164706 0.062745
0.188235 0.160784 0.058824
0.262745 0.188235 0.023529
0.384314 0.243137 0.000000
0.549020 0.329412 0.003922
0.662745 0.364706 0.000000
0.705882 0.356863 0.000000
0.729412 0.349020 0.000000
0.760784 0.341176 0.000000
0.796078 0.341176 0.000000
0.823529 0.341176 0.003922
0.858824 0.345098 0.000000
0.894118 0.345098 0.003922
0.945098 0.360784 0.000000
0.976471 0.364706 0.000000
0.992157 0.372549 0.000000
1.000000 0.380392 0.000000
0.996078 0.380392 0.031373
1.000000 0.392157 0.160784
0.996078 0.427451 0.180392
1.000000 0.505882 0.239216
0.321569 0.196078 0.003922
0.000000 0.196078 0.098039
0.007843 0.184314 0.101961
0.047059 0.188235 0.078431
0.109804 0.192157 0.070588
0.168627 0.196078 0.062745
0.231373 0.200000 0.047059
0.372549 0.266667 0.003922
0.541176 0.345098 0.003922
0.658824 0.392157 0.003922
0.733333 0.407843 0.000000
0.772549 0.400000 0.000000
0.792157 0.384314 0.000000
0.819608 0.380392 0.000000
0.850980 0.372549 0.000000
0.886275 0.376471 0.007843
0.905882 0.372549 0.000000
0.937255 0.372549 0.000000
0.988235 0.388235 0.000000
1.000000 0.392157 0.007843
1.000000 0.400000 0.003922
1.000000 0.388235 0.023529
1.000000 0.380392 0.101961
1.000000 0.372549 0.121569
1.000000 0.580392 0.321569
0.250980 0.211765 0.019608
0.000000 0.223529 0.098039
0.000000 0.215686 0.090196
0.003922 0.223529 0.078431
0.043137 0.227451 0.062745
0.149020 0.235294 0.050980
0.231373 0.239216 0.043137
0.341176 0.270588 0.019608
0.537255 0.368627 0.000000
0.647059 0.419608 0.000000
0.725490 0.435294 0.007843
0.780392 0.443137 0.000000
0.823529 0.443137 0.000000
0.847059 0.423529 0.007843
0.874510 0.415686 0.000000
0.901961 0.403922 0.000000
0.933333 0.411765 0.000000
0.952941 0.411765 0.000000
0.984314 0.407843 0.000000
1.000000 0.419608 0.000000
0.992157 0.431373 0.000000
0.996078 0.411765 0.003922
1.000000 0.388235 0.129412
0.996078 0.392157 0.117647
0.996078 0.517647 0.184314
0.376471 0.262745 0.003922
0.000000 0.243137 0.137255
0.003922 0.239216 0.129412
0.000000 0.258824 0.078431
0.000000 0.270588 0.054902
0.070588 0.282353 0.054902
0.207843 0.305882 0.039216
0.329412 0.325490 0.011765
0.478431 0.376471 0.000000
0.639216 0.447059 0.000000
0.709804 0.466667 0.000000
0.768627 0.470588 0.000000
0.815686 0.478431 0.011765
0.866667 0.474510 0.000000
0.898039 0.466667 0.000000
0.917647 0.454902 0.000000
0.945098 0.447059 0.003922
0.972549 0.443137 0.000000
1.000000 0.447059 0.003922
1.000000 0.435294 0.000000
1.000000 0.439216 0.000000
0.996078 0.435294 0.000000
1.000000 0.427451 0.101961
0.996078 0.423529 0.149020
1.000000 0.627451 0.356863
0.247059 0.266667 0.000000
0.000000 0.301961 0.121569
0.007843 0.286275 0.152941
0.000000 0.313725 0.086275
0.000000 0.321569 0.062745
0.003922 0.341176 0.054902
0.184314 0.384314 0.019608
0.341176 0.427451 0.003922
0.443137 0.419608 0.000000
0.603922 0.458824 0.000000
0.701961 0.482353 0.000000
0.756863 0.490196 0.007843
0.796078 0.501961 0.003922
0.850980 0.501961 0.007843
0.901961 0.509804 0.000000
0.941176 0.509804 0.000000
0.964706 0.490196 0.000000
0.992157 0.482353 0.011765
1.000000 0.474510 0.000000
1.000000 0.474510 0.000000
1.000000 0.470588 0.007843
1.000000 0.474510 0.011765
1.000000 0.474510 0.101961
0.996078 0.470588 0.160784
1.000000 0.478431 0.207843
0.003922 0.411765 0.219608
0.007843 0.415686 0.223529
0.000000 0.415686 0.223529
0.000000 0.403922 0.180392
0.003922 0.411765 0.101961
0.000000 0.443137 0.027451
0.156863 0.474510 0.000000
0.333333 0.490196 0.000000
