qml/filters/cineVibrant.cube
#Generated with IWLTBAP LUT Generator
#Website: http://luts.iwltbap.com
TITLE "FGCineVibrant"
#LUT size
LUT_3D_SIZE 9
#LUT data points
0.062745 0.047059 0.050980
0.113725 0.050980 0.050980
0.227451 0.070588 0.035294
0.345098 0.101961 0.019608
0.450980 0.125490 0.007843
0.545098 0.164706 0.000000
0.658824 0.200000 0.000000
0.815686 0.254902 0.000000
0.996078 0.321569 0.000000
0.094118 0.098039 0.066667
0.149020 0.117647 0.027451
0.243137 0.137255 0.023529
0.360784 0.156863 0.003922
0.462745 0.180392 0.000000
0.541176 0.200000 0.000000
0.666667 0.235294 0.011765
0.827451 0.286275 0.000000
1.000000 0.345098 0.000000
0.164706 0.223529 0.109804
0.200000 0.219608 0.101961
0.282353 0.243137 0.000000
0.360784 0.243137 0.000000
0.466667 0.258824 0.000000
0.556863 0.262745 0.000000
0.686275 0.305882 0.000000
0.858824 0.352941 0.003922
1.000000 0.411765 0.000000
0.270588 0.333333 0.188235
0.298039 0.337255 0.203922
0.317647 0.356863 0.149020
0.403922 0.368627 0.000000
0.478431 0.345098 0.000000
0.572549 0.364706 0.000000
0.713725 0.403922 0.007843
0.886275 0.450980 0.007843
0.996078 0.501961 0.000000
0.372549 0.462745 0.298039
0.392157 0.462745 0.305882
0.396078 0.470588 0.282353
0.431373 0.478431 0.180392
0.521569 0.490196 0.000000
0.584314 0.458824 0.000000
0.737255 0.498039 0.000000
0.921569 0.564706 0.003922
1.000000 0.615686 0.000000
0.466667 0.643137 0.380392
0.490196 0.639216 0.400000
0.509804 0.647059 0.388235
0.549020 0.662745 0.309804
0.627451 0.670588 0.200000
0.713725 0.674510 0.000000
0.776471 0.619608 0.000000
0.952941 0.678431 0.007843
1.000000 0.717647 0.000000
0.635294 0.843137 0.560784
0.639216 0.850980 0.556863
0.678431 0.843137 0.592157
0.701961 0.858824 0.521569
0.733333 0.866667 0.388235
0.823529 0.870588 0.196078
0.925490 0.866667 0.000000
0.984314 0.800000 0.000000
0.992157 0.815686 0.003922
0.788235 0.960784 0.768627
0.796078 0.968627 0.760784
0.819608 0.964706 0.792157
0.843137 0.968627 0.784314
0.843137 0.972549 0.686275
0.878431 0.980392 0.549020
0.949020 0.984314 0.321569
0.996078 0.976471 0.000000
0.992157 0.921569 0.003922
0.901961 1.000000 0.890196
0.917647 0.996078 0.890196
0.921569 0.992157 0.905882
0.937255 0.996078 0.905882
0.925490 1.000000 0.874510
0.929412 1.000000 0.827451
0.937255 1.000000 0.705882
0.984314 1.000000 0.498039
0.996078 1.000000 0.003922
0.062745 0.054902 0.109804
0.129412 0.047059 0.105882
0.239216 0.039216 0.098039
0.349020 0.090196 0.090196
0.450980 0.129412 0.082353
0.537255 0.160784 0.066667
0.654902 0.203922 0.058824
0.819608 0.250980 0.003922
1.000000 0.305882 0.000000
0.058824 0.113725 0.113725
0.137255 0.117647 0.101961
0.239216 0.133333 0.098039
0.349020 0.145098 0.090196
0.439216 0.172549 0.082353
0.545098 0.196078 0.070588
0.662745 0.231373 0.039216
0.831373 0.274510 0.000000
0.992157 0.341176 0.003922
0.152941 0.231373 0.133333
0.203922 0.231373 0.160784
0.262745 0.243137 0.094118
0.368627 0.239216 0.070588
0.458824 0.254902 0.062745
0.560784 0.266667 0.058824
0.674510 0.294118 0.015686
0.843137 0.345098 0.003922
1.000000 0.400000 0.000000
0.266667 0.341176 0.227451
0.294118 0.345098 0.227451
0.325490 0.349020 0.200000
0.396078 0.368627 0.101961
0.470588 0.345098 0.043137
0.572549 0.360784 0.007843
0.713725 0.392157 0.003922
0.874510 0.447059 0.000000
1.000000 0.494118 0.003922
0.368627 0.466667 0.313725
0.380392 0.458824 0.313725
0.403922 0.466667 0.313725
0.443137 0.482353 0.247059
0.521569 0.490196 0.101961
0.592157 0.454902 0.000000
0.741176 0.501961 0.003922
0.929412 0.568627 0.000000
0.988235 0.611765 0.000000
0.462745 0.643137 0.392157
0.490196 0.643137 0.396078
0.513725 0.647059 0.411765
0.545098 0.658824 0.345098
0.619608 0.670588 0.247059
0.717647 0.666667 0.007843
0.776471 0.619608 0.003922
0.952941 0.678431 0.000000
0.988235 0.721569 0.000000
0.627451 0.847059 0.568627
0.635294 0.850980 0.584314
0.674510 0.847059 0.600000
0.694118 0.854902 0.556863
0.737255 0.858824 0.443137
0.811765 0.866667 0.243137
0.929412 0.870588 0.000000
0.984314 0.796078 0.000000
1.000000 0.815686 0.000000
0.796078 0.964706 0.788235
0.803922 0.968627 0.788235
0.823529 0.964706 0.807843
0.847059 0.960784 0.788235
0.847059 0.972549 0.725490
0.878431 0.980392 0.592157
0.945098 0.984314 0.364706
0.996078 0.976471 0.000000
0.992157 0.925490 0.000000
0.898039 1.000000 0.894118
0.917647 0.992157 0.905882
0.925490 0.996078 0.909804
0.933333 1.000000 0.925490
0.921569 1.000000 0.894118
0.929412 1.000000 0.835294
0.937255 1.000000 0.745098
0.988235 1.000000 0.541176
1.000000 1.000000 0.007843
0.047059 0.047059 0.196078
0.125490 0.047059 0.196078
0.239216 0.039216 0.200000
0.349020 0.050980 0.200000
0.447059 0.078431 0.180392
0.541176 0.137255 0.172549
0.635294 0.207843 0.188235
0.807843 0.247059 0.152941
1.000000 0.294118 0.117647
0.027451 0.125490 0.203922
0.109804 0.109804 0.203922
0.235294 0.121569 0.207843
0.352941 0.129412 0.203922
0.450980 0.149020 0.180392
0.533333 0.207843 0.192157
0.639216 0.235294 0.176471
0.823529 0.270588 0.164706
1.000000 0.333333 0.109804
0.082353 0.223529 0.207843
0.141176 0.227451 0.207843
0.247059 0.239216 0.192157
0.352941 0.243137 0.192157
0.443137 0.250980 0.192157
0.545098 0.266667 0.196078
0.662745 0.298039 0.176471
0.843137 0.337255 0.145098
0.992157 0.388235 0.105882
0.227451 0.356863 0.250980
0.258824 0.345098 0.247059
0.325490 0.356863 0.274510
0.376471 0.352941 0.211765
0.458824 0.345098 0.172549
0.560784 0.356863 0.172549
0.698039 0.388235 0.164706
0.866667 0.443137 0.121569
1.000000 0.482353 0.039216
0.349020 0.466667 0.325490
0.372549 0.454902 0.325490
0.411765 0.462745 0.356863
0.439216 0.470588 0.317647
0.501961 0.470588 0.219608
0.580392 0.454902 0.160784
0.733333 0.505882 0.125490
0.921569 0.568627 0.058824
1.000000 0.596078 0.011765
0.435294 0.654902 0.415686
0.458824 0.643137 0.427451
0.513725 0.647059 0.450980
0.560784 0.658824 0.435294
0.607843 0.670588 0.325490
0.701961 0.658824 0.196078
0.768627 0.615686 0.078431
0.964706 0.678431 0.000000
0.996078 0.713725 0.000000
0.611765 0.854902 0.600000
0.627451 0.858824 0.607843
0.674510 0.850980 0.627451
0.725490 0.854902 0.647059
0.737255 0.862745 0.525490
0.819608 0.866667 0.364706
0.917647 0.866667 0.113725
0.984314 0.800000 0.000000
1.000000 0.827451 0.003922
0.811765 0.960784 0.800000
0.803922 0.972549 0.803922
0.827451 0.960784 0.823529
0.866667 0.964706 0.843137
0.870588 0.972549 0.796078
0.882353 0.976471 0.670588
0.941176 0.980392 0.466667
1.000000 0.980392 0.101961
0.988235 0.921569 0.000000
0.913725 1.000000 0.921569
0.921569 0.996078 0.917647
0.921569 0.996078 0.917647
0.945098 1.000000 0.933333
0.945098 0.996078 0.917647
0.941176 1.000000 0.886275
0.945098 1.000000 0.792157
0.992157 1.000000 0.603922
0.996078 1.000000 0.215686
0.003922 0.039216 0.294118
0.094118 0.035294 0.290196
0.223529 0.039216 0.305882
0.333333 0.050980 0.301961
0.447059 0.074510 0.309804
0.533333 0.117647 0.298039
0.643137 0.145098 0.282353
0.800000 0.156863 0.254902
1.000000 0.247059 0.266667
0.003922 0.105882 0.305882
0.090196 0.101961 0.301961
0.215686 0.113725 0.301961
0.341176 0.133333 0.305882
0.447059 0.149020 0.301961
0.525490 0.168627 0.290196
0.639216 0.188235 0.270588
0.803922 0.231373 0.282353
1.000000 0.282353 0.274510
0.000000 0.211765 0.294118
0.074510 0.219608 0.294118
0.223529 0.215686 0.298039
0.341176 0.235294 0.309804
0.435294 0.247059 0.294118
0.525490 0.254902 0.282353
0.643137 0.290196 0.290196
0.823529 0.313725 0.282353
0.996078 0.345098 0.250980
0.129412 0.333333 0.317647
0.156863 0.333333 0.305882
0.258824 0.333333 0.309804
0.349020 0.337255 0.301961
0.435294 0.349020 0.290196
0.529412 0.360784 0.294118
0.678431 0.380392 0.286275
0.858824 0.411765 0.266667
0.996078 0.454902 0.239216
0.266667 0.458824 0.372549
0.301961 0.458824 0.356863
0.349020 0.458824 0.360784
0.427451 0.454902 0.384314
0.474510 0.458824 0.321569
0.580392 0.450980 0.282353
0.733333 0.498039 0.262745
0.913725 0.549020 0.254902
1.000000 0.580392 0.223529
0.356863 0.631373 0.427451
0.388235 0.631373 0.439216
0.458824 0.635294 0.466667
0.545098 0.647059 0.501961
0.584314 0.650980 0.439216
0.674510 0.643137 0.317647
0.772549 0.615686 0.235294
0.968627 0.674510 0.207843
0.992157 0.709804 0.184314
0.564706 0.862745 0.619608
0.592157 0.847059 0.627451
0.639216 0.850980 0.654902
0.713725 0.858824 0.690196
0.752941 0.862745 0.662745
0.796078 0.870588 0.509804
0.905882 0.858824 0.294118
0.988235 0.803922 0.156863
0.996078 0.819608 0.117647
0.803922 0.968627 0.811765
0.792157 0.972549 0.819608
0.831373 0.976471 0.839216
0.870588 0.972549 0.866667
0.890196 0.960784 0.858824
0.898039 0.972549 0.784314
0.937255 0.972549 0.615686
1.000000 0.972549 0.333333
1.000000 0.913725 0.031373
0.905882 0.992157 0.933333
0.909804 1.000000 0.917647
0.929412 0.996078 0.925490
0.937255 1.000000 0.941176
0.949020 0.996078 0.941176
0.952941 1.000000 0.925490
0.949020 1.000000 0.862745
0.988235 1.000000 0.729412
1.000000 0.996078 0.392157
0.000000 0.039216 0.388235
0.043137 0.043137 0.388235
0.184314 0.043137 0.396078
0.301961 0.054902 0.403922
0.423529 0.090196 0.415686
0.517647 0.121569 0.396078
0.635294 0.145098 0.403922
0.803922 0.109804 0.423529
0.996078 0.000000 0.407843
0.000000 0.105882 0.380392
0.031373 0.109804 0.388235
0.176471 0.105882 0.396078
0.305882 0.121569 0.403922
0.427451 0.156863 0.411765
0.521569 0.180392 0.396078
0.639216 0.188235 0.411765
0.823529 0.156863 0.411765
0.996078 0.003922 0.400000
0.000000 0.203922 0.388235
0.062745 0.215686 0.384314
0.176471 0.200000 0.388235
0.309804 0.227451 0.396078
0.427451 0.247059 0.400000
0.521569 0.258824 0.396078
0.647059 0.262745 0.415686
0.831373 0.231373 0.411765
0.988235 0.145098 0.376471
0.019608 0.298039 0.376471
0.098039 0.301961 0.384314
0.203922 0.309804 0.376471
0.321569 0.313725 0.396078
0.423529 0.337255 0.396078
0.517647 0.345098 0.396078
0.662745 0.341176 0.388235
0.854902 0.321569 0.368627
1.000000 0.376471 0.364706
0.176471 0.431373 0.407843
0.219608 0.415686 0.411765
0.274510 0.427451 0.407843
0.349020 0.431373 0.403922
0.435294 0.435294 0.403922
0.552941 0.443137 0.392157
0.709804 0.462745 0.392157
0.909804 0.490196 0.388235
1.000000 0.525490 0.360784
0.160784 0.623529 0.517647
0.215686 0.627451 0.509804
0.309804 0.619608 0.498039
0.427451 0.619608 0.501961
0.560784 0.627451 0.552941
0.623529 0.615686 0.427451
0.780392 0.619608 0.368627
0.976471 0.654902 0.364706
1.000000 0.678431 0.341176
0.415686 0.847059 0.639216
0.450980 0.839216 0.654902
0.521569 0.847059 0.658824
0.639216 0.854902 0.694118
0.760784 0.862745 0.756863
0.792157 0.862745 0.674510
0.890196 0.850980 0.466667
0.984314 0.803922 0.329412
1.000000 0.811765 0.309804
0.760784 0.972549 0.839216
0.764706 0.976471 0.835294
0.800000 0.976471 0.854902
0.854902 0.972549 0.878431
0.905882 0.972549 0.909804
0.917647 0.972549 0.882353
0.929412 0.980392 0.768627
1.000000 0.976471 0.521569
1.000000 0.909804 0.301961
0.913725 1.000000 0.941176
0.917647 1.000000 0.925490
0.929412 1.000000 0.937255
0.945098 1.000000 0.949020
0.956863 0.996078 0.960784
0.968627 1.000000 0.956863
0.956863 1.000000 0.917647
0.988235 1.000000 0.831373
1.000000 1.000000 0.596078
0.007843 0.047059 0.490196
0.000000 0.050980 0.490196
0.141176 0.043137 0.501961
0.262745 0.050980 0.498039
0.403922 0.074510 0.521569
0.533333 0.113725 0.537255
0.639216 0.137255 0.541176
0.803922 0.098039 0.580392
0.996078 0.007843 0.615686
0.003922 0.101961 0.501961
0.000000 0.098039 0.490196
0.129412 0.105882 0.498039
0.266667 0.105882 0.505882
0.392157 0.141176 0.517647
0.529412 0.172549 0.545098
0.639216 0.184314 0.541176
0.819608 0.145098 0.584314
0.996078 0.007843 0.623529
0.000000 0.196078 0.482353
0.003922 0.184314 0.486275
0.137255 0.188235 0.498039
0.274510 0.211765 0.498039
0.403922 0.235294 0.517647
0.533333 0.250980 0.537255
0.643137 0.262745 0.545098
0.823529 0.227451 0.584314
1.000000 0.113725 0.607843
0.007843 0.290196 0.470588
0.003922 0.294118 0.478431
0.164706 0.298039 0.486275
0.266667 0.305882 0.498039
0.411765 0.325490 0.517647
0.537255 0.341176 0.541176
0.662745 0.329412 0.552941
0.858824 0.301961 0.592157
0.992157 0.243137 0.584314
0.007843 0.396078 0.509804
0.047059 0.396078 0.505882
0.168627 0.411765 0.501961
0.274510 0.400000 0.498039
0.388235 0.403922 0.509804
0.541176 0.427451 0.545098
0.698039 0.423529 0.564706
0.901961 0.407843 0.552941
0.996078 0.392157 0.501961
0.003922 0.552941 0.580392
0.027451 0.556863 0.568627
0.164706 0.560784 0.568627
0.282353 0.560784 0.568627
0.403922 0.560784 0.560784
0.552941 0.564706 0.537255
0.741176 0.584314 0.545098
0.949020 0.607843 0.549020
1.000000 0.635294 0.533333
0.000000 0.839216 0.749020
0.000000 0.839216 0.745098
0.113725 0.843137 0.737255
0.396078 0.839216 0.729412
0.600000 0.835294 0.725490
0.792157 0.854902 0.803922
0.850980 0.827451 0.639216
0.992157 0.796078 0.549020
0.996078 0.803922 0.541176
0.631373 0.988235 0.850980
0.643137 0.980392 0.858824
0.709804 0.976471 0.870588
0.796078 0.976471 0.874510
0.866667 0.972549 0.905882
0.933333 0.980392 0.941176
0.941176 0.976471 0.894118
0.996078 0.976471 0.717647
0.996078 0.917647 0.545098
0.917647 0.996078 0.952941
0.917647 1.000000 0.964706
0.917647 0.996078 0.949020
0.945098 0.996078 0.960784
0.956863 1.000000 0.976471
0.976471 0.996078 0.972549
0.972549 1.000000 0.968627
0.988235 1.000000 0.925490
1.000000 1.000000 0.780392
0.000000 0.031373 0.670588
0.003922 0.023529 0.658824
0.003922 0.023529 0.666667
0.231373 0.003922 0.686275
0.392157 0.003922 0.701961
0.545098 0.023529 0.717647
0.674510 0.054902 0.733333
0.827451 0.047059 0.749020
1.000000 0.000000 0.792157
0.000000 0.086275 0.654902
0.003922 0.090196 0.666667
0.003922 0.090196 0.670588
0.227451 0.094118 0.678431
0.400000 0.090196 0.682353
0.545098 0.109804 0.725490
0.694118 0.129412 0.745098
0.815686 0.121569 0.741176
0.996078 0.000000 0.792157
0.000000 0.180392 0.658824
0.003922 0.176471 0.666667
0.000000 0.180392 0.674510
0.211765 0.188235 0.682353
0.396078 0.203922 0.701961
0.529412 0.211765 0.713725
0.694118 0.235294 0.752941
0.831373 0.207843 0.745098
1.000000 0.082353 0.800000
0.000000 0.298039 0.662745
0.003922 0.290196 0.658824
0.007843 0.282353 0.666667
0.164706 0.278431 0.678431
0.364706 0.301961 0.698039
0.537255 0.305882 0.721569
0.713725 0.313725 0.745098
0.862745 0.294118 0.768627
1.000000 0.227451 0.784314
0.003922 0.396078 0.627451
0.007843 0.392157 0.647059
0.007843 0.392157 0.639216
0.066667 0.388235 0.674510
0.309804 0.376471 0.690196
0.521569 0.396078 0.729412
0.721569 0.415686 0.760784
0.878431 0.403922 0.768627
0.996078 0.384314 0.780392
0.003922 0.549020 0.701961
0.003922 0.541176 0.705882
0.000000 0.545098 0.698039
0.003922 0.533333 0.690196
0.200000 0.505882 0.686275
0.458824 0.509804 0.717647
0.725490 0.568627 0.764706
0.917647 0.564706 0.764706
1.000000 0.572549 0.756863
0.000000 0.760784 0.800000
0.000000 0.752941 0.796078
0.007843 0.749020 0.803922
0.000000 0.749020 0.800000
0.290196 0.760784 0.792157
0.541176 0.752941 0.784314
0.737255 0.756863 0.772549
0.952941 0.780392 0.768627
1.000000 0.803922 0.768627
0.105882 0.996078 0.909804
0.231373 0.988235 0.913725
0.396078 0.984314 0.909804
0.560784 0.980392 0.917647
0.717647 0.984314 0.917647
0.862745 0.968627 0.933333
0.949020 0.972549 0.956863
0.972549 0.968627 0.858824
0.996078 0.933333 0.800000
0.850980 0.996078 0.956863
0.847059 1.000000 0.952941
0.878431 0.996078 0.956863
0.913725 0.996078 0.960784
0.956863 1.000000 0.976471
0.968627 1.000000 0.984314
0.996078 1.000000 1.000000
0.996078 1.000000 0.980392
0.996078 1.000000 0.921569
0.003922 0.000000 0.901961
0.003922 0.000000 0.901961
0.003922 0.000000 0.901961
0.129412 0.007843 0.901961
0.380392 0.000000 0.917647
0.564706 0.000000 0.929412
0.721569 0.000000 0.941176
0.882353 0.000000 0.949020
1.000000 0.000000 0.945098
0.000000 0.050980 0.898039
0.000000 0.050980 0.905882
0.000000 0.031373 0.901961
0.109804 0.007843 0.905882
0.372549 0.003922 0.921569
0.545098 0.000000 0.925490
0.717647 0.000000 0.941176
0.886275 0.000000 0.941176
1.000000 0.000000 0.956863
0.000000 0.160784 0.890196
0.000000 0.160784 0.905882
0.007843 0.164706 0.894118
0.000000 0.156863 0.901961
0.352941 0.145098 0.913725
0.549020 0.156863 0.929412
0.721569 0.156863 0.945098
0.890196 0.141176 0.960784
1.000000 0.035294 0.933333
0.000000 0.286275 0.890196
0.000000 0.274510 0.901961
0.000000 0.262745 0.894118
0.007843 0.258824 0.913725
0.309804 0.254902 0.925490
0.525490 0.266667 0.925490
0.721569 0.266667 0.945098
0.890196 0.250980 0.945098
0.996078 0.223529 0.952941
0.000000 0.423529 0.890196
0.000000 0.415686 0.894118
0.000000 0.400000 0.905882
0.003922 0.364706 0.894118
0.129412 0.352941 0.913725
0.470588 0.352941 0.929412
0.698039 0.360784 0.945098
0.890196 0.392157 0.952941
0.996078 0.376471 0.952941
0.003922 0.556863 0.898039
0.000000 0.552941 0.894118
0.003922 0.537255 0.898039
0.000000 0.517647 0.890196
0.000000 0.490196 0.901961
0.341176 0.458824 0.937255
0.678431 0.505882 0.941176
0.913725 0.556863 0.960784
0.996078 0.576471 0.945098
0.007843 0.717647 0.933333
0.000000 0.721569 0.933333
0.015686 0.713725 0.941176
0.003922 0.713725 0.929412
0.000000 0.686275 0.925490
0.003922 0.670588 0.909804
0.631373 0.674510 0.933333
0.913725 0.776471 0.945098
1.000000 0.792157 0.941176
0.003922 0.913725 0.960784
0.000000 0.913725 0.949020
0.003922 0.917647 0.976471
0.000000 0.913725 0.960784
0.364706 0.921569 0.960784
0.588235 0.929412 0.949020
0.788235 0.937255 0.949020
0.925490 0.941176 0.937255
1.000000 0.952941 0.949020
0.647059 0.992157 0.988235
0.682353 0.996078 0.992157
0.725490 0.996078 0.984314
0.800000 1.000000 0.972549
0.866667 1.000000 0.980392
0.949020 0.996078 0.988235
0.984314 1.000000 0.988235
1.000000 1.000000 0.992157
0.992157 1.000000 0.988235
0.000000 0.000000 0.996078
0.000000 0.000000 0.996078
0.000000 0.000000 0.996078
0.000000 0.000000 0.996078
0.329412 0.003922 1.000000
0.525490 0.003922 1.000000
0.698039 0.000000 1.000000
0.843137 0.000000 0.996078
0.992157 0.000000 1.000000
0.003922 0.015686 1.000000
0.000000 0.000000 0.996078
0.000000 0.000000 0.996078
0.003922 0.000000 0.996078
0.325490 0.003922 0.992157
0.521569 0.000000 1.000000
0.694118 0.000000 1.000000
0.847059 0.003922 1.000000
1.000000 0.000000 0.996078
0.003922 0.137255 1.000000
0.003922 0.145098 1.000000
0.007843 0.141176 1.000000
0.000000 0.129412 1.000000
0.305882 0.125490 1.000000
0.517647 0.125490 1.000000
0.705882 0.125490 1.000000
0.847059 0.137255 0.996078
0.992157 0.145098 0.996078
0.000000 0.254902 1.000000
0.003922 0.250980 1.000000
0.000000 0.247059 1.000000
0.000000 0.247059 1.000000
0.227451 0.243137 1.000000
0.482353 0.239216 1.000000
0.674510 0.247059 0.996078
0.839216 0.254902 1.000000
0.996078 0.266667 1.000000
0.003922 0.396078 1.000000
0.000000 0.396078 1.000000
0.000000 0.376471 0.988235
0.007843 0.337255 1.000000
0.000000 0.333333 1.000000
0.411765 0.337255 1.000000
0.643137 0.341176 1.000000
0.827451 0.372549 1.000000
0.992157 0.431373 0.988235
0.000000 0.552941 1.000000
0.003922 0.537255 1.000000
0.000000 0.525490 1.000000
0.000000 0.498039 0.980392
0.007843 0.454902 1.000000
0.239216 0.439216 1.000000
0.592157 0.466667 1.000000
0.823529 0.529412 0.996078
0.992157 0.607843 1.000000
0.003922 0.698039 1.000000
0.003922 0.686275 0.996078
0.003922 0.678431 1.000000
0.000000 0.666667 0.988235
0.000000 0.639216 1.000000
0.003922 0.611765 0.996078
0.533333 0.631373 0.992157
0.839216 0.725490 0.988235
0.988235 0.807843 0.992157
0.000000 0.835294 0.988235
0.000000 0.831373 1.000000
0.000000 0.835294 1.000000
0.000000 0.827451 0.992157
0.000000 0.839216 1.000000
0.282353 0.831373 1.000000
0.552941 0.831373 1.000000
0.874510 0.898039 1.000000
1.000000 0.949020 1.000000
0.415686 0.976471 0.992157
0.443137 0.976471 1.000000
0.505882 0.976471 1.000000
0.607843 0.980392 0.996078
0.713725 0.980392 0.992157
0.827451 0.980392 0.992157
0.925490 1.000000 1.000000
0.984314 1.000000 1.000000
1.000000 1.000000 1.000000
