qml/filters/cineVibrant.cube
#Generated with IWLTBAP LUT Generator
#Website: http://luts.iwltbap.com
TITLE "FGCineVibrant"
#LUT size
LUT_3D_SIZE 5
#LUT data points
0.062745 0.047059 0.050980
0.227451 0.070588 0.035294
0.450980 0.125490 0.007843
0.658824 0.200000 0.000000
0.996078 0.321569 0.000000
0.164706 0.223529 0.109804
0.282353 0.243137 0.000000
0.466667 0.258824 0.000000
0.686275 0.305882 0.000000
1.000000 0.411765 0.000000
0.372549 0.462745 0.298039
0.396078 0.470588 0.282353
0.521569 0.490196 0.000000
0.737255 0.498039 0.000000
1.000000 0.615686 0.000000
0.635294 0.843137 0.560784
0.678431 0.843137 0.592157
0.733333 0.866667 0.388235
0.925490 0.866667 0.000000
0.992157 0.815686 0.003922
0.901961 1.000000 0.890196
0.921569 0.992157 0.905882
0.925490 1.000000 0.874510
0.937255 1.000000 0.705882
0.996078 1.000000 0.003922
0.047059 0.047059 0.196078
0.239216 0.039216 0.200000
0.447059 0.078431 0.180392
0.635294 0.207843 0.188235
1.000000 0.294118 0.117647
0.082353 0.223529 0.207843
0.247059 0.239216 0.192157
0.443137 0.250980 0.192157
0.662745 0.298039 0.176471
0.992157 0.388235 0.105882
0.349020 0.466667 0.325490
0.411765 0.462745 0.356863
0.501961 0.470588 0.219608
0.733333 0.505882 0.125490
1.000000 0.596078 0.011765
0.611765 0.854902 0.600000
0.674510 0.850980 0.627451
0.737255 0.862745 0.525490
0.917647 0.866667 0.113725
1.000000 0.827451 0.003922
0.913725 1.000000 0.921569
0.921569 0.996078 0.917647
0.945098 0.996078 0.917647
0.945098 1.000000 0.792157
0.996078 1.000000 0.215686
0.000000 0.039216 0.388235
0.184314 0.043137 0.396078
0.423529 0.090196 0.415686
0.635294 0.145098 0.403922
0.996078 0.000000 0.407843
0.000000 0.203922 0.388235
0.176471 0.200000 0.388235
0.427451 0.247059 0.400000
0.647059 0.262745 0.415686
0.988235 0.145098 0.376471
0.176471 0.431373 0.407843
0.274510 0.427451 0.407843
0.435294 0.435294 0.403922
0.709804 0.462745 0.392157
1.000000 0.525490 0.360784
0.415686 0.847059 0.639216
0.521569 0.847059 0.658824
0.760784 0.862745 0.756863
0.890196 0.850980 0.466667
1.000000 0.811765 0.309804
0.913725 1.000000 0.941176
0.929412 1.000000 0.937255
0.956863 0.996078 0.960784
0.956863 1.000000 0.917647
1.000000 1.000000 0.596078
0.000000 0.031373 0.670588
0.003922 0.023529 0.666667
0.392157 0.003922 0.701961
0.674510 0.054902 0.733333
1.000000 0.000000 0.792157
0.000000 0.180392 0.658824
0.000000 0.180392 0.674510
0.396078 0.203922 0.701961
0.694118 0.235294 0.752941
1.000000 0.082353 0.800000
0.003922 0.396078 0.627451
0.007843 0.392157 0.639216
0.309804 0.376471 0.690196
0.721569 0.415686 0.760784
0.996078 0.384314 0.780392
0.000000 0.760784 0.800000
0.007843 0.749020 0.803922
0.290196 0.760784 0.792157
0.737255 0.756863 0.772549
1.000000 0.803922 0.768627
0.850980 0.996078 0.956863
0.878431 0.996078 0.956863
0.956863 1.000000 0.976471
0.996078 1.000000 1.000000
0.996078 1.000000 0.921569
0.000000 0.000000 0.996078
0.000000 0.000000 0.996078
0.329412 0.003922 1.000000
0.698039 0.000000 1.000000
0.992157 0.000000 1.000000
0.003922 0.137255 1.000000
0.007843 0.141176 1.000000
0.305882 0.125490 1.000000
0.705882 0.125490 1.000000
0.992157 0.145098 0.996078
0.003922 0.396078 1.000000
0.000000 0.376471 0.988235
0.000000 0.333333 1.000000
0.643137 0.341176 1.000000
0.992157 0.431373 0.988235
0.003922 0.698039 1.000000
0.003922 0.678431 1.000000
0.000000 0.639216 1.000000
0.533333 0.631373 0.992157
0.988235 0.807843 0.992157
0.415686 0.976471 0.992157
0.505882 0.976471 1.000000
0.713725 0.980392 0.992157
0.925490 1.000000 1.000000
1.000000 1.000000 1.000000
