qml/filters/cineWarm.cube
#Generated with IWLTBAP LUT Generator
#Website: http://luts.iwltbap.com
TITLE "FG_CineWarm"
#LUT size
LUT_3D_SIZE 9
#LUT data points
0.066667 0.090196 0.090196
0.082353 0.090196 0.086275
0.227451 0.098039 0.070588
0.462745 0.129412 0.019608
0.733333 0.196078 0.000000
0.858824 0.231373 0.003922
0.968627 0.270588 0.000000
1.000000 0.317647 0.090196
1.000000 0.521569 0.345098
0.223529 0.121569 0.066667
0.098039 0.121569 0.082353
0.227451 0.149020 0.050980
0.505882 0.211765 0.003922
0.701961 0.250980 0.003922
0.858824 0.290196 0.003922
0.960784 0.305882 0.000000
1.000000 0.329412 0.086275
1.000000 0.509804 0.290196
0.309804 0.188235 0.015686
0.074510 0.176471 0.070588
0.270588 0.203922 0.035294
0.674510 0.364706 0.000000
0.788235 0.360784 0.003922
0.909804 0.368627 0.000000
1.000000 0.380392 0.000000
1.000000 0.400000 0.054902
0.996078 0.564706 0.286275
0.250980 0.258824 0.003922
0.000000 0.329412 0.066667
0.250980 0.392157 0.000000
0.607843 0.439216 0.000000
0.815686 0.478431 0.000000
0.952941 0.482353 0.000000
1.000000 0.474510 0.000000
1.000000 0.466667 0.027451
1.000000 0.478431 0.207843
0.290196 0.486275 0.000000
0.000000 0.568627 0.184314
0.003922 0.584314 0.003922
0.517647 0.600000 0.000000
0.749020 0.549020 0.003922
0.905882 0.576471 0.000000
1.000000 0.592157 0.000000
1.000000 0.572549 0.090196
1.000000 0.686275 0.313725
0.000000 0.686275 0.400000
0.007843 0.686275 0.403922
0.003922 0.666667 0.231373
0.121569 0.686275 0.000000
0.627451 0.709804 0.003922
0.850980 0.650980 0.003922
0.996078 0.670588 0.000000
1.000000 0.682353 0.200000
1.000000 0.788235 0.411765
0.360784 0.709804 0.215686
0.003922 0.752941 0.517647
0.000000 0.760784 0.470588
0.000000 0.749020 0.345098
0.458824 0.788235 0.239216
0.807843 0.831373 0.070588
0.996078 0.760784 0.000000
1.000000 0.760784 0.270588
0.992157 0.878431 0.482353
0.737255 0.949020 0.611765
0.494118 0.949020 0.764706
0.454902 0.956863 0.725490
0.486275 0.960784 0.647059
0.792157 0.960784 0.639216
1.000000 0.960784 0.576471
0.996078 0.913725 0.556863
0.996078 0.890196 0.588235
0.996078 0.917647 0.709804
0.745098 0.996078 0.788235
0.658824 0.996078 0.874510
0.662745 0.996078 0.862745
0.662745 0.996078 0.823529
0.752941 1.000000 0.768627
0.909804 0.992157 0.737255
1.000000 0.968627 0.682353
1.000000 0.933333 0.737255
1.000000 0.921569 0.768627
0.039216 0.113725 0.098039
0.015686 0.133333 0.086275
0.137255 0.156863 0.070588
0.309804 0.203922 0.000000
0.529412 0.266667 0.000000
0.686275 0.305882 0.000000
0.827451 0.333333 0.000000
0.941176 0.349020 0.000000
1.000000 0.509804 0.000000
0.184314 0.160784 0.066667
0.000000 0.215686 0.062745
0.000000 0.227451 0.031373
0.231373 0.235294 0.000000
0.447059 0.294118 0.000000
0.670588 0.360784 0.000000
0.819608 0.392157 0.000000
0.945098 0.400000 0.003922
1.000000 0.568627 0.000000
0.352941 0.207843 0.000000
0.062745 0.196078 0.098039
0.247059 0.207843 0.066667
0.670588 0.388235 0.003922
0.800000 0.396078 0.000000
0.890196 0.388235 0.000000
0.992157 0.400000 0.003922
0.996078 0.403922 0.023529
1.000000 0.580392 0.329412
0.278431 0.278431 0.003922
0.003922 0.329412 0.109804
0.196078 0.388235 0.058824
0.600000 0.462745 0.000000
0.807843 0.498039 0.000000
0.949020 0.505882 0.000000
0.996078 0.482353 0.000000
1.000000 0.482353 0.015686
1.000000 0.490196 0.223529
0.333333 0.509804 0.011765
0.007843 0.576471 0.250980
0.000000 0.576471 0.105882
0.482353 0.615686 0.000000
0.737255 0.556863 0.011765
0.913725 0.576471 0.000000
0.996078 0.600000 0.003922
1.000000 0.576471 0.109804
1.000000 0.698039 0.333333
0.000000 0.682353 0.431373
0.003922 0.678431 0.419608
0.003922 0.674510 0.294118
0.192157 0.666667 0.160784
0.643137 0.713725 0.000000
0.854902 0.654902 0.000000
0.996078 0.674510 0.000000
1.000000 0.686275 0.203922
1.000000 0.792157 0.415686
0.368627 0.713725 0.231373
0.000000 0.764706 0.537255
0.003922 0.768627 0.501961
0.000000 0.752941 0.380392
0.482353 0.784314 0.337255
0.827451 0.843137 0.129412
1.000000 0.764706 0.000000
1.000000 0.768627 0.274510
0.996078 0.882353 0.482353
0.839216 0.925490 0.674510
0.552941 0.925490 0.760784
0.529412 0.933333 0.725490
0.686275 0.945098 0.694118
0.917647 0.945098 0.682353
0.996078 0.925490 0.666667
1.000000 0.905882 0.615686
1.000000 0.886275 0.631373
0.996078 0.909804 0.717647
0.788235 1.000000 0.803922
0.701961 1.000000 0.882353
0.694118 1.000000 0.862745
0.717647 0.996078 0.823529
0.850980 0.992157 0.796078
0.976471 0.968627 0.780392
1.000000 0.945098 0.768627
1.000000 0.933333 0.792157
1.000000 0.925490 0.800000
0.003922 0.137255 0.141176
0.043137 0.145098 0.141176
0.180392 0.164706 0.121569
0.368627 0.203922 0.007843
0.600000 0.286275 0.000000
0.741176 0.325490 0.000000
0.854902 0.337255 0.003922
0.964706 0.356863 0.000000
1.000000 0.521569 0.101961
0.290196 0.203922 0.011765
0.000000 0.203922 0.145098
0.078431 0.223529 0.094118
0.305882 0.231373 0.011765
0.537255 0.313725 0.000000
0.721569 0.368627 0.000000
0.850980 0.384314 0.000000
0.960784 0.392157 0.003922
1.000000 0.545098 0.211765
0.435294 0.239216 0.043137
0.113725 0.192157 0.184314
0.227451 0.211765 0.164706
0.611765 0.376471 0.141176
0.807843 0.423529 0.000000
0.921569 0.427451 0.000000
0.992157 0.419608 0.000000
1.000000 0.423529 0.019608
1.000000 0.611765 0.396078
0.345098 0.301961 0.090196
0.000000 0.341176 0.247059
0.074510 0.376471 0.172549
0.592157 0.478431 0.188235
0.792157 0.498039 0.031373
0.960784 0.521569 0.000000
1.000000 0.513725 0.000000
1.000000 0.501961 0.011765
1.000000 0.501961 0.223529
0.376471 0.517647 0.133333
0.003922 0.572549 0.380392
0.003922 0.564706 0.274510
0.470588 0.592157 0.227451
0.721569 0.564706 0.192157
0.917647 0.588235 0.000000
1.000000 0.607843 0.000000
1.000000 0.592157 0.125490
0.996078 0.701961 0.352941
0.000000 0.682353 0.482353
0.003922 0.682353 0.494118
0.000000 0.674510 0.447059
0.160784 0.662745 0.321569
0.635294 0.698039 0.278431
0.858824 0.670588 0.152941
0.992157 0.670588 0.000000
1.000000 0.690196 0.207843
1.000000 0.788235 0.435294
0.415686 0.721569 0.313725
0.176471 0.760784 0.580392
0.243137 0.760784 0.568627
0.164706 0.760784 0.470588
0.494118 0.780392 0.423529
0.815686 0.823529 0.396078
1.000000 0.772549 0.250980
1.000000 0.764706 0.286275
1.000000 0.882353 0.505882
0.764706 0.952941 0.662745
0.537255 0.937255 0.780392
0.560784 0.937255 0.780392
0.556863 0.945098 0.713725
0.796078 0.956863 0.690196
0.996078 0.956863 0.686275
1.000000 0.913725 0.607843
0.996078 0.890196 0.580392
0.996078 0.913725 0.690196
0.788235 1.000000 0.803922
0.658824 0.996078 0.882353
0.701961 0.992157 0.886275
0.690196 0.992157 0.850980
0.764706 1.000000 0.796078
0.917647 0.988235 0.784314
1.000000 0.964706 0.764706
0.992157 0.937255 0.745098
0.996078 0.921569 0.756863
0.000000 0.192157 0.207843
0.003922 0.203922 0.215686
0.101961 0.196078 0.196078
0.298039 0.211765 0.160784
0.556863 0.305882 0.117647
0.760784 0.388235 0.003922
0.886275 0.403922 0.000000
0.992157 0.407843 0.000000
1.000000 0.541176 0.058824
0.309804 0.235294 0.007843
0.000000 0.247059 0.215686
0.003922 0.254902 0.192157
0.200000 0.262745 0.117647
0.466667 0.329412 0.062745
0.686275 0.407843 0.000000
0.874510 0.447059 0.000000
0.988235 0.450980 0.003922
1.000000 0.603922 0.168627
0.462745 0.250980 0.156863
0.058824 0.227451 0.262745
0.180392 0.219608 0.266667
0.443137 0.294118 0.290196
0.713725 0.411765 0.294118
0.886275 0.431373 0.145098
0.996078 0.454902 0.000000
0.996078 0.450980 0.023529
1.000000 0.623529 0.415686
0.396078 0.341176 0.227451
0.000000 0.329412 0.321569
0.192157 0.345098 0.333333
0.521569 0.462745 0.372549
0.756863 0.552941 0.407843
0.921569 0.564706 0.321569
0.992157 0.521569 0.000000
0.996078 0.513725 0.066667
1.000000 0.513725 0.243137
0.423529 0.525490 0.278431
0.003922 0.564706 0.486275
0.188235 0.580392 0.470588
0.388235 0.584314 0.384314
0.690196 0.596078 0.423529
0.882353 0.643137 0.400000
1.000000 0.635294 0.223529
1.000000 0.611765 0.172549
1.000000 0.717647 0.380392
0.113725 0.682353 0.584314
0.145098 0.686275 0.584314
0.270588 0.686275 0.568627
0.294118 0.670588 0.474510
0.600000 0.682353 0.462745
0.819608 0.694118 0.470588
0.996078 0.705882 0.325490
1.000000 0.698039 0.243137
0.996078 0.796078 0.439216
0.454902 0.737255 0.415686
0.270588 0.768627 0.623529
0.313725 0.772549 0.627451
0.349020 0.764706 0.576471
0.458824 0.768627 0.513725
0.788235 0.819608 0.517647
0.984314 0.800000 0.486275
1.000000 0.772549 0.309804
0.996078 0.890196 0.533333
0.862745 0.917647 0.717647
0.623529 0.901961 0.839216
0.639216 0.901961 0.823529
0.654902 0.917647 0.780392
0.847059 0.933333 0.780392
1.000000 0.933333 0.784314
1.000000 0.909804 0.745098
1.000000 0.886275 0.627451
1.000000 0.909804 0.737255
0.811765 1.000000 0.847059
0.721569 1.000000 0.925490
0.737255 1.000000 0.921569
0.776471 0.996078 0.898039
0.823529 0.996078 0.850980
0.956863 0.968627 0.847059
1.000000 0.952941 0.850980
0.996078 0.933333 0.803922
1.000000 0.925490 0.807843
0.000000 0.235294 0.317647
0.000000 0.239216 0.309804
0.003922 0.211765 0.345098
0.290196 0.184314 0.313725
0.439216 0.211765 0.258824
0.686275 0.376471 0.349020
0.870588 0.411765 0.243137
1.000000 0.423529 0.000000
0.996078 0.568627 0.215686
0.392157 0.231373 0.152941
0.000000 0.258824 0.294118
0.007843 0.254902 0.290196
0.239216 0.231373 0.274510
0.450980 0.321569 0.301961
0.670588 0.415686 0.337255
0.858824 0.447059 0.239216
1.000000 0.443137 0.000000
0.996078 0.603922 0.329412
0.486275 0.286275 0.274510
0.007843 0.305882 0.400000
0.121569 0.278431 0.407843
0.407843 0.282353 0.435294
0.580392 0.380392 0.407843
0.792157 0.509804 0.462745
0.988235 0.525490 0.384314
0.996078 0.490196 0.050980
1.000000 0.643137 0.439216
0.435294 0.400000 0.372549
0.003922 0.411765 0.454902
0.172549 0.407843 0.450980
0.407843 0.407843 0.454902
0.635294 0.537255 0.521569
0.827451 0.596078 0.533333
0.992157 0.615686 0.482353
1.000000 0.537255 0.156863
1.000000 0.533333 0.266667
0.454902 0.513725 0.431373
0.094118 0.541176 0.541176
0.258824 0.549020 0.545098
0.419608 0.556863 0.529412
0.666667 0.627451 0.580392
0.858824 0.698039 0.596078
1.000000 0.713725 0.568627
1.000000 0.627451 0.274510
1.000000 0.713725 0.403922
0.266667 0.654902 0.627451
0.286275 0.658824 0.627451
0.388235 0.666667 0.627451
0.458824 0.670588 0.607843
0.552941 0.666667 0.549020
0.792157 0.709804 0.588235
0.980392 0.756863 0.596078
1.000000 0.737255 0.427451
1.000000 0.796078 0.470588
0.505882 0.741176 0.505882
0.376471 0.756863 0.682353
0.388235 0.756863 0.686275
0.447059 0.760784 0.662745
0.458824 0.752941 0.592157
0.745098 0.800000 0.600000
0.952941 0.811765 0.607843
0.996078 0.807843 0.478431
1.000000 0.890196 0.545098
0.792157 0.925490 0.729412
0.619608 0.909804 0.850980
0.631373 0.917647 0.850980
0.674510 0.921569 0.847059
0.705882 0.929412 0.800000
0.949020 0.956863 0.803922
1.000000 0.929412 0.803922
1.000000 0.905882 0.725490
1.000000 0.913725 0.709804
0.764706 1.000000 0.843137
0.682353 1.000000 0.941176
0.701961 1.000000 0.941176
0.749020 1.000000 0.933333
0.784314 0.996078 0.894118
0.890196 0.988235 0.862745
1.000000 0.980392 0.866667
0.996078 0.952941 0.843137
0.996078 0.921569 0.756863
0.003922 0.286275 0.372549
0.000000 0.290196 0.352941
0.000000 0.290196 0.372549
0.141176 0.254902 0.388235
0.400000 0.262745 0.380392
0.584314 0.419608 0.435294
0.800000 0.525490 0.486275
0.988235 0.541176 0.439216
1.000000 0.639216 0.439216
0.376471 0.309804 0.270588
0.003922 0.301961 0.352941
0.000000 0.301961 0.341176
0.066667 0.294118 0.337255
0.329412 0.305882 0.345098
0.584314 0.486275 0.466667
0.807843 0.560784 0.501961
0.976471 0.564706 0.407843
1.000000 0.725490 0.545098
0.415686 0.239216 0.329412
0.000000 0.380392 0.525490
0.101961 0.372549 0.525490
0.341176 0.349020 0.549020
0.572549 0.372549 0.549020
0.678431 0.466667 0.529412
0.858824 0.580392 0.564706
0.996078 0.611765 0.537255
1.000000 0.717647 0.623529
0.400000 0.349020 0.427451
0.000000 0.443137 0.525490
0.164706 0.447059 0.525490
0.349020 0.431373 0.545098
0.552941 0.466667 0.556863
0.658824 0.533333 0.545098
0.874510 0.627451 0.600000
1.000000 0.654902 0.576471
0.996078 0.549020 0.305882
0.419608 0.478431 0.466667
0.164706 0.564706 0.603922
0.254902 0.568627 0.596078
0.407843 0.564706 0.600000
0.537255 0.556863 0.568627
0.776471 0.678431 0.662745
0.956863 0.733333 0.674510
0.996078 0.717647 0.600000
1.000000 0.772549 0.576471
0.254902 0.666667 0.670588
0.278431 0.678431 0.666667
0.356863 0.670588 0.674510
0.470588 0.666667 0.670588
0.556863 0.670588 0.650980
0.764706 0.725490 0.678431
0.980392 0.796078 0.717647
0.992157 0.796078 0.658824
1.000000 0.827451 0.592157
0.482353 0.725490 0.572549
0.403922 0.768627 0.733333
0.427451 0.768627 0.733333
0.513725 0.776471 0.737255
0.564706 0.776471 0.713725
0.686275 0.784314 0.662745
0.937255 0.831373 0.717647
1.000000 0.850980 0.690196
0.996078 0.905882 0.694118
0.815686 0.882353 0.811765
0.607843 0.874510 0.886275
0.635294 0.874510 0.882353
0.694118 0.874510 0.874510
0.780392 0.878431 0.866667
0.960784 0.929412 0.886275
1.000000 0.933333 0.894118
0.996078 0.921569 0.858824
0.996078 0.925490 0.847059
0.823529 0.952941 0.917647
0.690196 0.984314 0.956863
0.713725 0.984314 0.956863
0.796078 0.996078 0.968627
0.850980 0.992157 0.952941
0.905882 0.976471 0.913725
1.000000 0.968627 0.929412
1.000000 0.972549 0.941176
1.000000 0.933333 0.854902
0.000000 0.333333 0.486275
0.000000 0.341176 0.490196
0.000000 0.356863 0.509804
0.176471 0.301961 0.494118
0.443137 0.352941 0.556863
0.600000 0.384314 0.549020
0.725490 0.474510 0.537255
0.909804 0.600000 0.611765
1.000000 0.729412 0.729412
0.345098 0.258824 0.407843
0.000000 0.333333 0.443137
0.000000 0.360784 0.458824
0.203922 0.356863 0.478431
0.380392 0.376471 0.509804
0.541176 0.403922 0.521569
0.705882 0.498039 0.545098
0.901961 0.611765 0.607843
0.984314 0.733333 0.725490
0.439216 0.329412 0.517647
0.129412 0.486275 0.658824
0.207843 0.474510 0.658824
0.325490 0.443137 0.654902
0.556863 0.466667 0.670588
0.690196 0.482353 0.654902
0.815686 0.545098 0.635294
0.964706 0.654902 0.670588
1.000000 0.749020 0.764706
0.384314 0.419608 0.533333
0.152941 0.525490 0.650980
0.247059 0.533333 0.658824
0.380392 0.533333 0.662745
0.537255 0.537255 0.678431
0.682353 0.537255 0.666667
0.811765 0.588235 0.647059
0.976471 0.698039 0.698039
1.000000 0.713725 0.678431
0.400000 0.517647 0.564706
0.207843 0.592157 0.666667
0.254902 0.588235 0.670588
0.372549 0.596078 0.662745
0.501961 0.568627 0.670588
0.666667 0.596078 0.658824
0.823529 0.682353 0.698039
1.000000 0.752941 0.725490
1.000000 0.843137 0.807843
0.243137 0.682353 0.725490
0.254902 0.686275 0.721569
0.305882 0.686275 0.713725
0.411765 0.674510 0.709804
0.505882 0.662745 0.690196
0.647059 0.654902 0.701961
0.890196 0.780392 0.776471
0.992157 0.819608 0.776471
1.000000 0.890196 0.835294
0.560784 0.686275 0.674510
0.345098 0.756863 0.772549
0.384314 0.752941 0.760784
0.443137 0.756863 0.760784
0.545098 0.749020 0.741176
0.658824 0.760784 0.749020
0.917647 0.866667 0.831373
1.000000 0.901961 0.843137
1.000000 0.925490 0.858824
0.717647 0.835294 0.835294
0.537255 0.901961 0.929412
0.556863 0.905882 0.929412
0.611765 0.898039 0.921569
0.709804 0.894118 0.921569
0.811765 0.890196 0.894118
1.000000 0.945098 0.933333
0.992157 0.933333 0.905882
0.996078 0.956863 0.921569
0.803922 0.952941 0.956863
0.631373 1.000000 1.000000
0.647059 1.000000 0.992157
0.717647 0.996078 0.996078
0.807843 1.000000 0.976471
0.878431 0.976471 0.952941
0.964706 0.976471 0.941176
1.000000 0.988235 0.968627
1.000000 0.960784 0.925490
0.007843 0.494118 0.635294
0.000000 0.509804 0.643137
0.117647 0.521569 0.650980
0.309804 0.521569 0.670588
0.431373 0.517647 0.701961
0.627451 0.533333 0.721569
0.764706 0.545098 0.698039
0.890196 0.596078 0.674510
0.996078 0.690196 0.752941
0.305882 0.396078 0.521569
0.000000 0.490196 0.600000
0.003922 0.501961 0.607843
0.223529 0.513725 0.619608
0.376471 0.513725 0.639216
0.517647 0.513725 0.647059
0.686275 0.525490 0.643137
0.878431 0.627451 0.682353
0.854902 0.650980 0.709804
0.447059 0.447059 0.650980
0.278431 0.596078 0.772549
0.321569 0.600000 0.772549
0.376471 0.564706 0.760784
0.521569 0.556863 0.772549
0.717647 0.568627 0.792157
0.843137 0.572549 0.756863
0.949020 0.619608 0.713725
0.960784 0.647059 0.784314
0.368627 0.505882 0.670588
0.258824 0.619608 0.760784
0.317647 0.627451 0.784314
0.407843 0.615686 0.772549
0.505882 0.576471 0.764706
0.713725 0.607843 0.807843
0.839216 0.600000 0.768627
0.945098 0.650980 0.741176
1.000000 0.756863 0.776471
0.423529 0.596078 0.701961
0.243137 0.662745 0.764706
0.274510 0.654902 0.760784
0.384314 0.654902 0.768627
0.513725 0.650980 0.776471
0.666667 0.643137 0.792157
0.831373 0.654902 0.776471
0.968627 0.725490 0.776471
1.000000 0.792157 0.839216
0.223529 0.749020 0.823529
0.231373 0.745098 0.823529
0.266667 0.741176 0.815686
0.372549 0.729412 0.803922
0.462745 0.701961 0.784314
0.596078 0.678431 0.784314
0.800000 0.701961 0.788235
0.988235 0.803922 0.835294
0.996078 0.894118 0.905882
0.494118 0.717647 0.752941
0.294118 0.811765 0.862745
0.325490 0.815686 0.862745
0.392157 0.815686 0.854902
0.498039 0.800000 0.839216
0.596078 0.780392 0.811765
0.776471 0.768627 0.819608
0.992157 0.909804 0.898039
1.000000 0.937255 0.937255
0.627451 0.819608 0.886275
0.486275 0.921569 0.996078
0.513725 0.913725 1.000000
0.568627 0.913725 0.992157
0.654902 0.898039 0.988235
0.788235 0.898039 0.984314
0.984314 0.890196 0.984314
1.000000 0.913725 0.945098
1.000000 0.933333 0.956863
0.780392 0.964706 0.996078
0.658824 1.000000 1.000000
0.678431 1.000000 0.992157
0.729412 0.996078 1.000000
0.784314 1.000000 1.000000
0.858824 0.976471 1.000000
0.952941 0.956863 0.976471
0.996078 0.972549 0.972549
1.000000 0.988235 1.000000
0.309804 0.686275 0.882353
0.325490 0.686275 0.878431
0.388235 0.701961 0.894118
0.439216 0.658824 0.882353
0.509804 0.619608 0.874510
0.694118 0.635294 0.890196
0.874510 0.643137 0.894118
0.984314 0.635294 0.847059
1.000000 0.694118 0.909804
0.435294 0.529412 0.764706
0.313725 0.682353 0.854902
0.352941 0.682353 0.862745
0.427451 0.670588 0.862745
0.470588 0.611765 0.847059
0.635294 0.611765 0.847059
0.823529 0.623529 0.862745
0.952941 0.623529 0.827451
0.913725 0.725490 0.890196
0.505882 0.576471 0.835294
0.400000 0.733333 0.949020
0.431373 0.725490 0.941176
0.470588 0.698039 0.937255
0.545098 0.654902 0.933333
0.733333 0.674510 0.945098
0.913725 0.674510 0.937255
1.000000 0.674510 0.917647
0.996078 0.745098 0.980392
0.450980 0.647059 0.854902
0.364706 0.772549 0.949020
0.407843 0.768627 0.952941
0.490196 0.752941 0.960784
0.537255 0.694118 0.937255
0.717647 0.698039 0.949020
0.917647 0.701961 0.956863
1.000000 0.709804 0.917647
1.000000 0.764706 0.874510
0.443137 0.721569 0.890196
0.266667 0.807843 0.952941
0.329412 0.811765 0.972549
0.450980 0.800000 0.956863
0.560784 0.780392 0.968627
0.654902 0.721569 0.941176
0.878431 0.749020 0.964706
1.000000 0.729412 0.913725
1.000000 0.776471 0.952941
0.223529 0.874510 0.992157
0.235294 0.882353 0.992157
0.270588 0.878431 0.996078
0.356863 0.862745 0.984314
0.482353 0.854902 0.972549
0.650980 0.815686 0.972549
0.811765 0.764706 0.952941
1.000000 0.800000 0.949020
0.996078 0.839216 0.972549
0.517647 0.890196 0.976471
0.294118 0.905882 0.992157
0.317647 0.909804 0.984314
0.388235 0.909804 1.000000
0.494118 0.909804 0.996078
0.592157 0.913725 0.996078
0.768627 0.850980 0.972549
0.988235 0.858824 0.980392
0.988235 0.913725 1.000000
0.584314 0.945098 0.996078
0.388235 0.956863 1.000000
0.411765 0.960784 1.000000
0.466667 0.956863 1.000000
0.576471 0.968627 1.000000
0.690196 0.964706 1.000000
0.803922 0.960784 0.996078
0.972549 0.937255 1.000000
0.980392 0.968627 1.000000
0.541176 0.976471 0.980392
0.356863 0.988235 0.988235
0.400000 0.992157 0.996078
0.466667 0.992157 0.996078
0.596078 0.992157 0.992157
0.729412 0.984314 0.992157
0.874510 0.992157 1.000000
1.000000 0.996078 1.000000
1.000000 1.000000 0.992157
