qml/filters/cineLessContrast.cube
#Generated with IWLTBAP LUT Generator
#Website: http://luts.iwltbap.com
TITLE "FGCineBasic"
#LUT size
LUT_3D_SIZE 5
#LUT data points
0.105882 0.113725 0.109804
0.274510 0.121569 0.094118
0.462745 0.164706 0.101961
0.670588 0.227451 0.109804
0.901961 0.286275 0.078431
0.168627 0.278431 0.121569
0.305882 0.290196 0.105882
0.435294 0.243137 0.125490
0.643137 0.286275 0.121569
0.890196 0.345098 0.082353
0.278431 0.501961 0.098039
0.380392 0.509804 0.098039
0.588235 0.545098 0.125490
0.701961 0.458824 0.141176
0.854902 0.439216 0.070588
0.384314 0.756863 0.011765
0.466667 0.749020 0.015686
0.650980 0.768627 0.050980
0.870588 0.800000 0.180392
1.000000 0.725490 0.207843
0.517647 1.000000 0.000000
0.580392 0.992157 0.000000
0.729412 0.992157 0.000000
0.909804 0.996078 0.188235
1.000000 0.992157 0.345098
0.105882 0.101961 0.274510
0.278431 0.117647 0.282353
0.490196 0.133333 0.262745
0.701961 0.266667 0.262745
0.937255 0.305882 0.243137
0.121569 0.270588 0.270588
0.274510 0.282353 0.278431
0.462745 0.286275 0.266667
0.670588 0.309804 0.250980
0.913725 0.364706 0.235294
0.188235 0.509804 0.258824
0.325490 0.505882 0.254902
0.568627 0.537255 0.286275
0.670588 0.443137 0.254902
0.878431 0.450980 0.196078
0.325490 0.752941 0.243137
0.427451 0.756863 0.219608
0.635294 0.760784 0.231373
0.862745 0.800000 0.321569
1.000000 0.729412 0.313725
0.490196 1.000000 0.219608
0.549020 0.996078 0.215686
0.705882 0.996078 0.215686
0.905882 0.996078 0.305882
1.000000 0.984314 0.435294
0.113725 0.113725 0.490196
0.262745 0.125490 0.486275
0.482353 0.133333 0.494118
0.717647 0.133333 0.494118
0.972549 0.113725 0.443137
0.109804 0.262745 0.486275
0.262745 0.270588 0.501961
0.478431 0.270588 0.490196
0.721569 0.278431 0.498039
0.984314 0.270588 0.431373
0.062745 0.498039 0.501961
0.247059 0.498039 0.501961
0.478431 0.501961 0.501961
0.694118 0.501961 0.474510
0.933333 0.513725 0.450980
0.007843 0.749020 0.450980
0.176471 0.752941 0.466667
0.541176 0.760784 0.466667
0.819608 0.796078 0.552941
0.984314 0.694118 0.462745
0.349020 1.000000 0.466667
0.439216 0.996078 0.462745
0.639216 1.000000 0.462745
0.882353 1.000000 0.505882
1.000000 0.984314 0.607843
0.105882 0.117647 0.733333
0.258824 0.125490 0.737255
0.490196 0.121569 0.741176
0.725490 0.117647 0.737255
0.980392 0.094118 0.737255
0.066667 0.270588 0.741176
0.262745 0.262745 0.741176
0.482353 0.270588 0.749020
0.721569 0.258824 0.741176
0.976471 0.254902 0.749020
0.000000 0.490196 0.741176
0.196078 0.490196 0.745098
0.474510 0.490196 0.745098
0.725490 0.490196 0.741176
0.980392 0.494118 0.737255
0.000000 0.745098 0.745098
0.121569 0.749020 0.749020
0.439216 0.752941 0.749020
0.721569 0.745098 0.737255
0.968627 0.737255 0.705882
0.011765 0.996078 0.717647
0.003922 0.996078 0.709804
0.435294 0.996078 0.705882
0.800000 1.000000 0.737255
1.000000 0.992157 0.815686
0.054902 0.113725 0.996078
0.254902 0.117647 1.000000
0.486275 0.105882 0.996078
0.737255 0.086275 0.996078
0.984314 0.027451 1.000000
0.000000 0.266667 1.000000
0.235294 0.266667 1.000000
0.490196 0.258824 1.000000
0.729412 0.250980 1.000000
0.984314 0.235294 0.992157
0.000000 0.482353 0.996078
0.109804 0.478431 1.000000
0.450980 0.478431 1.000000
0.721569 0.478431 1.000000
0.988235 0.470588 1.000000
0.000000 0.749020 1.000000
0.015686 0.745098 1.000000
0.427451 0.737255 1.000000
0.709804 0.737255 1.000000
0.988235 0.745098 1.000000
0.000000 0.996078 0.996078
0.000000 1.000000 1.000000
0.427451 1.000000 1.000000
0.721569 1.000000 0.996078
1.000000 1.000000 1.000000
