qml/filters/cineDrama.cube
#Generated with IWLTBAP LUT Generator
#Website: http://luts.iwltbap.com
TITLE "FGCineDrama"
#LUT size
LUT_3D_SIZE 9
#LUT data points
0.050980 0.109804 0.090196
0.070588 0.105882 0.101961
0.172549 0.101961 0.086275
0.443137 0.054902 0.082353
0.756863 0.000000 0.050980
0.921569 0.000000 0.043137
0.996078 0.003922 0.094118
0.996078 0.007843 0.176471
0.992157 0.219608 0.290196
0.058824 0.117647 0.098039
0.074510 0.125490 0.090196
0.239216 0.152941 0.094118
0.537255 0.145098 0.054902
0.792157 0.066667 0.019608
0.937255 0.019608 0.035294
0.996078 0.039216 0.101961
0.996078 0.152941 0.192157
0.992157 0.278431 0.305882
0.023529 0.176471 0.101961
0.039216 0.188235 0.090196
0.235294 0.274510 0.039216
0.635294 0.341176 0.015686
0.858824 0.301961 0.011765
0.972549 0.290196 0.054902
1.000000 0.282353 0.156863
0.996078 0.309804 0.250980
0.988235 0.384314 0.345098
0.000000 0.298039 0.062745
0.000000 0.301961 0.066667
0.188235 0.384314 0.003922
0.568627 0.517647 0.007843
0.835294 0.556863 0.000000
0.980392 0.505882 0.117647
0.996078 0.462745 0.266667
0.996078 0.482353 0.341176
1.000000 0.501961 0.427451
0.007843 0.450980 0.000000
0.000000 0.458824 0.007843
0.125490 0.482353 0.007843
0.466667 0.584314 0.007843
0.756863 0.709804 0.003922
0.933333 0.713725 0.168627
1.000000 0.658824 0.341176
1.000000 0.635294 0.462745
1.000000 0.643137 0.501961
0.000000 0.580392 0.000000
0.000000 0.588235 0.003922
0.133333 0.584314 0.015686
0.400000 0.650980 0.031373
0.639216 0.741176 0.109804
0.843137 0.831373 0.223529
0.992157 0.819608 0.392157
1.000000 0.776471 0.498039
1.000000 0.752941 0.576471
0.176471 0.713725 0.098039
0.203922 0.709804 0.105882
0.266667 0.709804 0.121569
0.392157 0.725490 0.156863
0.576471 0.792157 0.231373
0.729412 0.858824 0.337255
0.917647 0.901961 0.407843
0.996078 0.886275 0.560784
1.000000 0.850980 0.635294
0.352941 0.831373 0.247059
0.372549 0.831373 0.270588
0.403922 0.831373 0.262745
0.443137 0.835294 0.305882
0.552941 0.866667 0.337255
0.682353 0.913725 0.419608
0.827451 0.937255 0.505882
0.972549 0.956863 0.576471
0.992157 0.933333 0.678431
0.505882 0.941176 0.458824
0.505882 0.952941 0.474510
0.513725 0.949020 0.474510
0.545098 0.949020 0.490196
0.603922 0.952941 0.529412
0.717647 0.968627 0.588235
0.835294 0.968627 0.627451
0.933333 0.976471 0.678431
1.000000 0.968627 0.737255
0.054902 0.109804 0.109804
0.066667 0.105882 0.101961
0.145098 0.105882 0.109804
0.349020 0.058824 0.117647
0.690196 0.007843 0.117647
0.890196 0.003922 0.160784
1.000000 0.003922 0.207843
1.000000 0.184314 0.278431
1.000000 0.313725 0.364706
0.054902 0.121569 0.098039
0.078431 0.125490 0.117647
0.172549 0.129412 0.113725
0.439216 0.121569 0.117647
0.741176 0.019608 0.129412
0.905882 0.070588 0.160784
1.000000 0.164706 0.219608
0.992157 0.258824 0.294118
0.992157 0.356863 0.376471
0.023529 0.188235 0.101961
0.043137 0.188235 0.109804
0.223529 0.258824 0.090196
0.596078 0.301961 0.094118
0.819608 0.298039 0.145098
0.937255 0.305882 0.196078
1.000000 0.333333 0.262745
1.000000 0.380392 0.345098
1.000000 0.439216 0.423529
0.003922 0.305882 0.094118
0.000000 0.321569 0.101961
0.156863 0.376471 0.090196
0.549020 0.509804 0.000000
0.819608 0.552941 0.133333
0.972549 0.517647 0.278431
1.000000 0.509804 0.349020
1.000000 0.517647 0.415686
1.000000 0.545098 0.478431
0.000000 0.458824 0.078431
0.007843 0.454902 0.078431
0.090196 0.466667 0.074510
0.458824 0.580392 0.074510
0.729412 0.701961 0.113725
0.925490 0.713725 0.290196
1.000000 0.682353 0.423529
1.000000 0.654902 0.498039
1.000000 0.666667 0.552941
0.000000 0.588235 0.082353
0.007843 0.580392 0.090196
0.164706 0.588235 0.101961
0.392157 0.635294 0.137255
0.635294 0.737255 0.207843
0.831373 0.823529 0.298039
0.992157 0.815686 0.450980
1.000000 0.788235 0.545098
1.000000 0.772549 0.623529
0.203922 0.705882 0.160784
0.227451 0.709804 0.152941
0.298039 0.701961 0.172549
0.384314 0.721569 0.192157
0.572549 0.788235 0.278431
0.725490 0.862745 0.368627
0.917647 0.905882 0.454902
1.000000 0.882353 0.600000
0.992157 0.862745 0.654902
0.364706 0.827451 0.278431
0.388235 0.835294 0.290196
0.411765 0.835294 0.298039
0.458824 0.835294 0.309804
0.549020 0.866667 0.364706
0.682353 0.905882 0.447059
0.831373 0.933333 0.513725
0.960784 0.945098 0.596078
1.000000 0.925490 0.705882
0.501961 0.949020 0.474510
0.513725 0.949020 0.478431
0.525490 0.945098 0.490196
0.560784 0.945098 0.509804
0.607843 0.949020 0.537255
0.713725 0.964706 0.576471
0.835294 0.976471 0.631373
0.933333 0.968627 0.705882
0.996078 0.972549 0.745098
0.035294 0.105882 0.160784
0.098039 0.105882 0.164706
0.168627 0.101961 0.164706
0.301961 0.090196 0.184314
0.607843 0.000000 0.235294
0.827451 0.000000 0.270588
0.937255 0.207843 0.329412
0.996078 0.329412 0.403922
0.996078 0.435294 0.482353
0.011765 0.149020 0.156863
0.058824 0.125490 0.164706
0.168627 0.121569 0.168627
0.333333 0.125490 0.196078
0.627451 0.062745 0.235294
0.835294 0.149020 0.286275
0.960784 0.278431 0.352941
1.000000 0.372549 0.423529
0.996078 0.450980 0.501961
0.007843 0.188235 0.149020
0.039216 0.200000 0.176471
0.180392 0.227451 0.188235
0.466667 0.258824 0.235294
0.729412 0.286275 0.270588
0.878431 0.349020 0.337255
0.976471 0.407843 0.403922
1.000000 0.462745 0.454902
0.992157 0.525490 0.517647
0.000000 0.341176 0.164706
0.003922 0.345098 0.176471
0.152941 0.352941 0.192157
0.525490 0.482353 0.235294
0.784314 0.521569 0.345098
0.917647 0.537255 0.423529
0.992157 0.552941 0.474510
1.000000 0.580392 0.509804
1.000000 0.607843 0.568627
0.003922 0.482353 0.196078
0.003922 0.474510 0.184314
0.164706 0.486275 0.196078
0.423529 0.545098 0.231373
0.725490 0.674510 0.313725
0.894118 0.709804 0.435294
1.000000 0.694118 0.537255
1.000000 0.705882 0.592157
0.996078 0.713725 0.635294
0.113725 0.603922 0.203922
0.168627 0.588235 0.203922
0.235294 0.596078 0.207843
0.380392 0.619608 0.243137
0.623529 0.721569 0.325490
0.827451 0.807843 0.415686
0.976471 0.823529 0.552941
0.996078 0.807843 0.627451
0.988235 0.803922 0.694118
0.262745 0.713725 0.247059
0.290196 0.709804 0.254902
0.333333 0.713725 0.258824
0.403922 0.717647 0.274510
0.572549 0.776471 0.345098
0.737255 0.847059 0.443137
0.913725 0.901961 0.537255
1.000000 0.890196 0.666667
1.000000 0.874510 0.725490
0.400000 0.831373 0.341176
0.403922 0.831373 0.333333
0.439216 0.831373 0.345098
0.474510 0.831373 0.364706
0.552941 0.854902 0.407843
0.678431 0.898039 0.470588
0.827451 0.925490 0.564706
0.972549 0.949020 0.658824
1.000000 0.933333 0.737255
0.517647 0.941176 0.505882
0.513725 0.945098 0.501961
0.545098 0.949020 0.521569
0.556863 0.956863 0.529412
0.607843 0.952941 0.545098
0.709804 0.956863 0.607843
0.835294 0.972549 0.658824
0.933333 0.968627 0.721569
1.000000 0.972549 0.768627
0.000000 0.109804 0.294118
0.113725 0.094118 0.313725
0.290196 0.050980 0.321569
0.400000 0.019608 0.298039
0.552941 0.000000 0.325490
0.752941 0.003922 0.349020
0.890196 0.184314 0.400000
0.996078 0.360784 0.482353
1.000000 0.494118 0.564706
0.003922 0.160784 0.298039
0.000000 0.129412 0.305882
0.258824 0.105882 0.321569
0.411765 0.086275 0.313725
0.556863 0.082353 0.321569
0.764706 0.117647 0.356863
0.905882 0.278431 0.427451
0.996078 0.419608 0.494118
0.992157 0.533333 0.568627
0.003922 0.282353 0.282353
0.000000 0.266667 0.301961
0.164706 0.223529 0.337255
0.396078 0.231373 0.325490
0.588235 0.254902 0.349020
0.780392 0.321569 0.388235
0.898039 0.427451 0.474510
1.000000 0.509804 0.541176
0.996078 0.580392 0.596078
0.003922 0.352941 0.266667
0.003922 0.352941 0.266667
0.180392 0.384314 0.298039
0.458824 0.427451 0.376471
0.690196 0.478431 0.439216
0.815686 0.521569 0.498039
0.929412 0.576471 0.545098
1.000000 0.619608 0.596078
1.000000 0.662745 0.643137
0.000000 0.501961 0.250980
0.003922 0.505882 0.274510
0.309804 0.509804 0.333333
0.400000 0.509804 0.349020
0.690196 0.650980 0.458824
0.854902 0.698039 0.560784
0.968627 0.725490 0.635294
1.000000 0.741176 0.678431
1.000000 0.745098 0.701961
0.290196 0.607843 0.337255
0.309804 0.611765 0.345098
0.356863 0.611765 0.345098
0.427451 0.607843 0.356863
0.611765 0.694118 0.431373
0.807843 0.803922 0.541176
0.956863 0.819608 0.654902
1.000000 0.827451 0.721569
1.000000 0.835294 0.760784
0.356863 0.721569 0.364706
0.364706 0.721569 0.356863
0.407843 0.717647 0.360784
0.466667 0.717647 0.372549
0.560784 0.752941 0.423529
0.725490 0.839216 0.525490
0.901961 0.898039 0.639216
0.996078 0.898039 0.737255
0.996078 0.890196 0.776471
0.423529 0.847059 0.411765
0.447059 0.835294 0.419608
0.470588 0.831373 0.427451
0.501961 0.835294 0.427451
0.545098 0.843137 0.450980
0.678431 0.886275 0.533333
0.835294 0.929412 0.631373
0.956863 0.949020 0.717647
0.996078 0.933333 0.800000
0.533333 0.945098 0.545098
0.533333 0.941176 0.552941
0.549020 0.949020 0.549020
0.584314 0.941176 0.568627
0.619608 0.945098 0.592157
0.709804 0.956863 0.631373
0.835294 0.964706 0.694118
0.933333 0.972549 0.764706
0.992157 0.972549 0.815686
0.003922 0.101961 0.454902
0.070588 0.086275 0.466667
0.321569 0.011765 0.478431
0.572549 0.000000 0.498039
0.666667 0.000000 0.466667
0.725490 0.007843 0.439216
0.850980 0.121569 0.478431
0.968627 0.317647 0.529412
1.000000 0.462745 0.592157
0.003922 0.145098 0.450980
0.003922 0.129412 0.454902
0.282353 0.098039 0.482353
0.545098 0.000000 0.498039
0.666667 0.000000 0.466667
0.737255 0.082353 0.458824
0.843137 0.227451 0.474510
0.960784 0.380392 0.545098
1.000000 0.494118 0.596078
0.000000 0.321569 0.447059
0.003922 0.290196 0.447059
0.129412 0.231373 0.470588
0.509804 0.203922 0.498039
0.639216 0.223529 0.474510
0.725490 0.282353 0.462745
0.850980 0.376471 0.513725
0.960784 0.474510 0.576471
0.996078 0.572549 0.627451
0.000000 0.447059 0.427451
0.007843 0.447059 0.439216
0.007843 0.443137 0.450980
0.407843 0.400000 0.482353
0.619608 0.415686 0.474510
0.733333 0.447059 0.513725
0.850980 0.525490 0.556863
0.956863 0.600000 0.627451
1.000000 0.666667 0.678431
0.000000 0.505882 0.388235
0.003922 0.509804 0.392157
0.286275 0.521569 0.423529
0.470588 0.537255 0.474510
0.654902 0.588235 0.549020
0.784314 0.650980 0.607843
0.890196 0.698039 0.670588
0.972549 0.737255 0.705882
1.000000 0.756863 0.749020
0.196078 0.607843 0.376471
0.262745 0.611765 0.384314
0.372549 0.615686 0.415686
0.513725 0.635294 0.474510
0.572549 0.635294 0.482353
0.776471 0.780392 0.623529
0.921569 0.827451 0.733333
0.992157 0.843137 0.792157
1.000000 0.850980 0.811765
0.380392 0.725490 0.427451
0.403922 0.733333 0.431373
0.474510 0.725490 0.478431
0.513725 0.729412 0.474510
0.568627 0.733333 0.486275
0.705882 0.815686 0.588235
0.886275 0.894118 0.709804
0.980392 0.901961 0.796078
0.996078 0.905882 0.843137
0.458824 0.827451 0.490196
0.474510 0.839216 0.490196
0.490196 0.835294 0.498039
0.525490 0.835294 0.505882
0.564706 0.847059 0.517647
0.658824 0.870588 0.576471
0.819608 0.921569 0.682353
0.952941 0.949020 0.776471
0.996078 0.949020 0.847059
0.549020 0.941176 0.588235
0.545098 0.945098 0.607843
0.560784 0.945098 0.603922
0.600000 0.949020 0.619608
0.635294 0.952941 0.635294
0.701961 0.949020 0.662745
0.835294 0.968627 0.733333
0.937255 0.972549 0.803922
0.992157 0.972549 0.847059
0.003922 0.101961 0.603922
0.000000 0.090196 0.592157
0.325490 0.007843 0.619608
0.568627 0.003922 0.627451
0.784314 0.000000 0.639216
0.811765 0.003922 0.600000
0.847059 0.101961 0.556863
0.933333 0.282353 0.580392
1.000000 0.423529 0.627451
0.000000 0.156863 0.607843
0.007843 0.133333 0.596078
0.266667 0.109804 0.600000
0.545098 0.000000 0.619608
0.760784 0.003922 0.635294
0.807843 0.003922 0.588235
0.847059 0.203922 0.552941
0.925490 0.329412 0.584314
0.996078 0.458824 0.639216
0.000000 0.321569 0.588235
0.015686 0.286275 0.592157
0.086275 0.243137 0.588235
0.494118 0.219608 0.603922
0.745098 0.196078 0.643137
0.796078 0.266667 0.600000
0.831373 0.349020 0.572549
0.925490 0.419608 0.607843
1.000000 0.533333 0.666667
0.000000 0.470588 0.556863
0.000000 0.478431 0.560784
0.105882 0.454902 0.580392
0.403922 0.403922 0.607843
0.682353 0.407843 0.619608
0.752941 0.447059 0.611765
0.811765 0.478431 0.600000
0.917647 0.545098 0.639216
1.000000 0.631373 0.701961
0.000000 0.576471 0.560784
0.003922 0.580392 0.537255
0.125490 0.580392 0.560784
0.396078 0.584314 0.592157
0.607843 0.556863 0.635294
0.717647 0.576471 0.623529
0.807843 0.607843 0.627451
0.921569 0.686275 0.694118
1.000000 0.729412 0.760784
0.203922 0.619608 0.509804
0.266667 0.623529 0.501961
0.380392 0.631373 0.529412
0.490196 0.639216 0.549020
0.603922 0.658824 0.592157
0.729412 0.733333 0.678431
0.862745 0.784314 0.756863
0.945098 0.815686 0.788235
1.000000 0.847059 0.827451
0.313725 0.725490 0.466667
0.352941 0.729412 0.478431
0.415686 0.733333 0.505882
0.501961 0.745098 0.545098
0.611765 0.752941 0.596078
0.666667 0.760784 0.619608
0.858824 0.874510 0.768627
0.960784 0.909804 0.847059
0.992157 0.913725 0.886275
0.400000 0.839216 0.509804
0.407843 0.847059 0.509804
0.470588 0.835294 0.549020
0.549020 0.839216 0.592157
0.592157 0.850980 0.607843
0.643137 0.854902 0.619608
0.811765 0.901961 0.737255
0.945098 0.945098 0.835294
0.988235 0.941176 0.886275
0.549020 0.949020 0.650980
0.568627 0.952941 0.658824
0.607843 0.949020 0.678431
0.627451 0.945098 0.674510
0.666667 0.949020 0.701961
0.709804 0.952941 0.705882
0.827451 0.956863 0.772549
0.929412 0.968627 0.835294
0.984314 0.964706 0.890196
0.000000 0.113725 0.741176
0.000000 0.098039 0.741176
0.309804 0.039216 0.737255
0.545098 0.000000 0.741176
0.760784 0.003922 0.764706
0.909804 0.003922 0.772549
0.921569 0.066667 0.709804
0.945098 0.270588 0.670588
1.000000 0.392157 0.690196
0.000000 0.164706 0.729412
0.000000 0.160784 0.725490
0.266667 0.129412 0.741176
0.529412 0.039216 0.745098
0.733333 0.003922 0.752941
0.898039 0.000000 0.768627
0.921569 0.192157 0.721569
0.933333 0.325490 0.662745
0.996078 0.427451 0.690196
0.000000 0.313725 0.729412
0.000000 0.278431 0.717647
0.058824 0.266667 0.721569
0.482353 0.243137 0.749020
0.725490 0.235294 0.752941
0.878431 0.258824 0.764706
0.898039 0.345098 0.721569
0.929412 0.411765 0.678431
1.000000 0.498039 0.705882
0.000000 0.498039 0.705882
0.000000 0.494118 0.709804
0.003922 0.454902 0.701961
0.400000 0.403922 0.729412
0.662745 0.415686 0.741176
0.839216 0.435294 0.760784
0.874510 0.474510 0.721569
0.909804 0.521569 0.701961
0.992157 0.584314 0.729412
0.003922 0.631373 0.662745
0.007843 0.627451 0.678431
0.003922 0.607843 0.670588
0.403922 0.584314 0.713725
0.584314 0.537255 0.733333
0.764706 0.560784 0.749020
0.839216 0.600000 0.729412
0.898039 0.631373 0.721569
0.988235 0.686275 0.756863
0.000000 0.705882 0.662745
0.011765 0.705882 0.674510
0.149020 0.705882 0.682353
0.364706 0.701961 0.682353
0.521569 0.694118 0.698039
0.698039 0.682353 0.749020
0.815686 0.713725 0.749020
0.890196 0.737255 0.756863
0.960784 0.796078 0.803922
0.278431 0.733333 0.611765
0.305882 0.733333 0.611765
0.388235 0.737255 0.627451
0.490196 0.741176 0.635294
0.580392 0.756863 0.666667
0.686275 0.780392 0.725490
0.831373 0.835294 0.811765
0.925490 0.882353 0.858824
0.980392 0.905882 0.882353
0.345098 0.835294 0.568627
0.368627 0.835294 0.584314
0.423529 0.839216 0.580392
0.494118 0.839216 0.611765
0.580392 0.854902 0.658824
0.686275 0.858824 0.713725
0.760784 0.862745 0.749020
0.956863 0.941176 0.894118
0.968627 0.949020 0.933333
0.490196 0.949020 0.670588
0.509804 0.952941 0.670588
0.525490 0.956863 0.678431
0.592157 0.952941 0.705882
0.670588 0.956863 0.741176
0.745098 0.945098 0.776471
0.807843 0.956863 0.803922
0.929412 0.968627 0.874510
0.976471 0.968627 0.921569
0.000000 0.168627 0.862745
0.000000 0.152941 0.870588
0.301961 0.125490 0.866667
0.537255 0.062745 0.858824
0.721569 0.003922 0.882353
0.866667 0.015686 0.882353
1.000000 0.117647 0.882353
1.000000 0.282353 0.815686
1.000000 0.388235 0.776471
0.007843 0.207843 0.854902
0.003922 0.219608 0.866667
0.258824 0.196078 0.854902
0.517647 0.172549 0.858824
0.701961 0.145098 0.874510
0.858824 0.176471 0.870588
1.000000 0.219608 0.878431
1.000000 0.333333 0.819608
1.000000 0.427451 0.772549
0.003922 0.325490 0.854902
0.003922 0.313725 0.850980
0.149020 0.309804 0.862745
0.490196 0.298039 0.850980
0.682353 0.298039 0.874510
0.847059 0.329412 0.866667
1.000000 0.352941 0.866667
0.996078 0.423529 0.819608
1.000000 0.486275 0.780392
0.000000 0.513725 0.827451
0.000000 0.498039 0.839216
0.031373 0.462745 0.843137
0.423529 0.435294 0.854902
0.639216 0.435294 0.858824
0.800000 0.450980 0.866667
0.976471 0.486275 0.862745
0.996078 0.521569 0.831373
1.000000 0.572549 0.796078
0.007843 0.650980 0.827451
0.003922 0.650980 0.807843
0.207843 0.643137 0.823529
0.403922 0.596078 0.827451
0.568627 0.552941 0.850980
0.749020 0.568627 0.862745
0.925490 0.600000 0.874510
0.956863 0.627451 0.831373
0.984314 0.662745 0.811765
0.000000 0.760784 0.800000
0.003922 0.764706 0.800000
0.000000 0.752941 0.803922
0.286275 0.745098 0.811765
0.513725 0.713725 0.827451
0.662745 0.682353 0.847059
0.854902 0.705882 0.866667
0.941176 0.729412 0.839216
0.964706 0.756863 0.835294
0.007843 0.843137 0.803922
0.000000 0.835294 0.796078
0.027451 0.831373 0.796078
0.313725 0.827451 0.803922
0.462745 0.823529 0.803922
0.603922 0.815686 0.823529
0.784314 0.796078 0.854902
0.898039 0.823529 0.847059
0.964706 0.843137 0.874510
0.301961 0.854902 0.717647
0.321569 0.870588 0.733333
0.364706 0.862745 0.725490
0.458824 0.862745 0.749020
0.545098 0.858824 0.752941
0.662745 0.862745 0.796078
0.784314 0.878431 0.815686
0.917647 0.921569 0.901961
0.976471 0.945098 0.937255
0.450980 0.952941 0.713725
0.470588 0.964706 0.717647
0.505882 0.956863 0.725490
0.564706 0.956863 0.745098
0.635294 0.952941 0.776471
0.737255 0.960784 0.823529
0.839216 0.952941 0.866667
0.909804 0.956863 0.901961
0.972549 0.976471 0.956863
0.000000 0.290196 0.960784
0.141176 0.286275 0.968627
0.360784 0.282353 0.960784
0.541176 0.274510 0.960784
0.690196 0.282353 0.960784
0.827451 0.305882 0.960784
0.972549 0.333333 0.964706
1.000000 0.368627 0.949020
0.996078 0.454902 0.901961
0.000000 0.337255 0.949020
0.117647 0.329412 0.956863
0.356863 0.325490 0.964706
0.541176 0.325490 0.964706
0.686275 0.333333 0.960784
0.819608 0.352941 0.964706
0.976471 0.372549 0.968627
1.000000 0.403922 0.949020
1.000000 0.478431 0.905882
0.007843 0.411765 0.956863
0.023529 0.411765 0.956863
0.341176 0.411765 0.976471
0.529412 0.403922 0.964706
0.670588 0.419608 0.960784
0.800000 0.435294 0.964706
0.956863 0.443137 0.960784
0.992157 0.478431 0.949020
1.000000 0.537255 0.898039
0.149020 0.552941 0.952941
0.211765 0.545098 0.949020
0.301961 0.509804 0.949020
0.482353 0.501961 0.960784
0.635294 0.517647 0.964706
0.772549 0.525490 0.952941
0.933333 0.537255 0.952941
1.000000 0.560784 0.952941
0.996078 0.611765 0.913725
0.258824 0.694118 0.945098
0.305882 0.690196 0.929412
0.372549 0.662745 0.933333
0.447059 0.631373 0.945098
0.580392 0.603922 0.949020
0.737255 0.623529 0.952941
0.898039 0.635294 0.945098
1.000000 0.650980 0.960784
0.996078 0.686275 0.909804
0.007843 0.800000 0.909804
0.101961 0.800000 0.933333
0.266667 0.800000 0.933333
0.415686 0.772549 0.937255
0.549020 0.745098 0.945098
0.662745 0.709804 0.945098
0.843137 0.721569 0.945098
0.992157 0.745098 0.952941
1.000000 0.772549 0.921569
0.000000 0.894118 0.921569
0.003922 0.886275 0.925490
0.196078 0.882353 0.925490
0.341176 0.882353 0.925490
0.454902 0.870588 0.921569
0.627451 0.839216 0.941176
0.772549 0.807843 0.937255
0.945098 0.831373 0.949020
1.000000 0.854902 0.929412
0.133333 0.968627 0.921569
0.180392 0.968627 0.929412
0.262745 0.956863 0.917647
0.380392 0.956863 0.925490
0.494118 0.952941 0.921569
0.619608 0.933333 0.929412
0.741176 0.929412 0.937255
0.890196 0.905882 0.952941
0.968627 0.925490 0.949020
0.501961 0.988235 0.878431
0.498039 0.988235 0.870588
0.541176 0.980392 0.882353
0.596078 0.980392 0.890196
0.662745 0.984314 0.898039
0.752941 0.976471 0.909804
0.850980 0.976471 0.933333
0.933333 0.968627 0.949020
0.956863 0.976471 0.960784
