qml/filters/cineVibrant.cube
#Generated with IWLTBAP LUT Generator
#Website: http://luts.iwltbap.com
TITLE "FGCineVibrant"
#LUT size
LUT_3D_SIZE 25
#LUT data points
0.062745 0.047059 0.050980
0.070588 0.050980 0.039216
0.090196 0.050980 0.047059
0.113725 0.050980 0.050980
0.152941 0.062745 0.043137
0.192157 0.070588 0.050980
0.227451 0.070588 0.035294
0.266667 0.086275 0.023529
0.305882 0.090196 0.011765
0.345098 0.101961 0.019608
0.384314 0.109804 0.007843
0.419608 0.117647 0.000000
0.450980 0.125490 0.007843
0.482353 0.137255 0.000000
0.517647 0.156863 0.003922
0.545098 0.164706 0.000000
0.576471 0.172549 0.003922
0.607843 0.184314 0.000000
0.658824 0.200000 0.000000
0.709804 0.211765 0.003922
0.756863 0.231373 0.000000
0.815686 0.254902 0.000000
0.890196 0.282353 0.000000
0.952941 0.298039 0.000000
0.996078 0.321569 0.000000
0.058824 0.054902 0.047059
0.074510 0.062745 0.043137
0.098039 0.070588 0.039216
0.117647 0.078431 0.039216
0.164706 0.074510 0.050980
0.180392 0.086275 0.039216
0.231373 0.090196 0.035294
0.274510 0.094118 0.031373
0.305882 0.109804 0.019608
0.341176 0.117647 0.019608
0.380392 0.125490 0.007843
0.419608 0.133333 0.007843
0.450980 0.145098 0.000000
0.482353 0.156863 0.000000
0.513725 0.164706 0.007843
0.537255 0.176471 0.000000
0.576471 0.180392 0.000000
0.615686 0.192157 0.007843
0.662745 0.211765 0.000000
0.713725 0.227451 0.000000
0.768627 0.243137 0.011765
0.823529 0.254902 0.000000
0.890196 0.282353 0.000000
0.964706 0.305882 0.000000
0.984314 0.329412 0.000000
0.078431 0.074510 0.058824
0.086275 0.074510 0.047059
0.094118 0.094118 0.047059
0.125490 0.086275 0.039216
0.160784 0.098039 0.039216
0.200000 0.101961 0.023529
0.235294 0.105882 0.031373
0.274510 0.117647 0.019608
0.313725 0.129412 0.027451
0.349020 0.133333 0.011765
0.388235 0.141176 0.003922
0.419608 0.145098 0.003922
0.450980 0.160784 0.000000
0.482353 0.164706 0.000000
0.513725 0.172549 0.003922
0.545098 0.184314 0.007843
0.572549 0.188235 0.000000
0.615686 0.200000 0.003922
0.666667 0.215686 0.000000
0.709804 0.231373 0.000000
0.768627 0.243137 0.003922
0.835294 0.270588 0.000000
0.894118 0.286275 0.000000
0.956863 0.313725 0.000000
0.988235 0.333333 0.000000
0.094118 0.098039 0.066667
0.090196 0.105882 0.050980
0.121569 0.109804 0.050980
0.149020 0.117647 0.027451
0.168627 0.121569 0.027451
0.207843 0.129412 0.031373
0.243137 0.137255 0.023529
0.278431 0.145098 0.007843
0.317647 0.145098 0.007843
0.360784 0.156863 0.003922
0.392157 0.160784 0.003922
0.423529 0.168627 0.003922
0.462745 0.180392 0.000000
0.486275 0.180392 0.000000
0.517647 0.188235 0.007843
0.541176 0.200000 0.000000
0.584314 0.211765 0.000000
0.619608 0.219608 0.000000
0.666667 0.235294 0.011765
0.713725 0.247059 0.000000
0.768627 0.262745 0.000000
0.827451 0.286275 0.000000
0.901961 0.309804 0.000000
0.964706 0.321569 0.003922
1.000000 0.345098 0.000000
0.105882 0.137255 0.086275
0.109804 0.137255 0.066667
0.125490 0.137255 0.062745
0.141176 0.152941 0.047059
0.184314 0.164706 0.015686
0.211765 0.160784 0.027451
0.247059 0.160784 0.015686
0.282353 0.168627 0.011765
0.325490 0.180392 0.003922
0.356863 0.184314 0.000000
0.388235 0.184314 0.000000
0.423529 0.200000 0.000000
0.450980 0.203922 0.000000
0.486275 0.207843 0.003922
0.521569 0.211765 0.000000
0.549020 0.215686 0.003922
0.584314 0.223529 0.007843
0.627451 0.235294 0.000000
0.674510 0.250980 0.000000
0.725490 0.266667 0.000000
0.776471 0.286275 0.003922
0.831373 0.305882 0.000000
0.898039 0.317647 0.000000
0.968627 0.341176 0.003922
1.000000 0.364706 0.007843
0.133333 0.168627 0.086275
0.137255 0.176471 0.082353
0.149020 0.180392 0.082353
0.168627 0.188235 0.062745
0.192157 0.196078 0.031373
0.231373 0.207843 0.019608
0.254902 0.200000 0.007843
0.290196 0.203922 0.007843
0.329412 0.207843 0.000000
0.364706 0.207843 0.007843
0.403922 0.219608 0.000000
0.431373 0.227451 0.000000
0.466667 0.231373 0.000000
0.494118 0.235294 0.000000
0.529412 0.239216 0.007843
0.556863 0.243137 0.011765
0.592157 0.247059 0.000000
0.627451 0.262745 0.000000
0.674510 0.270588 0.000000
0.725490 0.286275 0.000000
0.788235 0.305882 0.000000
0.843137 0.317647 0.000000
0.909804 0.341176 0.000000
0.964706 0.368627 0.000000
1.000000 0.388235 0.000000
0.164706 0.223529 0.109804
0.164706 0.215686 0.109804
0.180392 0.219608 0.113725
0.200000 0.219608 0.101961
0.203922 0.231373 0.066667
0.243137 0.243137 0.039216
0.282353 0.243137 0.000000
0.298039 0.235294 0.000000
0.337255 0.243137 0.007843
0.360784 0.243137 0.000000
0.396078 0.247059 0.000000
0.439216 0.250980 0.000000
0.466667 0.258824 0.000000
0.498039 0.266667 0.000000
0.529412 0.266667 0.000000
0.556863 0.262745 0.000000
0.596078 0.270588 0.000000
0.639216 0.290196 0.000000
0.686275 0.305882 0.000000
0.733333 0.313725 0.000000
0.792157 0.333333 0.000000
0.858824 0.352941 0.003922
0.921569 0.372549 0.007843
0.988235 0.384314 0.007843
1.000000 0.411765 0.000000
0.200000 0.250980 0.133333
0.192157 0.266667 0.141176
0.223529 0.247059 0.137255
0.235294 0.262745 0.129412
0.239216 0.270588 0.117647
0.247059 0.278431 0.078431
0.282353 0.282353 0.031373
0.317647 0.294118 0.003922
0.337255 0.282353 0.000000
0.372549 0.278431 0.003922
0.403922 0.274510 0.000000
0.439216 0.282353 0.007843
0.466667 0.286275 0.000000
0.494118 0.290196 0.003922
0.537255 0.294118 0.000000
0.564706 0.301961 0.000000
0.603922 0.305882 0.007843
0.643137 0.321569 0.000000
0.690196 0.329412 0.000000
0.745098 0.349020 0.003922
0.800000 0.368627 0.000000
0.858824 0.384314 0.000000
0.921569 0.400000 0.003922
0.984314 0.419608 0.000000
0.996078 0.443137 0.000000
0.243137 0.298039 0.160784
0.247059 0.301961 0.172549
0.243137 0.301961 0.172549
0.254902 0.298039 0.172549
0.258824 0.321569 0.145098
0.278431 0.313725 0.129412
0.305882 0.325490 0.105882
0.329412 0.329412 0.047059
0.352941 0.329412 0.000000
0.384314 0.317647 0.003922
0.407843 0.305882 0.003922
0.435294 0.313725 0.000000
0.466667 0.317647 0.000000
0.498039 0.317647 0.000000
0.537255 0.321569 0.000000
0.568627 0.333333 0.003922
0.607843 0.345098 0.000000
0.650980 0.349020 0.000000
0.701961 0.364706 0.000000
0.752941 0.380392 0.000000
0.807843 0.396078 0.000000
0.874510 0.415686 0.003922
0.941176 0.435294 0.000000
0.992157 0.450980 0.000000
1.000000 0.466667 0.000000
0.270588 0.333333 0.188235
0.274510 0.345098 0.196078
0.286275 0.341176 0.203922
0.298039 0.337255 0.203922
0.298039 0.345098 0.196078
0.309804 0.356863 0.176471
0.317647 0.356863 0.149020
0.337255 0.364706 0.101961
0.372549 0.368627 0.054902
0.403922 0.368627 0.000000
0.423529 0.345098 0.000000
0.443137 0.341176 0.007843
0.478431 0.345098 0.000000
0.505882 0.341176 0.003922
0.533333 0.352941 0.000000
0.572549 0.364706 0.000000
0.603922 0.368627 0.000000
0.650980 0.384314 0.003922
0.713725 0.403922 0.007843
0.772549 0.415686 0.000000
0.823529 0.427451 0.003922
0.886275 0.450980 0.007843
0.956863 0.470588 0.000000
0.996078 0.490196 0.000000
0.996078 0.501961 0.000000
0.301961 0.380392 0.235294
0.313725 0.380392 0.239216
0.317647 0.376471 0.247059
0.325490 0.380392 0.243137
0.333333 0.380392 0.231373
0.337255 0.388235 0.215686
0.341176 0.392157 0.184314
0.360784 0.403922 0.168627
0.376471 0.407843 0.121569
0.403922 0.403922 0.050980
0.439216 0.411765 0.003922
0.447059 0.384314 0.007843
0.474510 0.372549 0.000000
0.505882 0.376471 0.003922
0.533333 0.376471 0.000000
0.580392 0.392157 0.007843
0.623529 0.400000 0.000000
0.666667 0.415686 0.000000
0.721569 0.431373 0.011765
0.772549 0.454902 0.000000
0.831373 0.470588 0.003922
0.901961 0.490196 0.000000
0.960784 0.501961 0.007843
1.000000 0.521569 0.000000
0.992157 0.545098 0.000000
0.349020 0.411765 0.270588
0.341176 0.419608 0.270588
0.352941 0.407843 0.266667
0.356863 0.419608 0.274510
0.356863 0.419608 0.278431
0.360784 0.427451 0.262745
0.368627 0.435294 0.231373
0.376471 0.435294 0.219608
0.396078 0.439216 0.180392
0.415686 0.443137 0.137255
0.447059 0.450980 0.082353
0.470588 0.450980 0.000000
0.486275 0.423529 0.000000
0.517647 0.407843 0.011765
0.549020 0.411765 0.011765
0.588235 0.423529 0.000000
0.623529 0.439216 0.000000
0.670588 0.447059 0.003922
0.725490 0.466667 0.000000
0.792157 0.486275 0.007843
0.850980 0.509804 0.000000
0.913725 0.529412 0.007843
0.964706 0.552941 0.000000
0.992157 0.556863 0.000000
0.992157 0.576471 0.000000
0.372549 0.462745 0.298039
0.376471 0.454902 0.305882
0.376471 0.458824 0.298039
0.392157 0.462745 0.305882
0.396078 0.458824 0.305882
0.396078 0.470588 0.290196
0.396078 0.470588 0.282353
0.407843 0.478431 0.250980
0.423529 0.482353 0.227451
0.431373 0.478431 0.180392
0.470588 0.494118 0.156863
0.494118 0.490196 0.066667
0.521569 0.490196 0.000000
0.533333 0.470588 0.003922
0.549020 0.450980 0.000000
0.584314 0.458824 0.000000
0.631373 0.466667 0.000000
0.686275 0.482353 0.003922
0.737255 0.498039 0.000000
0.792157 0.517647 0.000000
0.854902 0.545098 0.007843
0.921569 0.564706 0.003922
0.972549 0.584314 0.000000
1.000000 0.596078 0.003922
1.000000 0.615686 0.000000
0.400000 0.505882 0.329412
0.407843 0.517647 0.325490
0.400000 0.501961 0.313725
0.427451 0.513725 0.333333
0.423529 0.505882 0.345098
0.427451 0.513725 0.329412
0.439216 0.517647 0.309804
0.443137 0.525490 0.301961
0.450980 0.533333 0.270588
0.474510 0.537255 0.243137
0.494118 0.541176 0.211765
0.517647 0.541176 0.149020
0.549020 0.549020 0.078431
0.580392 0.545098 0.007843
0.584314 0.517647 0.000000
0.596078 0.498039 0.003922
0.643137 0.505882 0.011765
0.701961 0.517647 0.000000
0.749020 0.541176 0.000000
0.807843 0.564706 0.003922
0.870588 0.580392 0.000000
0.933333 0.600000 0.000000
0.984314 0.619608 0.003922
1.000000 0.635294 0.007843
1.000000 0.647059 0.000000
0.435294 0.568627 0.360784
0.439216 0.576471 0.356863
0.439216 0.576471 0.356863
0.450980 0.572549 0.349020
0.454902 0.572549 0.368627
0.466667 0.572549 0.356863
0.474510 0.576471 0.329412
0.486275 0.580392 0.337255
0.486275 0.588235 0.301961
0.505882 0.596078 0.290196
0.529412 0.603922 0.254902
0.549020 0.611765 0.223529
0.580392 0.607843 0.164706
0.615686 0.611765 0.062745
0.643137 0.600000 0.000000
0.658824 0.572549 0.000000
0.674510 0.552941 0.000000
0.705882 0.556863 0.000000
0.760784 0.584314 0.000000
0.819608 0.603922 0.007843
0.882353 0.627451 0.000000
0.941176 0.635294 0.007843
0.984314 0.654902 0.000000
1.000000 0.670588 0.003922
0.996078 0.686275 0.000000
0.466667 0.643137 0.380392
0.478431 0.643137 0.384314
0.482353 0.639216 0.392157
0.490196 0.639216 0.400000
0.501961 0.643137 0.400000
0.505882 0.647059 0.396078
0.509804 0.647059 0.388235
0.529412 0.650980 0.376471
0.533333 0.662745 0.352941
0.549020 0.662745 0.309804
0.572549 0.666667 0.298039
0.596078 0.670588 0.247059
0.627451 0.670588 0.200000
0.662745 0.678431 0.145098
0.682353 0.678431 0.011765
0.713725 0.674510 0.000000
0.725490 0.643137 0.000000
0.737255 0.619608 0.007843
0.776471 0.619608 0.000000
0.835294 0.643137 0.000000
0.898039 0.658824 0.000000
0.952941 0.678431 0.007843
0.992157 0.698039 0.003922
1.000000 0.705882 0.015686
1.000000 0.717647 0.000000
0.513725 0.717647 0.435294
0.517647 0.713725 0.427451
0.525490 0.713725 0.423529
0.533333 0.709804 0.439216
0.545098 0.709804 0.458824
0.552941 0.713725 0.439216
0.568627 0.713725 0.450980
0.572549 0.725490 0.411765
0.584314 0.721569 0.392157
0.592157 0.729412 0.360784
0.607843 0.733333 0.337255
0.635294 0.741176 0.298039
0.662745 0.741176 0.258824
0.694118 0.752941 0.196078
0.717647 0.756863 0.137255
0.752941 0.741176 0.000000
0.788235 0.749020 0.000000
0.796078 0.717647 0.003922
0.803922 0.686275 0.000000
0.843137 0.682353 0.000000
0.901961 0.701961 0.007843
0.964706 0.725490 0.000000
1.000000 0.729412 0.000000
1.000000 0.749020 0.011765
1.000000 0.749020 0.003922
0.568627 0.780392 0.486275
0.568627 0.780392 0.482353
0.580392 0.776471 0.486275
0.580392 0.784314 0.501961
0.600000 0.780392 0.498039
0.603922 0.780392 0.517647
0.615686 0.784314 0.513725
0.627451 0.784314 0.498039
0.635294 0.788235 0.462745
0.647059 0.800000 0.435294
0.654902 0.792157 0.400000
0.678431 0.803922 0.368627
0.705882 0.807843 0.309804
0.721569 0.803922 0.258824
0.756863 0.811765 0.196078
0.784314 0.811765 0.125490
0.819608 0.815686 0.007843
0.858824 0.811765 0.003922
0.882353 0.776471 0.011765
0.882353 0.749020 0.000000
0.921569 0.745098 0.000000
0.972549 0.760784 0.000000
1.000000 0.772549 0.007843
1.000000 0.776471 0.000000
0.996078 0.788235 0.003922
0.635294 0.843137 0.560784
0.639216 0.850980 0.556863
0.615686 0.854902 0.541176
0.639216 0.850980 0.556863
0.650980 0.847059 0.568627
0.666667 0.843137 0.580392
0.678431 0.843137 0.592157
0.682353 0.843137 0.576471
0.690196 0.850980 0.545098
0.701961 0.858824 0.521569
0.705882 0.862745 0.482353
0.717647 0.866667 0.431373
0.733333 0.866667 0.388235
0.756863 0.866667 0.333333
0.792157 0.870588 0.278431
0.823529 0.870588 0.196078
0.854902 0.866667 0.101961
0.890196 0.866667 0.011765
0.925490 0.866667 0.000000
0.945098 0.839216 0.003922
0.956863 0.807843 0.003922
0.984314 0.800000 0.000000
1.000000 0.815686 0.000000
0.996078 0.815686 0.000000
0.992157 0.815686 0.003922
0.694118 0.901961 0.635294
0.690196 0.898039 0.631373
0.686275 0.890196 0.631373
0.694118 0.898039 0.639216
0.713725 0.894118 0.650980
0.721569 0.894118 0.654902
0.729412 0.894118 0.647059
0.737255 0.901961 0.654902
0.745098 0.905882 0.647059
0.745098 0.905882 0.600000
0.752941 0.909804 0.572549
0.752941 0.909804 0.529412
0.768627 0.917647 0.490196
0.792157 0.913725 0.439216
0.811765 0.913725 0.380392
0.835294 0.917647 0.309804
0.878431 0.917647 0.227451
0.905882 0.917647 0.113725
0.945098 0.921569 0.011765
0.984314 0.913725 0.000000
1.000000 0.894118 0.000000
1.000000 0.870588 0.000000
1.000000 0.850980 0.000000
1.000000 0.850980 0.007843
0.996078 0.854902 0.000000
0.745098 0.941176 0.701961
0.749020 0.937255 0.701961
0.745098 0.933333 0.698039
0.752941 0.929412 0.705882
0.764706 0.933333 0.713725
0.768627 0.937255 0.729412
0.780392 0.929412 0.737255
0.800000 0.933333 0.733333
0.792157 0.937255 0.725490
0.796078 0.937255 0.694118
0.800000 0.941176 0.666667
0.800000 0.945098 0.635294
0.807843 0.949020 0.603922
0.815686 0.956863 0.541176
0.831373 0.949020 0.494118
0.854902 0.956863 0.427451
0.878431 0.960784 0.352941
0.909804 0.960784 0.274510
0.956863 0.956863 0.141176
0.992157 0.956863 0.011765
1.000000 0.945098 0.000000
1.000000 0.933333 0.000000
1.000000 0.905882 0.000000
1.000000 0.890196 0.003922
1.000000 0.886275 0.000000
0.788235 0.960784 0.768627
0.792157 0.964706 0.764706
0.807843 0.960784 0.776471
0.796078 0.968627 0.760784
0.819608 0.960784 0.780392
0.815686 0.964706 0.780392
0.819608 0.964706 0.792157
0.835294 0.964706 0.796078
0.847059 0.960784 0.788235
0.843137 0.968627 0.784314
0.835294 0.964706 0.749020
0.835294 0.968627 0.729412
0.843137 0.972549 0.686275
0.850980 0.976471 0.643137
0.858824 0.972549 0.607843
0.878431 0.980392 0.549020
0.894118 0.980392 0.482353
0.909804 0.976471 0.419608
0.949020 0.984314 0.321569
0.988235 0.972549 0.200000
0.996078 0.984314 0.000000
0.996078 0.976471 0.000000
1.000000 0.972549 0.007843
1.000000 0.933333 0.000000
0.992157 0.921569 0.003922
0.839216 0.984314 0.815686
0.847059 0.984314 0.827451
0.835294 0.976471 0.827451
0.843137 0.984314 0.827451
0.858824 0.984314 0.831373
0.854902 0.980392 0.827451
0.858824 0.984314 0.839216
0.870588 0.976471 0.847059
0.878431 0.980392 0.843137
0.870588 0.976471 0.839216
0.874510 0.988235 0.815686
0.870588 0.988235 0.784314
0.878431 0.992157 0.780392
0.886275 0.988235 0.749020
0.886275 0.988235 0.709804
0.898039 0.988235 0.666667
0.905882 0.992157 0.596078
0.917647 0.992157 0.541176
0.941176 0.996078 0.458824
0.964706 1.000000 0.372549
0.996078 0.996078 0.266667
1.000000 0.992157 0.070588
1.000000 0.992157 0.000000
0.996078 0.984314 0.000000
0.984314 0.960784 0.000000
0.862745 0.992157 0.878431
0.870588 0.992157 0.858824
0.882353 0.996078 0.878431
0.886275 0.988235 0.874510
0.890196 0.988235 0.866667
0.886275 0.992157 0.862745
0.898039 0.988235 0.878431
0.901961 0.992157 0.882353
0.909804 0.988235 0.874510
0.909804 0.988235 0.874510
0.901961 0.996078 0.870588
0.901961 0.996078 0.854902
0.913725 0.992157 0.847059
0.901961 0.992157 0.811765
0.913725 0.992157 0.784314
0.913725 1.000000 0.756863
0.913725 1.000000 0.709804
0.921569 1.000000 0.647059
0.929412 1.000000 0.592157
0.956863 1.000000 0.517647
0.988235 1.000000 0.431373
1.000000 1.000000 0.317647
1.000000 1.000000 0.145098
0.996078 0.996078 0.000000
0.996078 0.996078 0.000000
0.901961 1.000000 0.890196
0.909804 1.000000 0.909804
0.909804 1.000000 0.890196
0.917647 0.996078 0.890196
0.905882 1.000000 0.898039
0.913725 1.000000 0.901961
0.921569 0.992157 0.905882
0.925490 0.996078 0.909804
0.933333 0.992157 0.909804
0.937255 0.996078 0.905882
0.937255 0.996078 0.913725
0.933333 0.996078 0.886275
0.925490 1.000000 0.874510
0.929412 0.996078 0.854902
0.925490 0.992157 0.850980
0.929412 1.000000 0.827451
0.925490 1.000000 0.784314
0.937255 1.000000 0.756863
0.937255 1.000000 0.705882
0.949020 1.000000 0.654902
0.968627 0.996078 0.580392
0.984314 1.000000 0.498039
1.000000 1.000000 0.364706
0.996078 0.988235 0.219608
0.996078 1.000000 0.003922
0.062745 0.054902 0.066667
0.074510 0.058824 0.062745
0.086275 0.054902 0.054902
0.109804 0.047059 0.050980
0.149020 0.054902 0.047059
0.184314 0.062745 0.050980
0.227451 0.066667 0.050980
0.266667 0.074510 0.047059
0.309804 0.090196 0.031373
0.345098 0.098039 0.031373
0.388235 0.109804 0.047059
0.419608 0.125490 0.019608
0.454902 0.125490 0.023529
0.474510 0.137255 0.000000
0.513725 0.156863 0.000000
0.541176 0.156863 0.003922
0.580392 0.172549 0.000000
0.607843 0.184314 0.000000
0.654902 0.196078 0.000000
0.713725 0.215686 0.007843
0.768627 0.235294 0.000000
0.815686 0.250980 0.007843
0.882353 0.274510 0.000000
0.956863 0.301961 0.003922
0.988235 0.313725 0.000000
0.066667 0.070588 0.047059
0.078431 0.062745 0.058824
0.086275 0.066667 0.050980
0.113725 0.070588 0.054902
0.152941 0.074510 0.047059
0.188235 0.074510 0.043137
0.231373 0.086275 0.047059
0.274510 0.094118 0.043137
0.305882 0.101961 0.019608
0.349020 0.109804 0.027451
0.380392 0.121569 0.019608
0.423529 0.125490 0.031373
0.454902 0.137255 0.019608
0.486275 0.149020 0.011765
0.521569 0.160784 0.007843
0.541176 0.168627 0.003922
0.580392 0.180392 0.000000
0.623529 0.188235 0.007843
0.658824 0.207843 0.000000
0.709804 0.223529 0.000000
0.764706 0.239216 0.000000
0.831373 0.262745 0.000000
0.890196 0.282353 0.000000
0.949020 0.305882 0.000000
1.000000 0.325490 0.011765
0.062745 0.082353 0.054902
0.078431 0.082353 0.058824
0.109804 0.094118 0.058824
0.125490 0.094118 0.054902
0.160784 0.090196 0.050980
0.207843 0.105882 0.047059
0.243137 0.101961 0.039216
0.282353 0.113725 0.050980
0.317647 0.117647 0.035294
0.349020 0.133333 0.023529
0.384314 0.137255 0.015686
0.423529 0.149020 0.015686
0.450980 0.156863 0.011765
0.486275 0.164706 0.007843
0.505882 0.176471 0.000000
0.541176 0.176471 0.007843
0.576471 0.192157 0.000000
0.615686 0.203922 0.000000
0.662745 0.211765 0.000000
0.705882 0.227451 0.003922
0.768627 0.254902 0.003922
0.831373 0.270588 0.003922
0.894118 0.294118 0.000000
0.960784 0.305882 0.000000
1.000000 0.329412 0.000000
0.090196 0.113725 0.058824
0.105882 0.105882 0.074510
0.105882 0.113725 0.062745
0.145098 0.121569 0.058824
0.172549 0.125490 0.039216
0.207843 0.125490 0.043137
0.235294 0.133333 0.035294
0.274510 0.141176 0.031373
0.309804 0.149020 0.031373
0.352941 0.156863 0.027451
0.384314 0.168627 0.019608
0.419608 0.168627 0.019608
0.454902 0.176471 0.003922
0.486275 0.176471 0.007843
0.517647 0.192157 0.000000
0.549020 0.196078 0.000000
0.576471 0.200000 0.003922
0.615686 0.211765 0.003922
0.662745 0.231373 0.007843
0.721569 0.247059 0.007843
0.768627 0.254902 0.000000
0.827451 0.286275 0.003922
0.901961 0.301961 0.000000
0.964706 0.321569 0.003922
1.000000 0.345098 0.000000
0.101961 0.145098 0.078431
0.125490 0.141176 0.082353
0.125490 0.141176 0.082353
0.145098 0.152941 0.062745
0.184314 0.156863 0.047059
0.211765 0.156863 0.043137
0.250980 0.160784 0.027451
0.286275 0.168627 0.035294
0.317647 0.180392 0.015686
0.352941 0.184314 0.015686
0.392157 0.192157 0.023529
0.415686 0.196078 0.007843
0.470588 0.196078 0.000000
0.486275 0.200000 0.000000
0.513725 0.211765 0.000000
0.541176 0.223529 0.003922
0.576471 0.219608 0.003922
0.627451 0.235294 0.003922
0.674510 0.247059 0.000000
0.721569 0.262745 0.000000
0.772549 0.282353 0.000000
0.823529 0.294118 0.000000
0.898039 0.317647 0.000000
0.968627 0.341176 0.003922
0.996078 0.360784 0.000000
0.137255 0.172549 0.090196
0.145098 0.180392 0.105882
0.152941 0.180392 0.109804
0.172549 0.188235 0.094118
0.192157 0.192157 0.058824
0.227451 0.196078 0.043137
0.258824 0.192157 0.023529
0.290196 0.203922 0.019608
0.325490 0.203922 0.019608
0.356863 0.211765 0.007843
0.396078 0.219608 0.003922
0.423529 0.219608 0.000000
0.458824 0.223529 0.000000
0.490196 0.231373 0.003922
0.529412 0.239216 0.007843
0.552941 0.239216 0.000000
0.584314 0.247059 0.007843
0.627451 0.262745 0.000000
0.674510 0.270588 0.007843
0.725490 0.286275 0.000000
0.780392 0.305882 0.000000
0.843137 0.325490 0.000000
0.913725 0.345098 0.000000
0.972549 0.368627 0.000000
1.000000 0.388235 0.007843
0.156863 0.211765 0.105882
0.180392 0.211765 0.129412
0.196078 0.215686 0.129412
0.188235 0.231373 0.113725
0.207843 0.231373 0.098039
0.247059 0.243137 0.062745
0.274510 0.247059 0.031373
0.298039 0.231373 0.019608
0.333333 0.235294 0.007843
0.368627 0.247059 0.000000
0.400000 0.247059 0.000000
0.439216 0.250980 0.000000
0.470588 0.254902 0.003922
0.490196 0.258824 0.000000
0.525490 0.262745 0.000000
0.556863 0.270588 0.000000
0.600000 0.274510 0.000000
0.639216 0.286275 0.007843
0.674510 0.298039 0.000000
0.729412 0.317647 0.000000
0.780392 0.333333 0.000000
0.847059 0.352941 0.000000
0.917647 0.368627 0.000000
0.972549 0.388235 0.000000
0.992157 0.407843 0.000000
0.207843 0.258824 0.141176
0.203922 0.258824 0.152941
0.223529 0.258824 0.152941
0.235294 0.262745 0.141176
0.239216 0.266667 0.133333
0.258824 0.278431 0.117647
0.286275 0.286275 0.074510
0.317647 0.290196 0.015686
0.337255 0.282353 0.003922
0.364706 0.270588 0.000000
0.403922 0.274510 0.000000
0.435294 0.278431 0.003922
0.470588 0.290196 0.000000
0.498039 0.290196 0.015686
0.529412 0.298039 0.000000
0.564706 0.301961 0.000000
0.600000 0.305882 0.000000
0.639216 0.313725 0.000000
0.694118 0.333333 0.007843
0.741176 0.341176 0.007843
0.796078 0.364706 0.000000
0.858824 0.384314 0.003922
0.925490 0.396078 0.000000
0.992157 0.415686 0.003922
1.000000 0.439216 0.007843
0.223529 0.301961 0.156863
0.247059 0.301961 0.164706
0.254902 0.298039 0.172549
0.262745 0.305882 0.180392
0.266667 0.305882 0.160784
0.270588 0.313725 0.149020
0.294118 0.321569 0.121569
0.329412 0.325490 0.062745
0.356863 0.329412 0.015686
0.384314 0.309804 0.000000
0.407843 0.305882 0.003922
0.439216 0.309804 0.000000
0.474510 0.313725 0.003922
0.498039 0.325490 0.000000
0.529412 0.325490 0.000000
0.568627 0.329412 0.011765
0.603922 0.341176 0.000000
0.650980 0.349020 0.000000
0.694118 0.360784 0.000000
0.752941 0.376471 0.003922
0.807843 0.396078 0.000000
0.870588 0.411765 0.000000
0.925490 0.431373 0.000000
0.988235 0.454902 0.000000
1.000000 0.466667 0.000000
0.278431 0.341176 0.196078
0.278431 0.345098 0.211765
0.286275 0.341176 0.211765
0.286275 0.341176 0.211765
0.305882 0.352941 0.203922
0.301961 0.352941 0.180392
0.317647 0.356863 0.160784
0.341176 0.364706 0.129412
0.364706 0.368627 0.070588
0.392157 0.368627 0.000000
0.415686 0.349020 0.000000
0.439216 0.345098 0.000000
0.466667 0.341176 0.007843
0.501961 0.345098 0.000000
0.533333 0.352941 0.000000
0.568627 0.360784 0.000000
0.611765 0.376471 0.000000
0.662745 0.392157 0.000000
0.709804 0.400000 0.003922
0.772549 0.415686 0.007843
0.823529 0.431373 0.000000
0.886275 0.450980 0.007843
0.952941 0.462745 0.000000
0.992157 0.482353 0.011765
1.000000 0.498039 0.000000
0.309804 0.376471 0.235294
0.309804 0.380392 0.231373
0.317647 0.380392 0.239216
0.325490 0.380392 0.243137
0.337255 0.384314 0.235294
0.345098 0.396078 0.227451
0.345098 0.392157 0.203922
0.360784 0.403922 0.176471
