qml/filters/cineDrama.cube
#Generated with IWLTBAP LUT Generator
#Website: http://luts.iwltbap.com
TITLE "FGCineDrama"
#LUT size
LUT_3D_SIZE 25
#LUT data points
0.050980 0.109804 0.090196
0.058824 0.105882 0.098039
0.062745 0.109804 0.101961
0.070588 0.105882 0.101961
0.094118 0.113725 0.098039
0.113725 0.109804 0.090196
0.172549 0.101961 0.086275
0.231373 0.098039 0.090196
0.325490 0.090196 0.082353
0.443137 0.054902 0.082353
0.560784 0.000000 0.070588
0.666667 0.003922 0.062745
0.756863 0.000000 0.050980
0.819608 0.000000 0.050980
0.874510 0.000000 0.035294
0.921569 0.000000 0.043137
0.964706 0.000000 0.050980
0.996078 0.000000 0.074510
0.996078 0.003922 0.094118
0.992157 0.003922 0.125490
1.000000 0.000000 0.160784
0.996078 0.007843 0.176471
0.996078 0.086275 0.219608
0.996078 0.156863 0.258824
0.992157 0.219608 0.290196
0.058824 0.105882 0.090196
0.054902 0.113725 0.086275
0.062745 0.113725 0.086275
0.070588 0.109804 0.105882
0.101961 0.109804 0.090196
0.133333 0.113725 0.098039
0.180392 0.109804 0.094118
0.254902 0.105882 0.094118
0.352941 0.105882 0.078431
0.462745 0.078431 0.066667
0.576471 0.015686 0.054902
0.678431 0.000000 0.047059
0.760784 0.003922 0.047059
0.827451 0.000000 0.043137
0.882353 0.000000 0.035294
0.925490 0.003922 0.039216
0.972549 0.000000 0.050980
0.992157 0.000000 0.058824
0.988235 0.007843 0.086275
1.000000 0.000000 0.133333
0.996078 0.000000 0.172549
0.984314 0.031373 0.180392
0.996078 0.113725 0.215686
0.996078 0.176471 0.258824
1.000000 0.231373 0.294118
0.058824 0.105882 0.098039
0.050980 0.109804 0.098039
0.062745 0.113725 0.086275
0.066667 0.117647 0.090196
0.109804 0.113725 0.094118
0.152941 0.109804 0.086275
0.207843 0.117647 0.094118
0.278431 0.129412 0.086275
0.384314 0.125490 0.078431
0.498039 0.105882 0.066667
0.611765 0.058824 0.054902
0.698039 0.003922 0.047059
0.776471 0.000000 0.039216
0.835294 0.003922 0.023529
0.886275 0.003922 0.027451
0.933333 0.007843 0.027451
0.964706 0.000000 0.050980
0.984314 0.003922 0.074510
1.000000 0.003922 0.098039
1.000000 0.000000 0.133333
0.992157 0.023529 0.168627
1.000000 0.094118 0.203922
1.000000 0.149020 0.223529
0.996078 0.203922 0.266667
0.996078 0.254902 0.301961
0.058824 0.117647 0.098039
0.054902 0.121569 0.090196
0.058824 0.121569 0.082353
0.074510 0.125490 0.090196
0.101961 0.133333 0.082353
0.156863 0.145098 0.086275
0.239216 0.152941 0.094118
0.333333 0.149020 0.078431
0.431373 0.149020 0.062745
0.537255 0.145098 0.054902
0.635294 0.121569 0.050980
0.725490 0.086275 0.035294
0.792157 0.066667 0.019608
0.854902 0.035294 0.015686
0.890196 0.031373 0.023529
0.937255 0.019608 0.035294
0.980392 0.019608 0.050980
0.996078 0.019608 0.074510
0.996078 0.039216 0.101961
0.996078 0.082353 0.137255
1.000000 0.113725 0.160784
0.996078 0.152941 0.192157
1.000000 0.188235 0.235294
0.996078 0.239216 0.274510
0.992157 0.278431 0.305882
0.050980 0.125490 0.101961
0.050980 0.129412 0.094118
0.054902 0.133333 0.090196
0.070588 0.141176 0.094118
0.105882 0.156863 0.090196
0.160784 0.176471 0.082353
0.231373 0.192157 0.062745
0.352941 0.203922 0.058824
0.486275 0.196078 0.050980
0.596078 0.192157 0.031373
0.682353 0.176471 0.011765
0.752941 0.164706 0.000000
0.811765 0.156863 0.000000
0.858824 0.149020 0.000000
0.909804 0.145098 0.003922
0.952941 0.141176 0.031373
0.984314 0.137255 0.054902
0.992157 0.141176 0.090196
0.988235 0.149020 0.125490
1.000000 0.160784 0.137255
0.996078 0.184314 0.184314
0.996078 0.207843 0.211765
1.000000 0.239216 0.250980
0.996078 0.274510 0.282353
1.000000 0.301961 0.317647
0.043137 0.145098 0.094118
0.039216 0.149020 0.090196
0.058824 0.152941 0.090196
0.066667 0.156863 0.078431
0.090196 0.176471 0.078431
0.145098 0.207843 0.066667
0.250980 0.243137 0.050980
0.364706 0.258824 0.043137
0.498039 0.266667 0.015686
0.627451 0.262745 0.000000
0.721569 0.247059 0.007843
0.792157 0.247059 0.000000
0.839216 0.235294 0.000000
0.886275 0.227451 0.003922
0.921569 0.223529 0.000000
0.956863 0.223529 0.031373
0.992157 0.219608 0.062745
1.000000 0.215686 0.094118
1.000000 0.207843 0.121569
0.992157 0.231373 0.164706
1.000000 0.243137 0.203922
0.996078 0.254902 0.231373
1.000000 0.282353 0.266667
0.996078 0.309804 0.298039
1.000000 0.337255 0.341176
0.023529 0.176471 0.101961
0.023529 0.168627 0.098039
0.043137 0.172549 0.090196
0.039216 0.188235 0.090196
0.090196 0.203922 0.086275
0.145098 0.235294 0.070588
0.235294 0.274510 0.039216
0.364706 0.321569 0.000000
0.509804 0.337255 0.000000
0.635294 0.341176 0.015686
0.729412 0.329412 0.000000
0.807843 0.321569 0.007843
0.858824 0.301961 0.011765
0.898039 0.298039 0.003922
0.937255 0.298039 0.000000
0.972549 0.290196 0.054902
0.996078 0.286275 0.086275
1.000000 0.282353 0.117647
1.000000 0.282353 0.156863
1.000000 0.290196 0.184314
1.000000 0.301961 0.215686
0.996078 0.309804 0.250980
1.000000 0.325490 0.290196
0.996078 0.352941 0.317647
0.988235 0.384314 0.345098
0.000000 0.207843 0.098039
0.000000 0.211765 0.090196
0.007843 0.207843 0.078431
0.031373 0.215686 0.082353
0.058824 0.243137 0.078431
0.121569 0.270588 0.070588
0.223529 0.309804 0.019608
0.341176 0.360784 0.000000
0.498039 0.407843 0.003922
0.619608 0.419608 0.000000
0.721569 0.423529 0.000000
0.792157 0.411765 0.000000
0.858824 0.392157 0.000000
0.921569 0.372549 0.000000
0.956863 0.356863 0.011765
0.992157 0.356863 0.074510
1.000000 0.349020 0.105882
1.000000 0.345098 0.133333
1.000000 0.345098 0.188235
1.000000 0.352941 0.227451
0.996078 0.360784 0.231373
0.996078 0.368627 0.274510
1.000000 0.388235 0.301961
1.000000 0.403922 0.345098
0.996078 0.431373 0.360784
0.000000 0.250980 0.078431
0.000000 0.254902 0.078431
0.000000 0.262745 0.082353
0.000000 0.258824 0.078431
0.039216 0.274510 0.074510
0.109804 0.305882 0.058824
0.200000 0.345098 0.031373
0.333333 0.400000 0.000000
0.474510 0.443137 0.007843
0.607843 0.470588 0.007843
0.717647 0.490196 0.000000
0.792157 0.490196 0.000000
0.847059 0.478431 0.000000
0.901961 0.470588 0.003922
0.956863 0.450980 0.023529
1.000000 0.427451 0.094118
1.000000 0.415686 0.156863
1.000000 0.411765 0.176471
1.000000 0.411765 0.211765
0.996078 0.403922 0.258824
1.000000 0.415686 0.290196
1.000000 0.423529 0.321569
0.996078 0.435294 0.341176
1.000000 0.450980 0.368627
0.992157 0.466667 0.384314
0.000000 0.298039 0.062745
0.000000 0.301961 0.058824
0.000000 0.301961 0.058824
0.000000 0.301961 0.066667
0.000000 0.313725 0.058824
0.082353 0.345098 0.035294
0.188235 0.384314 0.003922
0.309804 0.423529 0.000000
0.435294 0.474510 0.000000
0.568627 0.517647 0.007843
0.690196 0.552941 0.000000
0.768627 0.560784 0.003922
0.835294 0.556863 0.000000
0.890196 0.549020 0.003922
0.941176 0.533333 0.019608
0.980392 0.505882 0.117647
1.000000 0.490196 0.184314
1.000000 0.474510 0.215686
0.996078 0.462745 0.266667
1.000000 0.466667 0.282353
1.000000 0.478431 0.317647
0.996078 0.482353 0.341176
0.996078 0.482353 0.372549
1.000000 0.490196 0.400000
1.000000 0.501961 0.427451
0.003922 0.360784 0.050980
0.003922 0.349020 0.043137
0.000000 0.356863 0.043137
0.000000 0.356863 0.054902
0.000000 0.356863 0.047059
0.043137 0.380392 0.023529
0.160784 0.419608 0.003922
0.286275 0.462745 0.003922
0.400000 0.505882 0.000000
0.533333 0.545098 0.000000
0.650980 0.588235 0.011765
0.729412 0.607843 0.007843
0.823529 0.635294 0.007843
0.874510 0.619608 0.000000
0.921569 0.603922 0.019608
0.964706 0.584314 0.133333
0.996078 0.560784 0.207843
0.996078 0.552941 0.247059
1.000000 0.537255 0.294118
1.000000 0.525490 0.321569
1.000000 0.529412 0.352941
1.000000 0.525490 0.372549
1.000000 0.537255 0.400000
0.992157 0.549020 0.423529
0.992157 0.552941 0.458824
0.000000 0.411765 0.011765
0.000000 0.403922 0.023529
0.007843 0.407843 0.019608
0.000000 0.407843 0.035294
0.003922 0.403922 0.015686
0.000000 0.423529 0.015686
0.145098 0.450980 0.003922
0.254902 0.482353 0.007843
0.368627 0.525490 0.000000
0.494118 0.568627 0.007843
0.615686 0.603922 0.000000
0.705882 0.654902 0.000000
0.784314 0.674510 0.000000
0.862745 0.682353 0.000000
0.905882 0.674510 0.039216
0.964706 0.647059 0.149020
0.992157 0.639216 0.207843
0.996078 0.615686 0.266667
0.988235 0.603922 0.317647
1.000000 0.588235 0.352941
1.000000 0.584314 0.388235
1.000000 0.580392 0.415686
1.000000 0.588235 0.435294
1.000000 0.584314 0.474510
1.000000 0.588235 0.474510
0.007843 0.450980 0.000000
0.003922 0.450980 0.003922
0.000000 0.454902 0.000000
0.000000 0.458824 0.007843
0.000000 0.454902 0.003922
0.000000 0.458824 0.011765
0.125490 0.482353 0.007843
0.243137 0.517647 0.000000
0.356863 0.545098 0.003922
0.466667 0.584314 0.007843
0.568627 0.623529 0.000000
0.654902 0.662745 0.000000
0.756863 0.709804 0.003922
0.803922 0.725490 0.000000
0.894118 0.725490 0.070588
0.933333 0.713725 0.168627
0.976471 0.698039 0.243137
1.000000 0.678431 0.290196
1.000000 0.658824 0.341176
0.996078 0.650980 0.368627
1.000000 0.647059 0.403922
1.000000 0.635294 0.462745
1.000000 0.627451 0.470588
0.996078 0.635294 0.494118
1.000000 0.643137 0.501961
0.000000 0.494118 0.003922
0.015686 0.501961 0.011765
0.003922 0.501961 0.000000
0.000000 0.494118 0.000000
0.003922 0.498039 0.003922
0.003922 0.498039 0.003922
0.086275 0.517647 0.000000
0.211765 0.541176 0.000000
0.329412 0.572549 0.000000
0.435294 0.603922 0.007843
0.537255 0.639216 0.000000
0.623529 0.678431 0.000000
0.698039 0.713725 0.000000
0.776471 0.749020 0.000000
0.847059 0.764706 0.031373
0.921569 0.764706 0.180392
0.964706 0.752941 0.274510
0.996078 0.733333 0.313725
1.000000 0.717647 0.368627
1.000000 0.705882 0.388235
1.000000 0.690196 0.431373
1.000000 0.682353 0.462745
1.000000 0.686275 0.494118
1.000000 0.678431 0.521569
1.000000 0.678431 0.552941
0.000000 0.541176 0.003922
0.000000 0.537255 0.011765
0.003922 0.537255 0.000000
0.007843 0.541176 0.007843
0.000000 0.541176 0.003922
0.011765 0.537255 0.000000
0.086275 0.541176 0.003922
0.203922 0.564706 0.000000
0.317647 0.592157 0.000000
0.415686 0.631373 0.000000
0.509804 0.662745 0.000000
0.588235 0.701961 0.000000
0.658824 0.733333 0.031373
0.733333 0.756863 0.082353
0.815686 0.792157 0.117647
0.882353 0.803922 0.180392
0.945098 0.796078 0.274510
0.988235 0.788235 0.329412
0.996078 0.772549 0.368627
1.000000 0.752941 0.411765
0.992157 0.741176 0.450980
1.000000 0.733333 0.478431
1.000000 0.729412 0.505882
1.000000 0.721569 0.541176
1.000000 0.717647 0.568627
0.000000 0.580392 0.000000
0.000000 0.580392 0.000000
0.007843 0.576471 0.000000
0.000000 0.588235 0.003922
0.011765 0.576471 0.000000
0.070588 0.576471 0.011765
0.133333 0.584314 0.015686
0.211765 0.596078 0.027451
0.305882 0.619608 0.035294
0.400000 0.650980 0.031373
0.494118 0.682353 0.047059
0.572549 0.713725 0.086275
0.639216 0.741176 0.109804
0.698039 0.776471 0.152941
0.756863 0.800000 0.180392
0.843137 0.831373 0.223529
0.921569 0.831373 0.274510
0.949020 0.835294 0.333333
0.992157 0.819608 0.392157
0.996078 0.803922 0.435294
1.000000 0.788235 0.474510
1.000000 0.776471 0.498039
1.000000 0.764706 0.529412
1.000000 0.764706 0.568627
1.000000 0.752941 0.576471
0.003922 0.619608 0.003922
0.015686 0.627451 0.027451
0.000000 0.623529 0.011765
0.039216 0.623529 0.011765
0.090196 0.623529 0.027451
0.137255 0.623529 0.035294
0.176471 0.627451 0.058824
0.215686 0.627451 0.054902
0.309804 0.643137 0.066667
0.384314 0.678431 0.078431
0.470588 0.701961 0.090196
0.549020 0.729412 0.133333
0.611765 0.752941 0.168627
0.674510 0.788235 0.184314
0.725490 0.811765 0.235294
0.788235 0.835294 0.254902
0.866667 0.858824 0.290196
0.933333 0.862745 0.337255
0.984314 0.847059 0.392157
0.996078 0.847059 0.450980
0.992157 0.831373 0.486275
0.992157 0.823529 0.517647
1.000000 0.803922 0.545098
1.000000 0.796078 0.568627
1.000000 0.792157 0.611765
0.070588 0.662745 0.054902
0.098039 0.670588 0.070588
0.105882 0.666667 0.062745
0.145098 0.654902 0.058824
0.176471 0.670588 0.078431
0.184314 0.666667 0.066667
0.219608 0.666667 0.082353
0.254902 0.662745 0.086275
0.305882 0.670588 0.101961
0.388235 0.701961 0.117647
0.474510 0.729412 0.133333
0.537255 0.749020 0.176471
0.596078 0.772549 0.203922
0.639216 0.803922 0.223529
0.701961 0.827451 0.258824
0.752941 0.847059 0.298039
0.823529 0.870588 0.337255
0.894118 0.878431 0.356863
0.960784 0.890196 0.403922
0.984314 0.882353 0.450980
0.996078 0.862745 0.509804
0.996078 0.850980 0.537255
1.000000 0.843137 0.572549
0.988235 0.839216 0.596078
1.000000 0.819608 0.615686
0.176471 0.713725 0.098039
0.172549 0.709804 0.090196
0.188235 0.709804 0.109804
0.203922 0.709804 0.105882
0.219608 0.705882 0.109804
0.243137 0.709804 0.113725
0.266667 0.709804 0.121569
0.298039 0.713725 0.125490
0.325490 0.709804 0.133333
0.392157 0.725490 0.156863
0.466667 0.760784 0.192157
0.517647 0.772549 0.207843
0.576471 0.792157 0.231373
0.619608 0.819608 0.266667
0.678431 0.843137 0.301961
0.729412 0.858824 0.337255
0.788235 0.878431 0.352941
0.854902 0.890196 0.384314
0.917647 0.901961 0.407843
0.972549 0.909804 0.435294
1.000000 0.894118 0.505882
0.996078 0.886275 0.560784
1.000000 0.870588 0.592157
1.000000 0.866667 0.615686
1.000000 0.850980 0.635294
0.243137 0.756863 0.149020
0.243137 0.749020 0.152941
0.254902 0.752941 0.145098
0.262745 0.745098 0.149020
0.282353 0.749020 0.152941
0.294118 0.749020 0.160784
0.317647 0.749020 0.164706
0.345098 0.749020 0.188235
0.364706 0.752941 0.184314
0.403922 0.760784 0.203922
0.454902 0.776471 0.211765
0.517647 0.796078 0.239216
0.568627 0.819608 0.270588
0.611765 0.835294 0.290196
0.658824 0.854902 0.325490
0.705882 0.874510 0.352941
0.760784 0.890196 0.376471
0.827451 0.901961 0.411765
0.882353 0.913725 0.439216
0.933333 0.921569 0.478431
0.992157 0.925490 0.509804
0.996078 0.913725 0.549020
1.000000 0.901961 0.600000
1.000000 0.890196 0.635294
1.000000 0.878431 0.654902
0.298039 0.792157 0.200000
0.317647 0.784314 0.211765
0.305882 0.784314 0.207843
0.321569 0.792157 0.207843
0.325490 0.788235 0.200000
0.349020 0.803922 0.215686
0.360784 0.788235 0.211765
0.380392 0.792157 0.219608
0.388235 0.792157 0.223529
0.423529 0.784314 0.247059
0.466667 0.807843 0.258824
0.509804 0.827451 0.274510
0.556863 0.839216 0.305882
0.600000 0.858824 0.333333
0.643137 0.878431 0.360784
0.694118 0.886275 0.384314
0.745098 0.905882 0.403922
0.800000 0.909804 0.439216
0.850980 0.917647 0.470588
0.913725 0.925490 0.505882
0.956863 0.937255 0.529412
0.996078 0.937255 0.549020
0.996078 0.925490 0.588235
0.996078 0.913725 0.650980
1.000000 0.901961 0.674510
0.352941 0.831373 0.247059
0.349020 0.831373 0.262745
0.368627 0.827451 0.266667
0.372549 0.831373 0.270588
0.376471 0.839216 0.258824
0.388235 0.823529 0.270588
0.403922 0.831373 0.262745
0.411765 0.839216 0.270588
0.435294 0.831373 0.282353
0.443137 0.835294 0.305882
0.474510 0.835294 0.290196
0.513725 0.850980 0.329412
0.552941 0.866667 0.337255
0.596078 0.882353 0.368627
0.639216 0.894118 0.400000
0.682353 0.913725 0.419608
0.725490 0.913725 0.435294
0.784314 0.921569 0.466667
0.827451 0.937255 0.505882
0.878431 0.937255 0.533333
0.917647 0.945098 0.541176
0.972549 0.956863 0.576471
0.992157 0.949020 0.600000
1.000000 0.937255 0.635294
0.992157 0.933333 0.678431
0.400000 0.874510 0.317647
0.407843 0.870588 0.321569
0.411765 0.874510 0.333333
0.411765 0.874510 0.325490
0.419608 0.866667 0.321569
0.431373 0.870588 0.337255
0.439216 0.878431 0.337255
0.454902 0.878431 0.337255
0.470588 0.874510 0.352941
0.474510 0.870588 0.352941
0.490196 0.874510 0.345098
0.517647 0.878431 0.372549
0.556863 0.898039 0.388235
0.603922 0.901961 0.415686
0.635294 0.917647 0.427451
0.686275 0.925490 0.458824
0.733333 0.929412 0.478431
0.768627 0.933333 0.494118
0.815686 0.945098 0.525490
0.858824 0.945098 0.549020
0.905882 0.949020 0.572549
0.937255 0.956863 0.596078
0.980392 0.956863 0.619608
1.000000 0.956863 0.643137
0.988235 0.956863 0.674510
0.447059 0.905882 0.388235
0.454902 0.905882 0.392157
0.454902 0.913725 0.392157
0.454902 0.913725 0.396078
0.462745 0.917647 0.396078
0.462745 0.913725 0.400000
0.470588 0.905882 0.396078
0.482353 0.909804 0.411765
0.498039 0.913725 0.419608
0.513725 0.913725 0.415686
0.521569 0.913725 0.419608
0.541176 0.913725 0.435294
0.568627 0.925490 0.458824
0.600000 0.929412 0.454902
0.647059 0.933333 0.482353
0.686275 0.933333 0.505882
0.729412 0.945098 0.537255
0.784314 0.949020 0.556863
0.827451 0.952941 0.564706
0.862745 0.960784 0.592157
0.886275 0.960784 0.611765
0.937255 0.956863 0.627451
0.960784 0.964706 0.658824
0.988235 0.964706 0.674510
0.988235 0.968627 0.701961
0.505882 0.941176 0.458824
0.490196 0.952941 0.474510
0.498039 0.945098 0.466667
0.505882 0.952941 0.474510
0.509804 0.941176 0.490196
0.521569 0.949020 0.478431
0.513725 0.949020 0.474510
0.521569 0.949020 0.478431
0.537255 0.937255 0.498039
0.545098 0.949020 0.490196
0.560784 0.952941 0.505882
0.580392 0.949020 0.509804
0.603922 0.952941 0.529412
0.635294 0.956863 0.533333
0.678431 0.964706 0.552941
0.717647 0.968627 0.588235
0.756863 0.968627 0.592157
0.796078 0.968627 0.596078
0.835294 0.968627 0.627451
0.874510 0.972549 0.643137
0.913725 0.968627 0.658824
0.933333 0.976471 0.678431
0.960784 0.972549 0.694118
0.984314 0.972549 0.709804
1.000000 0.968627 0.737255
0.062745 0.109804 0.101961
0.054902 0.113725 0.101961
0.062745 0.105882 0.090196
0.070588 0.105882 0.086275
0.086275 0.105882 0.090196
0.109804 0.105882 0.090196
0.149020 0.105882 0.090196
0.223529 0.101961 0.094118
0.309804 0.090196 0.101961
0.423529 0.050980 0.074510
0.541176 0.003922 0.082353
0.647059 0.000000 0.094118
0.733333 0.000000 0.070588
0.815686 0.003922 0.082353
0.858824 0.000000 0.066667
0.913725 0.000000 0.082353
0.952941 0.000000 0.086275
0.980392 0.003922 0.098039
1.000000 0.003922 0.117647
0.992157 0.000000 0.152941
1.000000 0.000000 0.188235
0.996078 0.054902 0.215686
0.992157 0.129412 0.239216
1.000000 0.196078 0.278431
1.000000 0.243137 0.305882
0.050980 0.109804 0.090196
0.050980 0.117647 0.094118
0.062745 0.109804 0.101961
0.074510 0.109804 0.098039
0.090196 0.105882 0.101961
0.125490 0.113725 0.086275
0.164706 0.109804 0.098039
0.235294 0.101961 0.094118
0.325490 0.098039 0.086275
0.443137 0.074510 0.078431
0.572549 0.011765 0.098039
0.666667 0.000000 0.070588
0.749020 0.003922 0.074510
0.823529 0.000000 0.066667
0.870588 0.000000 0.066667
0.921569 0.003922 0.086275
0.968627 0.000000 0.098039
0.996078 0.000000 0.113725
1.000000 0.003922 0.137255
1.000000 0.000000 0.156863
1.000000 0.011765 0.180392
0.996078 0.094118 0.215686
0.996078 0.160784 0.247059
1.000000 0.207843 0.286275
0.996078 0.250980 0.313725
0.062745 0.109804 0.109804
0.058824 0.109804 0.082353
0.070588 0.109804 0.105882
0.078431 0.117647 0.086275
0.105882 0.117647 0.090196
0.125490 0.121569 0.101961
0.192157 0.117647 0.090196
0.258824 0.125490 0.090196
0.356863 0.109804 0.090196
0.470588 0.101961 0.094118
0.584314 0.054902 0.078431
0.678431 0.000000 0.074510
0.760784 0.000000 0.066667
0.823529 0.003922 0.058824
0.874510 0.000000 0.074510
0.917647 0.000000 0.082353
0.968627 0.000000 0.082353
0.996078 0.000000 0.101961
1.000000 0.003922 0.137255
1.000000 0.019608 0.168627
1.000000 0.078431 0.200000
1.000000 0.141176 0.227451
1.000000 0.180392 0.254902
1.000000 0.231373 0.286275
1.000000 0.262745 0.317647
0.058824 0.117647 0.105882
0.054902 0.113725 0.094118
0.047059 0.121569 0.105882
0.078431 0.129412 0.101961
0.101961 0.133333 0.090196
0.160784 0.133333 0.094118
0.231373 0.145098 0.094118
0.305882 0.145098 0.078431
0.400000 0.141176 0.078431
0.505882 0.129412 0.066667
0.615686 0.105882 0.066667
0.717647 0.078431 0.058824
0.776471 0.043137 0.047059
0.839216 0.027451 0.066667
0.882353 0.027451 0.054902
0.933333 0.027451 0.070588
0.968627 0.039216 0.086275
0.988235 0.058824 0.098039
0.996078 0.078431 0.145098
1.000000 0.109804 0.184314
1.000000 0.145098 0.200000
1.000000 0.180392 0.231373
1.000000 0.219608 0.262745
1.000000 0.258824 0.298039
1.000000 0.294118 0.321569
0.050980 0.125490 0.101961
0.050980 0.129412 0.094118
0.062745 0.129412 0.090196
0.062745 0.141176 0.094118
0.101961 0.152941 0.086275
0.160784 0.164706 0.094118
0.235294 0.180392 0.074510
0.349020 0.192157 0.090196
0.466667 0.188235 0.070588
0.560784 0.180392 0.066667
0.654902 0.172549 0.043137
0.741176 0.156863 0.047059
0.811765 0.149020 0.043137
0.850980 0.145098 0.047059
0.898039 0.145098 0.070588
0.941176 0.145098 0.090196
0.976471 0.145098 0.101961
0.996078 0.156863 0.125490
1.000000 0.168627 0.152941
1.000000 0.180392 0.184314
0.996078 0.207843 0.207843
1.000000 0.227451 0.247059
1.000000 0.254902 0.282353
0.996078 0.290196 0.305882
1.000000 0.317647 0.337255
0.039216 0.149020 0.094118
0.039216 0.149020 0.094118
0.043137 0.152941 0.094118
0.062745 0.156863 0.094118
0.090196 0.172549 0.105882
0.141176 0.203922 0.094118
0.243137 0.231373 0.070588
0.352941 0.250980 0.058824
0.494118 0.250980 0.019608
0.619608 0.247059 0.027451
0.709804 0.235294 0.019608
0.764706 0.231373 0.011765
0.827451 0.235294 0.035294
0.866667 0.223529 0.043137
0.917647 0.223529 0.050980
0.952941 0.227451 0.078431
0.992157 0.219608 0.113725
1.000000 0.223529 0.141176
1.000000 0.227451 0.164706
1.000000 0.243137 0.192157
1.000000 0.262745 0.227451
1.000000 0.282353 0.258824
0.996078 0.309804 0.290196
1.000000 0.325490 0.321569
0.992157 0.360784 0.352941
0.027451 0.180392 0.105882
0.027451 0.172549 0.094118
0.027451 0.176471 0.086275
0.047059 0.184314 0.098039
0.082353 0.203922 0.082353
0.125490 0.235294 0.078431
0.239216 0.274510 0.066667
0.352941 0.317647 0.023529
0.494118 0.329412 0.007843
0.619608 0.337255 0.007843
0.733333 0.325490 0.000000
0.807843 0.309804 0.007843
0.847059 0.301961 0.000000
0.890196 0.301961 0.035294
0.937255 0.301961 0.070588
0.968627 0.290196 0.101961
0.996078 0.294118 0.133333
0.996078 0.290196 0.152941
0.988235 0.294118 0.184314
1.000000 0.305882 0.211765
0.992157 0.317647 0.239216
0.996078 0.333333 0.274510
1.000000 0.352941 0.309804
0.992157 0.372549 0.329412
1.000000 0.392157 0.380392
0.000000 0.211765 0.086275
0.000000 0.211765 0.086275
0.003922 0.211765 0.094118
0.023529 0.215686 0.090196
0.058824 0.243137 0.078431
0.125490 0.266667 0.070588
0.219608 0.301961 0.047059
0.341176 0.352941 0.003922
0.494118 0.396078 0.000000
0.623529 0.407843 0.003922
0.713725 0.403922 0.000000
0.792157 0.403922 0.000000
0.858824 0.388235 0.007843
0.925490 0.376471 0.043137
0.949020 0.368627 0.086275
0.976471 0.360784 0.113725
0.996078 0.356863 0.149020
1.000000 0.356863 0.176471
1.000000 0.356863 0.211765
1.000000 0.356863 0.247059
1.000000 0.364706 0.274510
0.996078 0.384314 0.298039
0.996078 0.396078 0.333333
0.996078 0.419608 0.352941
0.996078 0.431373 0.388235
0.000000 0.258824 0.078431
0.011765 0.258824 0.082353
0.003922 0.262745 0.074510
0.000000 0.254902 0.074510
0.031373 0.274510 0.082353
0.105882 0.298039 0.070588
0.200000 0.345098 0.035294
0.321569 0.392157 0.003922
0.454902 0.439216 0.007843
0.596078 0.478431 0.007843
0.701961 0.490196 0.000000
0.784314 0.490196 0.000000
0.839216 0.478431 0.003922
0.898039 0.466667 0.031373
0.952941 0.435294 0.101961
0.992157 0.427451 0.149020
0.992157 0.423529 0.168627
0.996078 0.419608 0.215686
1.000000 0.419608 0.239216
1.000000 0.419608 0.270588
1.000000 0.423529 0.313725
0.996078 0.435294 0.329412
1.000000 0.450980 0.360784
0.996078 0.458824 0.388235
1.000000 0.474510 0.431373
0.000000 0.305882 0.078431
0.000000 0.309804 0.086275
0.000000 0.305882 0.078431
0.000000 0.305882 0.078431
0.000000 0.309804 0.082353
0.078431 0.345098 0.058824
0.172549 0.380392 0.027451
0.294118 0.423529 0.003922
0.431373 0.466667 0.000000
0.572549 0.517647 0.000000
0.690196 0.545098 0.000000
0.776471 0.560784 0.000000
0.831373 0.552941 0.003922
0.886275 0.541176 0.007843
0.937255 0.521569 0.094118
0.980392 0.509804 0.172549
1.000000 0.490196 0.207843
1.000000 0.482353 0.250980
0.992157 0.478431 0.258824
1.000000 0.478431 0.309804
0.996078 0.482353 0.333333
1.000000 0.490196 0.364706
0.996078 0.498039 0.384314
1.000000 0.505882 0.411765
1.000000 0.521569 0.447059
0.003922 0.356863 0.066667
0.000000 0.356863 0.054902
0.000000 0.360784 0.058824
0.000000 0.364706 0.066667
0.000000 0.360784 0.058824
0.043137 0.380392 0.039216
0.156863 0.419608 0.015686
0.282353 0.454902 0.003922
