qml/filters/cineLessContrast.cube
#Generated with IWLTBAP LUT Generator
#Website: http://luts.iwltbap.com
TITLE "FGCineBasic"
#LUT size
LUT_3D_SIZE 25
#LUT data points
0.105882 0.113725 0.109804
0.117647 0.113725 0.105882
0.149020 0.109804 0.105882
0.188235 0.109804 0.113725
0.215686 0.113725 0.109804
0.243137 0.121569 0.101961
0.274510 0.121569 0.094118
0.298039 0.121569 0.094118
0.341176 0.137255 0.094118
0.372549 0.137255 0.098039
0.407843 0.149020 0.101961
0.427451 0.156863 0.098039
0.462745 0.164706 0.101961
0.498039 0.180392 0.105882
0.525490 0.188235 0.105882
0.552941 0.192157 0.109804
0.592157 0.200000 0.105882
0.631373 0.211765 0.117647
0.670588 0.227451 0.109804
0.701961 0.231373 0.098039
0.745098 0.243137 0.098039
0.780392 0.250980 0.101961
0.827451 0.266667 0.094118
0.866667 0.278431 0.101961
0.901961 0.286275 0.078431
0.105882 0.125490 0.098039
0.133333 0.117647 0.105882
0.156863 0.129412 0.098039
0.176471 0.121569 0.109804
0.215686 0.137255 0.109804
0.243137 0.129412 0.105882
0.278431 0.133333 0.101961
0.301961 0.137255 0.090196
0.341176 0.145098 0.109804
0.372549 0.152941 0.105882
0.400000 0.156863 0.113725
0.427451 0.164706 0.101961
0.458824 0.172549 0.105882
0.486275 0.180392 0.101961
0.521569 0.188235 0.105882
0.556863 0.203922 0.117647
0.588235 0.207843 0.109804
0.627451 0.215686 0.101961
0.670588 0.227451 0.109804
0.705882 0.239216 0.121569
0.737255 0.250980 0.109804
0.780392 0.258824 0.098039
0.819608 0.270588 0.101961
0.862745 0.274510 0.098039
0.905882 0.290196 0.090196
0.125490 0.156863 0.105882
0.137255 0.149020 0.105882
0.164706 0.160784 0.090196
0.184314 0.145098 0.105882
0.215686 0.145098 0.098039
0.243137 0.149020 0.109804
0.274510 0.149020 0.098039
0.301961 0.152941 0.101961
0.329412 0.156863 0.105882
0.356863 0.164706 0.109804
0.396078 0.172549 0.113725
0.431373 0.172549 0.109804
0.462745 0.184314 0.113725
0.494118 0.184314 0.117647
0.529412 0.196078 0.113725
0.560784 0.207843 0.113725
0.588235 0.211765 0.113725
0.619608 0.223529 0.105882
0.658824 0.231373 0.109804
0.698039 0.243137 0.113725
0.733333 0.247059 0.105882
0.784314 0.262745 0.101961
0.819608 0.278431 0.105882
0.870588 0.294118 0.094118
0.898039 0.298039 0.094118
0.133333 0.192157 0.101961
0.152941 0.184314 0.094118
0.172549 0.180392 0.090196
0.196078 0.184314 0.109804
0.219608 0.172549 0.109804
0.254902 0.172549 0.105882
0.274510 0.164706 0.109804
0.301961 0.172549 0.113725
0.329412 0.176471 0.117647
0.360784 0.176471 0.113725
0.392157 0.184314 0.113725
0.419608 0.192157 0.113725
0.454902 0.192157 0.117647
0.486275 0.203922 0.109804
0.525490 0.211765 0.121569
0.552941 0.215686 0.117647
0.588235 0.219608 0.109804
0.623529 0.227451 0.109804
0.658824 0.243137 0.117647
0.698039 0.250980 0.109804
0.737255 0.258824 0.105882
0.772549 0.270588 0.094118
0.819608 0.286275 0.101961
0.854902 0.294118 0.098039
0.909804 0.301961 0.090196
0.137255 0.215686 0.101961
0.160784 0.219608 0.105882
0.176471 0.211765 0.098039
0.211765 0.215686 0.094118
0.235294 0.211765 0.109804
0.266667 0.207843 0.117647
0.282353 0.200000 0.117647
0.298039 0.192157 0.117647
0.329412 0.192157 0.117647
0.356863 0.196078 0.125490
0.380392 0.196078 0.117647
0.419608 0.203922 0.121569
0.450980 0.215686 0.121569
0.482353 0.219608 0.117647
0.521569 0.227451 0.121569
0.549020 0.231373 0.125490
0.584314 0.235294 0.125490
0.615686 0.243137 0.117647
0.654902 0.254902 0.113725
0.690196 0.266667 0.117647
0.725490 0.278431 0.105882
0.768627 0.282353 0.101961
0.811765 0.290196 0.098039
0.858824 0.298039 0.094118
0.901961 0.313725 0.086275
0.160784 0.243137 0.113725
0.164706 0.243137 0.105882
0.184314 0.247059 0.105882
0.219608 0.250980 0.105882
0.243137 0.250980 0.105882
0.270588 0.247059 0.113725
0.301961 0.235294 0.117647
0.333333 0.235294 0.125490
0.341176 0.235294 0.129412
0.356863 0.215686 0.121569
0.384314 0.223529 0.121569
0.411765 0.227451 0.125490
0.447059 0.231373 0.121569
0.482353 0.231373 0.121569
0.513725 0.243137 0.129412
0.541176 0.247059 0.125490
0.580392 0.254902 0.121569
0.611765 0.258824 0.125490
0.650980 0.266667 0.121569
0.682353 0.278431 0.117647
0.729412 0.286275 0.113725
0.768627 0.298039 0.109804
0.807843 0.301961 0.098039
0.847059 0.313725 0.094118
0.898039 0.325490 0.094118
0.168627 0.278431 0.121569
0.192157 0.274510 0.113725
0.200000 0.282353 0.113725
0.219608 0.278431 0.109804
0.250980 0.278431 0.113725
0.270588 0.294118 0.113725
0.305882 0.290196 0.105882
0.333333 0.270588 0.129412
0.364706 0.270588 0.129412
0.380392 0.262745 0.121569
0.392157 0.254902 0.129412
0.415686 0.247059 0.129412
0.435294 0.243137 0.125490
0.470588 0.250980 0.129412
0.505882 0.250980 0.125490
0.537255 0.262745 0.121569
0.572549 0.266667 0.125490
0.603922 0.274510 0.125490
0.643137 0.286275 0.121569
0.678431 0.294118 0.117647
0.717647 0.301961 0.113725
0.764706 0.309804 0.109804
0.796078 0.313725 0.109804
0.843137 0.333333 0.098039
0.890196 0.345098 0.082353
0.180392 0.313725 0.105882
0.203922 0.313725 0.121569
0.203922 0.317647 0.098039
0.243137 0.313725 0.117647
0.254902 0.321569 0.117647
0.282353 0.313725 0.113725
0.321569 0.321569 0.117647
0.352941 0.321569 0.129412
0.384314 0.313725 0.125490
0.415686 0.309804 0.133333
0.431373 0.294118 0.137255
0.439216 0.286275 0.125490
0.447059 0.274510 0.129412
0.458824 0.270588 0.129412
0.490196 0.274510 0.125490
0.525490 0.274510 0.133333
0.564706 0.282353 0.125490
0.596078 0.294118 0.121569
0.639216 0.298039 0.121569
0.674510 0.305882 0.117647
0.713725 0.313725 0.121569
0.752941 0.325490 0.113725
0.800000 0.337255 0.098039
0.839216 0.349020 0.105882
0.890196 0.356863 0.090196
0.196078 0.345098 0.105882
0.211765 0.341176 0.117647
0.235294 0.352941 0.117647
0.247059 0.349020 0.101961
0.274510 0.352941 0.113725
0.294118 0.349020 0.105882
0.333333 0.356863 0.113725
0.368627 0.360784 0.121569
0.396078 0.364706 0.121569
0.427451 0.352941 0.125490
0.454902 0.349020 0.133333
0.470588 0.329412 0.133333
0.490196 0.317647 0.133333
0.490196 0.317647 0.141176
0.505882 0.298039 0.133333
0.517647 0.294118 0.125490
0.549020 0.301961 0.133333
0.584314 0.305882 0.133333
0.623529 0.305882 0.129412
0.658824 0.317647 0.117647
0.709804 0.329412 0.129412
0.756863 0.337255 0.125490
0.796078 0.341176 0.101961
0.835294 0.364706 0.098039
0.878431 0.372549 0.078431
0.219608 0.380392 0.105882
0.235294 0.380392 0.109804
0.235294 0.392157 0.117647
0.258824 0.380392 0.105882
0.282353 0.384314 0.098039
0.321569 0.388235 0.105882
0.349020 0.396078 0.105882
0.376471 0.400000 0.109804
0.411765 0.403922 0.113725
0.443137 0.403922 0.125490
0.474510 0.392157 0.129412
0.509804 0.396078 0.141176
0.521569 0.380392 0.145098
0.529412 0.364706 0.129412
0.545098 0.352941 0.133333
0.545098 0.337255 0.141176
0.556863 0.317647 0.137255
0.576471 0.317647 0.129412
0.611765 0.325490 0.125490
0.654902 0.337255 0.121569
0.698039 0.341176 0.125490
0.741176 0.356863 0.117647
0.788235 0.364706 0.113725
0.831373 0.372549 0.101961
0.866667 0.384314 0.082353
0.235294 0.419608 0.098039
0.247059 0.423529 0.101961
0.262745 0.427451 0.105882
0.290196 0.427451 0.113725
0.298039 0.419608 0.105882
0.317647 0.423529 0.105882
0.352941 0.427451 0.105882
0.384314 0.435294 0.113725
0.427451 0.443137 0.109804
0.454902 0.447059 0.113725
0.490196 0.447059 0.125490
0.517647 0.443137 0.133333
0.560784 0.447059 0.156863
0.572549 0.427451 0.149020
0.580392 0.403922 0.141176
0.603922 0.392157 0.141176
0.592157 0.372549 0.141176
0.600000 0.352941 0.141176
0.607843 0.345098 0.129412
0.631373 0.349020 0.121569
0.678431 0.356863 0.121569
0.725490 0.368627 0.113725
0.776471 0.384314 0.109804
0.819608 0.392157 0.101961
0.870588 0.407843 0.086275
0.258824 0.458824 0.094118
0.266667 0.462745 0.121569
0.270588 0.462745 0.094118
0.294118 0.462745 0.113725
0.321569 0.466667 0.101961
0.333333 0.466667 0.094118
0.364706 0.470588 0.105882
0.396078 0.474510 0.094118
0.431373 0.474510 0.105882
0.462745 0.486275 0.109804
0.498039 0.498039 0.113725
0.545098 0.505882 0.133333
0.572549 0.490196 0.133333
0.607843 0.490196 0.152941
0.635294 0.474510 0.160784
0.631373 0.447059 0.141176
0.643137 0.435294 0.137255
0.647059 0.419608 0.133333
0.650980 0.403922 0.133333
0.662745 0.384314 0.133333
0.678431 0.372549 0.121569
0.713725 0.380392 0.117647
0.752941 0.403922 0.105882
0.811765 0.407843 0.098039
0.850980 0.431373 0.078431
0.278431 0.501961 0.098039
0.278431 0.498039 0.101961
0.298039 0.505882 0.090196
0.309804 0.498039 0.098039
0.325490 0.501961 0.090196
0.356863 0.505882 0.101961
0.380392 0.509804 0.098039
0.407843 0.513725 0.094118
0.443137 0.517647 0.094118
0.478431 0.525490 0.094118
0.513725 0.529412 0.098039
0.552941 0.537255 0.109804
0.588235 0.545098 0.125490
0.615686 0.541176 0.133333
0.666667 0.537255 0.172549
0.674510 0.513725 0.160784
0.686275 0.498039 0.164706
0.698039 0.482353 0.156863
0.701961 0.458824 0.141176
0.705882 0.443137 0.137255
0.717647 0.431373 0.129412
0.725490 0.419608 0.105882
0.756863 0.411765 0.094118
0.803922 0.427451 0.090196
0.854902 0.439216 0.070588
0.298039 0.545098 0.094118
0.298039 0.552941 0.090196
0.305882 0.541176 0.098039
0.321569 0.549020 0.078431
0.341176 0.549020 0.101961
0.360784 0.545098 0.086275
0.388235 0.549020 0.086275
0.415686 0.545098 0.086275
0.447059 0.556863 0.086275
0.486275 0.560784 0.098039
0.525490 0.568627 0.098039
0.556863 0.580392 0.101961
0.592157 0.584314 0.109804
0.635294 0.588235 0.125490
0.666667 0.580392 0.145098
0.705882 0.576471 0.172549
0.733333 0.568627 0.176471
0.745098 0.549020 0.160784
0.749020 0.529412 0.149020
0.756863 0.509804 0.137255
0.768627 0.490196 0.129412
0.772549 0.478431 0.113725
0.792157 0.466667 0.105882
0.803922 0.450980 0.074510
0.847059 0.466667 0.058824
0.301961 0.576471 0.090196
0.317647 0.588235 0.082353
0.317647 0.580392 0.074510
0.341176 0.584314 0.078431
0.349020 0.588235 0.082353
0.380392 0.584314 0.082353
0.403922 0.580392 0.074510
0.431373 0.588235 0.070588
0.462745 0.592157 0.078431
0.494118 0.600000 0.078431
0.525490 0.611765 0.086275
0.564706 0.615686 0.101961
0.611765 0.623529 0.101961
0.643137 0.623529 0.113725
0.686275 0.635294 0.133333
0.721569 0.623529 0.156863
0.752941 0.623529 0.180392
0.780392 0.615686 0.184314
0.792157 0.592157 0.172549
0.800000 0.572549 0.152941
0.815686 0.552941 0.141176
0.827451 0.537255 0.125490
0.847059 0.521569 0.113725
0.854902 0.505882 0.098039
0.866667 0.501961 0.066667
0.325490 0.627451 0.078431
0.337255 0.627451 0.082353
0.345098 0.623529 0.074510
0.356863 0.627451 0.070588
0.372549 0.627451 0.070588
0.396078 0.627451 0.070588
0.419608 0.627451 0.062745
0.447059 0.635294 0.070588
0.474510 0.639216 0.074510
0.505882 0.635294 0.074510
0.545098 0.643137 0.082353
0.576471 0.650980 0.086275
0.623529 0.658824 0.098039
0.658824 0.666667 0.105882
0.698039 0.678431 0.117647
0.729412 0.678431 0.125490
0.764706 0.666667 0.164706
0.803922 0.670588 0.188235
0.839216 0.662745 0.196078
0.847059 0.639216 0.184314
0.862745 0.615686 0.172549
0.874510 0.600000 0.156863
0.886275 0.584314 0.137255
0.901961 0.568627 0.113725
0.921569 0.560784 0.094118
0.345098 0.674510 0.054902
0.352941 0.670588 0.062745
0.360784 0.674510 0.058824
0.376471 0.662745 0.058824
0.392157 0.666667 0.039216
0.415686 0.666667 0.047059
0.435294 0.666667 0.054902
0.458824 0.670588 0.050980
0.486275 0.670588 0.050980
0.521569 0.678431 0.054902
0.549020 0.682353 0.058824
0.588235 0.686275 0.082353
0.627451 0.694118 0.090196
0.666667 0.701961 0.094118
0.705882 0.709804 0.101961
0.752941 0.713725 0.121569
0.780392 0.713725 0.156863
0.807843 0.701961 0.180392
0.839216 0.701961 0.207843
0.890196 0.701961 0.223529
0.901961 0.682353 0.207843
0.913725 0.662745 0.188235
0.925490 0.643137 0.168627
0.941176 0.623529 0.141176
0.964706 0.615686 0.113725
0.372549 0.705882 0.054902
0.372549 0.709804 0.039216
0.388235 0.709804 0.035294
0.396078 0.717647 0.043137
0.407843 0.705882 0.035294
0.423529 0.713725 0.035294
0.450980 0.713725 0.027451
0.478431 0.713725 0.027451
0.505882 0.713725 0.023529
0.533333 0.717647 0.035294
0.568627 0.717647 0.039216
0.600000 0.725490 0.047059
0.631373 0.733333 0.062745
0.666667 0.733333 0.082353
0.709804 0.752941 0.101961
0.745098 0.756863 0.109804
0.792157 0.760784 0.121569
0.827451 0.764706 0.156863
0.862745 0.752941 0.192157
0.890196 0.737255 0.223529
0.925490 0.737255 0.243137
0.941176 0.725490 0.227451
0.956863 0.705882 0.219608
0.976471 0.682353 0.184314
1.000000 0.678431 0.160784
0.384314 0.756863 0.011765
0.396078 0.749020 0.019608
0.400000 0.752941 0.015686
0.407843 0.764706 0.015686
0.427451 0.749020 0.011765
0.439216 0.749020 0.015686
0.466667 0.749020 0.015686
0.490196 0.752941 0.003922
0.517647 0.756863 0.000000
0.549020 0.756863 0.003922
0.580392 0.764706 0.019608
0.611765 0.764706 0.031373
0.650980 0.768627 0.050980
0.678431 0.776471 0.062745
0.717647 0.784314 0.094118
0.760784 0.784314 0.117647
0.800000 0.796078 0.137255
0.843137 0.796078 0.152941
0.870588 0.800000 0.180392
0.898039 0.796078 0.219608
0.921569 0.780392 0.239216
0.968627 0.784314 0.278431
0.984314 0.756863 0.262745
0.996078 0.749020 0.243137
1.000000 0.725490 0.207843
0.411765 0.796078 0.007843
0.415686 0.796078 0.000000
0.415686 0.803922 0.003922
0.427451 0.792157 0.000000
0.447059 0.792157 0.000000
0.470588 0.796078 0.003922
0.486275 0.796078 0.000000
0.513725 0.800000 0.003922
0.533333 0.796078 0.000000
0.568627 0.800000 0.000000
0.600000 0.800000 0.003922
0.631373 0.800000 0.011765
0.658824 0.807843 0.027451
0.694118 0.811765 0.050980
0.729412 0.815686 0.078431
0.756863 0.819608 0.098039
0.796078 0.823529 0.125490
0.843137 0.839216 0.149020
0.886275 0.835294 0.176471
0.929412 0.843137 0.203922
0.933333 0.827451 0.235294
0.960784 0.815686 0.258824
0.988235 0.815686 0.301961
1.000000 0.796078 0.301961
1.000000 0.780392 0.266667
0.427451 0.839216 0.000000
0.431373 0.835294 0.000000
0.439216 0.831373 0.000000
0.454902 0.831373 0.000000
0.462745 0.835294 0.000000
0.474510 0.839216 0.000000
0.501961 0.839216 0.000000
0.513725 0.839216 0.000000
0.549020 0.835294 0.000000
0.576471 0.835294 0.000000
0.607843 0.839216 0.000000
0.635294 0.843137 0.000000
0.666667 0.843137 0.003922
0.698039 0.847059 0.035294
0.733333 0.854902 0.074510
0.772549 0.854902 0.098039
0.811765 0.862745 0.113725
0.847059 0.862745 0.145098
0.894118 0.866667 0.176471
0.929412 0.878431 0.196078
0.964706 0.874510 0.215686
0.976471 0.862745 0.250980
0.988235 0.850980 0.298039
1.000000 0.843137 0.329412
1.000000 0.827451 0.329412
0.439216 0.874510 0.000000
0.454902 0.878431 0.000000
0.458824 0.882353 0.007843
0.478431 0.878431 0.000000
0.482353 0.882353 0.003922
0.498039 0.874510 0.003922
0.513725 0.874510 0.007843
0.545098 0.878431 0.000000
0.576471 0.874510 0.000000
0.603922 0.878431 0.003922
0.623529 0.878431 0.000000
0.654902 0.878431 0.000000
0.678431 0.882353 0.003922
0.705882 0.886275 0.023529
0.749020 0.890196 0.050980
0.784314 0.894118 0.086275
0.819608 0.901961 0.121569
0.858824 0.901961 0.149020
0.898039 0.905882 0.172549
0.933333 0.909804 0.196078
0.972549 0.913725 0.219608
0.996078 0.913725 0.258824
1.000000 0.894118 0.282353
0.992157 0.878431 0.329412
0.996078 0.866667 0.352941
0.474510 0.921569 0.000000
0.474510 0.917647 0.007843
0.474510 0.921569 0.000000
0.486275 0.917647 0.000000
0.509804 0.913725 0.000000
0.517647 0.917647 0.000000
0.537255 0.913725 0.000000
0.564706 0.917647 0.000000
0.588235 0.917647 0.000000
0.611765 0.917647 0.000000
0.643137 0.913725 0.000000
0.666667 0.917647 0.000000
0.694118 0.921569 0.000000
0.729412 0.921569 0.007843
0.756863 0.921569 0.043137
0.792157 0.921569 0.078431
0.835294 0.933333 0.121569
0.858824 0.929412 0.145098
0.894118 0.933333 0.168627
0.933333 0.937255 0.196078
0.976471 0.941176 0.231373
1.000000 0.937255 0.247059
0.992157 0.937255 0.278431
0.988235 0.925490 0.305882
1.000000 0.913725 0.345098
0.501961 0.952941 0.000000
0.505882 0.956863 0.011765
0.505882 0.956863 0.000000
0.517647 0.956863 0.000000
0.529412 0.956863 0.003922
0.533333 0.956863 0.000000
0.560784 0.956863 0.000000
0.584314 0.956863 0.000000
0.603922 0.956863 0.000000
0.631373 0.949020 0.000000
0.658824 0.952941 0.000000
0.682353 0.956863 0.000000
0.717647 0.956863 0.000000
0.729412 0.956863 0.000000
0.768627 0.956863 0.039216
0.800000 0.960784 0.082353
0.835294 0.968627 0.113725
0.874510 0.968627 0.145098
0.905882 0.960784 0.172549
0.937255 0.964706 0.203922
0.972549 0.968627 0.231373
1.000000 0.968627 0.243137
1.000000 0.964706 0.270588
1.000000 0.964706 0.321569
1.000000 0.949020 0.345098
0.517647 1.000000 0.000000
0.521569 0.996078 0.003922
0.529412 0.996078 0.007843
0.541176 0.992157 0.000000
0.545098 0.996078 0.000000
0.564706 0.992157 0.000000
0.580392 0.992157 0.000000
0.596078 0.992157 0.003922
0.615686 0.988235 0.000000
0.643137 0.996078 0.000000
0.670588 0.996078 0.000000
0.701961 0.996078 0.003922
0.729412 0.992157 0.000000
0.756863 0.996078 0.011765
0.784314 0.992157 0.043137
0.811765 1.000000 0.086275
0.850980 1.000000 0.125490
0.878431 1.000000 0.156863
0.909804 0.996078 0.188235
0.945098 0.992157 0.215686
0.980392 0.988235 0.254902
0.992157 0.992157 0.262745
1.000000 1.000000 0.286275
1.000000 1.000000 0.321569
1.000000 0.992157 0.345098
0.109804 0.105882 0.129412
0.129412 0.109804 0.133333
0.152941 0.101961 0.129412
0.188235 0.101961 0.121569
0.219608 0.105882 0.121569
0.247059 0.121569 0.125490
0.282353 0.133333 0.129412
0.309804 0.137255 0.133333
0.337255 0.145098 0.121569
0.380392 0.156863 0.137255
0.403922 0.156863 0.137255
0.431373 0.164706 0.129412
0.458824 0.168627 0.125490
0.494118 0.184314 0.125490
0.521569 0.188235 0.117647
0.560784 0.196078 0.125490
0.592157 0.215686 0.129412
0.623529 0.215686 0.125490
0.662745 0.227451 0.121569
0.698039 0.243137 0.121569
0.745098 0.250980 0.125490
0.780392 0.254902 0.117647
0.819608 0.270588 0.109804
0.866667 0.278431 0.109804
0.913725 0.294118 0.109804
0.086275 0.129412 0.113725
0.129412 0.121569 0.125490
0.164706 0.129412 0.141176
0.176471 0.133333 0.125490
0.211765 0.133333 0.129412
0.239216 0.137255 0.141176
0.278431 0.141176 0.117647
0.298039 0.152941 0.121569
0.337255 0.152941 0.125490
0.368627 0.160784 0.129412
0.400000 0.164706 0.125490
0.431373 0.168627 0.133333
0.466667 0.184314 0.137255
0.490196 0.188235 0.125490
0.521569 0.196078 0.125490
0.560784 0.203922 0.133333
0.592157 0.215686 0.121569
0.631373 0.223529 0.125490
0.666667 0.227451 0.133333
0.705882 0.239216 0.129412
0.741176 0.247059 0.117647
0.776471 0.270588 0.113725
0.811765 0.274510 0.109804
0.854902 0.278431 0.105882
0.905882 0.294118 0.101961
0.109804 0.152941 0.129412
0.141176 0.152941 0.117647
0.160784 0.160784 0.129412
0.188235 0.152941 0.133333
0.207843 0.149020 0.121569
0.247059 0.160784 0.117647
0.270588 0.156863 0.125490
0.309804 0.164706 0.125490
0.333333 0.164706 0.129412
0.364706 0.176471 0.137255
0.400000 0.180392 0.133333
0.431373 0.184314 0.125490
0.458824 0.188235 0.125490
0.498039 0.196078 0.133333
0.529412 0.203922 0.141176
0.556863 0.211765 0.137255
0.592157 0.219608 0.133333
0.619608 0.231373 0.117647
0.658824 0.243137 0.121569
0.698039 0.247059 0.125490
0.741176 0.262745 0.125490
0.776471 0.266667 0.125490
0.827451 0.274510 0.125490
0.862745 0.286275 0.117647
0.898039 0.298039 0.101961
0.117647 0.188235 0.133333
0.137255 0.180392 0.117647
0.172549 0.180392 0.125490
0.196078 0.180392 0.133333
0.227451 0.176471 0.141176
0.254902 0.176471 0.133333
0.274510 0.168627 0.125490
0.301961 0.176471 0.129412
0.329412 0.180392 0.129412
0.364706 0.184314 0.133333
0.396078 0.192157 0.137255
0.423529 0.200000 0.133333
0.454902 0.200000 0.129412
0.498039 0.203922 0.129412
0.529412 0.211765 0.137255
0.556863 0.219608 0.137255
0.584314 0.227451 0.125490
0.627451 0.235294 0.133333
0.658824 0.247059 0.125490
0.701961 0.258824 0.125490
0.745098 0.266667 0.121569
0.780392 0.274510 0.121569
0.807843 0.282353 0.113725
0.858824 0.294118 0.109804
0.901961 0.309804 0.101961
0.141176 0.207843 0.133333
0.156863 0.207843 0.137255
0.176471 0.211765 0.129412
0.203922 0.219608 0.125490
0.227451 0.219608 0.133333
0.254902 0.211765 0.137255
0.278431 0.203922 0.141176
0.305882 0.203922 0.145098
0.333333 0.203922 0.145098
0.364706 0.203922 0.137255
0.388235 0.203922 0.133333
0.423529 0.207843 0.137255
0.454902 0.215686 0.141176
0.482353 0.215686 0.133333
0.521569 0.223529 0.133333
0.552941 0.231373 0.137255
0.588235 0.235294 0.133333
0.619608 0.247059 0.129412
0.654902 0.262745 0.121569
0.686275 0.274510 0.129412
0.733333 0.270588 0.121569
0.776471 0.290196 0.125490
0.815686 0.290196 0.113725
0.858824 0.301961 0.113725
0.898039 0.317647 0.105882
0.145098 0.239216 0.137255
0.156863 0.247059 0.137255
0.184314 0.247059 0.133333
0.211765 0.247059 0.125490
0.239216 0.250980 0.129412
0.274510 0.254902 0.141176
0.298039 0.243137 0.137255
0.321569 0.235294 0.141176
0.333333 0.231373 0.141176
0.356863 0.219608 0.133333
0.380392 0.223529 0.133333
0.411765 0.231373 0.141176
0.447059 0.227451 0.137255
0.478431 0.239216 0.129412
0.509804 0.247059 0.133333
0.545098 0.250980 0.137255
0.576471 0.250980 0.125490
0.615686 0.262745 0.129412
0.654902 0.270588 0.125490
0.690196 0.278431 0.125490
0.729412 0.286275 0.129412
0.776471 0.294118 0.129412
0.815686 0.309804 0.117647
0.854902 0.317647 0.105882
0.901961 0.329412 0.105882
0.160784 0.278431 0.129412
0.184314 0.282353 0.129412
0.203922 0.274510 0.125490
0.215686 0.278431 0.133333
0.247059 0.278431 0.125490
0.278431 0.286275 0.133333
0.309804 0.286275 0.145098
0.333333 0.278431 0.141176
0.360784 0.270588 0.149020
0.376471 0.258824 0.149020
0.392157 0.250980 0.149020
0.415686 0.243137 0.145098
0.439216 0.243137 0.137255
0.474510 0.250980 0.137255
0.505882 0.258824 0.137255
0.529412 0.258824 0.137255
0.576471 0.266667 0.145098
0.611765 0.278431 0.129412
0.643137 0.282353 0.129412
0.690196 0.290196 0.133333
0.725490 0.301961 0.129412
0.764706 0.309804 0.117647
0.811765 0.321569 0.117647
0.858824 0.329412 0.109804
0.894118 0.341176 0.101961
0.172549 0.313725 0.133333
0.184314 0.305882 0.141176
0.207843 0.309804 0.125490
0.231373 0.317647 0.133333
0.250980 0.313725 0.137255
0.286275 0.317647 0.133333
0.317647 0.325490 0.141176
0.349020 0.321569 0.141176
0.376471 0.321569 0.145098
0.403922 0.313725 0.152941
0.423529 0.298039 0.149020
0.435294 0.286275 0.141176
0.447059 0.282353 0.141176
0.462745 0.270588 0.141176
0.490196 0.278431 0.137255
0.525490 0.278431 0.141176
0.556863 0.282353 0.141176
0.596078 0.290196 0.133333
0.639216 0.298039 0.137255
0.674510 0.305882 0.133333
0.713725 0.313725 0.125490
0.756863 0.325490 0.125490
0.803922 0.337255 0.117647
0.835294 0.349020 0.105882
0.890196 0.352941 0.101961
0.192157 0.349020 0.113725
0.219608 0.349020 0.141176
0.211765 0.349020 0.121569
0.235294 0.356863 0.125490
0.274510 0.356863 0.125490
0.294118 0.349020 0.117647
0.325490 0.356863 0.125490
0.364706 0.360784 0.137255
0.388235 0.360784 0.145098
0.423529 0.356863 0.152941
0.450980 0.349020 0.156863
0.466667 0.333333 0.152941
0.490196 0.325490 0.145098
0.486275 0.309804 0.149020
0.501961 0.298039 0.141176
0.513725 0.298039 0.137255
0.541176 0.301961 0.129412
0.576471 0.309804 0.133333
0.619608 0.313725 0.133333
0.662745 0.325490 0.133333
0.705882 0.329412 0.129412
0.741176 0.341176 0.109804
0.796078 0.345098 0.121569
0.831373 0.364706 0.105882
0.886275 0.364706 0.101961
0.211765 0.388235 0.117647
0.231373 0.384314 0.121569
0.231373 0.384314 0.121569
0.254902 0.380392 0.125490
0.286275 0.384314 0.125490
0.309804 0.384314 0.125490
0.341176 0.392157 0.121569
0.368627 0.396078 0.125490
0.403922 0.400000 0.137255
0.439216 0.403922 0.141176
0.466667 0.396078 0.152941
0.501961 0.400000 0.168627
0.521569 0.376471 0.160784
0.525490 0.360784 0.141176
0.533333 0.349020 0.145098
0.541176 0.337255 0.145098
0.549020 0.321569 0.145098
0.572549 0.321569 0.141176
0.611765 0.329412 0.133333
0.650980 0.337255 0.129412
0.694118 0.345098 0.125490
0.733333 0.356863 0.121569
0.788235 0.364706 0.121569
0.835294 0.376471 0.105882
0.878431 0.388235 0.098039
0.227451 0.427451 0.117647
0.235294 0.423529 0.117647
0.258824 0.423529 0.125490
0.274510 0.423529 0.121569
0.298039 0.423529 0.121569
0.321569 0.431373 0.129412
0.349020 0.431373 0.121569
0.380392 0.435294 0.125490
