qml/filters/cineCold.cube
#Generated with IWLTBAP LUT Generator
#Website: http://luts.iwltbap.com
TITLE "FG_CineCold"
#LUT size
LUT_3D_SIZE 25
#LUT data points
0.000000 0.000000 0.000000
0.007843 0.000000 0.003922
0.062745 0.000000 0.000000
0.101961 0.000000 0.003922
0.145098 0.011765 0.007843
0.180392 0.019608 0.003922
0.227451 0.035294 0.019608
0.262745 0.050980 0.011765
0.305882 0.074510 0.019608
0.352941 0.082353 0.031373
0.392157 0.094118 0.039216
0.431373 0.105882 0.050980
0.482353 0.121569 0.062745
0.521569 0.133333 0.074510
0.572549 0.149020 0.098039
0.623529 0.160784 0.113725
0.670588 0.176471 0.121569
0.713725 0.192157 0.141176
0.756863 0.200000 0.160784
0.796078 0.215686 0.168627
0.839216 0.231373 0.184314
0.882353 0.247059 0.200000
0.921569 0.262745 0.219608
0.968627 0.282353 0.239216
0.996078 0.298039 0.250980
0.000000 0.023529 0.007843
0.019608 0.031373 0.003922
0.070588 0.027451 0.003922
0.109804 0.035294 0.007843
0.149020 0.043137 0.000000
0.192157 0.058824 0.015686
0.231373 0.058824 0.007843
0.278431 0.074510 0.019608
0.309804 0.086275 0.027451
0.352941 0.094118 0.031373
0.392157 0.113725 0.043137
0.431373 0.121569 0.062745
0.474510 0.133333 0.066667
0.525490 0.145098 0.082353
0.576471 0.164706 0.098039
0.627451 0.172549 0.113725
0.666667 0.184314 0.125490
0.713725 0.196078 0.149020
0.756863 0.211765 0.160784
0.796078 0.227451 0.176471
0.847059 0.247059 0.196078
0.886275 0.250980 0.200000
0.921569 0.266667 0.211765
0.968627 0.286275 0.243137
1.000000 0.301961 0.254902
0.000000 0.086275 0.000000
0.023529 0.082353 0.007843
0.078431 0.090196 0.015686
0.109804 0.082353 0.003922
0.156863 0.082353 0.015686
0.196078 0.090196 0.015686
0.235294 0.098039 0.023529
0.278431 0.101961 0.027451
0.313725 0.105882 0.035294
0.360784 0.121569 0.047059
0.396078 0.129412 0.054902
0.443137 0.141176 0.070588
0.478431 0.152941 0.082353
0.529412 0.164706 0.098039
0.572549 0.176471 0.105882
0.627451 0.192157 0.125490
0.674510 0.200000 0.137255
0.717647 0.211765 0.156863
0.764706 0.227451 0.164706
0.796078 0.235294 0.180392
0.847059 0.250980 0.200000
0.898039 0.262745 0.215686
0.929412 0.270588 0.227451
0.968627 0.286275 0.243137
0.996078 0.309804 0.250980
0.000000 0.129412 0.007843
0.011765 0.125490 0.007843
0.074510 0.137255 0.023529
0.121569 0.133333 0.019608
0.152941 0.137255 0.023529
0.200000 0.133333 0.031373
0.239216 0.129412 0.043137
0.278431 0.137255 0.043137
0.321569 0.141176 0.050980
0.364706 0.149020 0.066667
0.396078 0.152941 0.070588
0.447059 0.164706 0.078431
0.498039 0.176471 0.094118
0.545098 0.180392 0.109804
0.580392 0.196078 0.121569
0.631373 0.207843 0.129412
0.678431 0.215686 0.145098
0.713725 0.235294 0.160784
0.764706 0.243137 0.176471
0.803922 0.250980 0.184314
0.839216 0.262745 0.196078
0.882353 0.278431 0.215686
0.925490 0.286275 0.227451
0.968627 0.305882 0.247059
0.996078 0.317647 0.254902
0.000000 0.176471 0.023529
0.011765 0.176471 0.027451
0.054902 0.180392 0.027451
0.101961 0.188235 0.035294
0.156863 0.188235 0.035294
0.203922 0.188235 0.043137
0.247059 0.184314 0.050980
0.286275 0.180392 0.066667
0.337255 0.180392 0.082353
0.372549 0.188235 0.086275
0.407843 0.188235 0.090196
0.454902 0.196078 0.109804
0.498039 0.207843 0.113725
0.552941 0.215686 0.125490
0.596078 0.223529 0.137255
0.643137 0.231373 0.156863
0.682353 0.243137 0.164706
0.725490 0.250980 0.176471
0.760784 0.258824 0.184314
0.803922 0.266667 0.196078
0.839216 0.278431 0.207843
0.882353 0.290196 0.223529
0.917647 0.301961 0.235294
0.960784 0.317647 0.243137
1.000000 0.329412 0.262745
0.007843 0.227451 0.050980
0.003922 0.227451 0.058824
0.043137 0.227451 0.047059
0.101961 0.227451 0.066667
0.152941 0.239216 0.058824
0.203922 0.239216 0.070588
0.250980 0.239216 0.078431
0.298039 0.239216 0.086275
0.345098 0.231373 0.098039
0.384314 0.231373 0.109804
0.431373 0.231373 0.117647
0.474510 0.235294 0.125490
0.521569 0.243137 0.133333
0.568627 0.250980 0.145098
0.615686 0.258824 0.156863
0.662745 0.266667 0.164706
0.705882 0.274510 0.184314
0.737255 0.282353 0.192157
0.780392 0.294118 0.203922
0.819608 0.298039 0.207843
0.862745 0.301961 0.231373
0.901961 0.321569 0.243137
0.937255 0.333333 0.254902
0.976471 0.341176 0.262745
0.996078 0.360784 0.282353
0.000000 0.266667 0.074510
0.000000 0.274510 0.070588
0.027451 0.270588 0.086275
0.086275 0.274510 0.078431
0.145098 0.278431 0.078431
0.196078 0.282353 0.098039
0.250980 0.286275 0.101961
0.294118 0.282353 0.105882
0.341176 0.282353 0.121569
0.396078 0.278431 0.137255
0.435294 0.286275 0.145098
0.486275 0.278431 0.156863
0.533333 0.286275 0.164706
0.584314 0.290196 0.168627
0.627451 0.294118 0.180392
0.674510 0.301961 0.184314
0.713725 0.305882 0.200000
0.760784 0.313725 0.211765
0.792157 0.317647 0.215686
0.839216 0.325490 0.223529
0.866667 0.333333 0.239216
0.905882 0.345098 0.250980
0.945098 0.356863 0.270588
0.988235 0.368627 0.282353
0.996078 0.388235 0.286275
0.000000 0.301961 0.098039
0.003922 0.309804 0.105882
0.019608 0.309804 0.101961
0.086275 0.313725 0.113725
0.133333 0.317647 0.113725
0.192157 0.317647 0.125490
0.239216 0.329412 0.125490
0.282353 0.333333 0.125490
0.341176 0.333333 0.141176
0.392157 0.337255 0.152941
0.443137 0.329412 0.156863
0.498039 0.333333 0.176471
0.549020 0.333333 0.180392
0.600000 0.329412 0.200000
0.647059 0.333333 0.203922
0.678431 0.341176 0.211765
0.729412 0.341176 0.227451
0.756863 0.345098 0.223529
0.796078 0.352941 0.235294
0.839216 0.356863 0.243137
0.878431 0.364706 0.254902
0.917647 0.372549 0.262745
0.960784 0.384314 0.282353
0.988235 0.396078 0.298039
1.000000 0.407843 0.294118
0.003922 0.352941 0.125490
0.000000 0.356863 0.125490
0.023529 0.356863 0.133333
0.082353 0.360784 0.141176
0.137255 0.364706 0.137255
0.188235 0.364706 0.141176
0.239216 0.368627 0.152941
0.294118 0.376471 0.152941
0.341176 0.384314 0.164706
0.403922 0.384314 0.168627
0.447059 0.384314 0.180392
0.501961 0.384314 0.180392
0.552941 0.380392 0.196078
0.607843 0.384314 0.207843
0.662745 0.380392 0.223529
0.701961 0.372549 0.231373
0.745098 0.384314 0.243137
0.772549 0.380392 0.247059
0.811765 0.388235 0.254902
0.843137 0.388235 0.258824
0.882353 0.396078 0.266667
0.921569 0.403922 0.282353
0.960784 0.411765 0.290196
0.996078 0.423529 0.301961
1.000000 0.435294 0.313725
0.000000 0.400000 0.152941
0.000000 0.400000 0.152941
0.027451 0.403922 0.156863
0.090196 0.407843 0.168627
0.137255 0.403922 0.160784
0.192157 0.403922 0.160784
0.235294 0.415686 0.172549
0.294118 0.419608 0.172549
0.345098 0.423529 0.176471
0.400000 0.435294 0.188235
0.454902 0.435294 0.207843
0.513725 0.439216 0.203922
0.564706 0.439216 0.215686
0.615686 0.439216 0.223529
0.666667 0.431373 0.235294
0.705882 0.423529 0.243137
0.749020 0.415686 0.262745
0.788235 0.419608 0.270588
0.823529 0.415686 0.270588
0.854902 0.423529 0.278431
0.890196 0.427451 0.286275
0.925490 0.431373 0.294118
0.956863 0.443137 0.294118
0.996078 0.454902 0.313725
1.000000 0.454902 0.325490
0.000000 0.466667 0.188235
0.000000 0.458824 0.184314
0.047059 0.458824 0.188235
0.105882 0.462745 0.192157
0.149020 0.458824 0.192157
0.200000 0.462745 0.192157
0.258824 0.466667 0.200000
0.309804 0.470588 0.196078
0.356863 0.478431 0.203922
0.419608 0.486275 0.211765
0.466667 0.498039 0.211765
0.533333 0.494118 0.223529
0.580392 0.498039 0.235294
0.631373 0.494118 0.243137
0.682353 0.490196 0.258824
0.717647 0.478431 0.262745
0.772549 0.474510 0.282353
0.796078 0.474510 0.286275
0.850980 0.462745 0.298039
0.878431 0.470588 0.301961
0.917647 0.474510 0.301961
0.941176 0.474510 0.325490
0.988235 0.482353 0.325490
1.000000 0.494118 0.337255
1.000000 0.509804 0.352941
0.000000 0.494118 0.196078
0.011765 0.498039 0.200000
0.066667 0.501961 0.200000
0.109804 0.505882 0.200000
0.160784 0.505882 0.207843
0.203922 0.509804 0.203922
0.254902 0.513725 0.215686
0.309804 0.517647 0.211765
0.356863 0.517647 0.211765
0.407843 0.529412 0.223529
0.482353 0.529412 0.231373
0.533333 0.545098 0.235294
0.592157 0.545098 0.247059
0.635294 0.541176 0.250980
0.682353 0.537255 0.262745
0.725490 0.533333 0.274510
0.768627 0.529412 0.286275
0.803922 0.521569 0.294118
0.839216 0.517647 0.298039
0.894118 0.509804 0.325490
0.929412 0.513725 0.329412
0.960784 0.521569 0.341176
0.992157 0.529412 0.349020
1.000000 0.537255 0.364706
1.000000 0.541176 0.372549
0.007843 0.549020 0.215686
0.039216 0.545098 0.211765
0.098039 0.549020 0.223529
0.137255 0.549020 0.219608
0.184314 0.549020 0.223529
0.219608 0.552941 0.219608
0.266667 0.556863 0.223529
0.321569 0.564706 0.223529
0.372549 0.564706 0.235294
0.419608 0.568627 0.235294
0.478431 0.576471 0.250980
0.529412 0.576471 0.254902
0.592157 0.588235 0.266667
0.635294 0.588235 0.258824
0.678431 0.588235 0.282353
0.725490 0.576471 0.290196
0.776471 0.580392 0.301961
0.811765 0.580392 0.313725
0.862745 0.564706 0.329412
0.890196 0.568627 0.333333
0.925490 0.564706 0.349020
0.964706 0.560784 0.368627
0.996078 0.564706 0.372549
1.000000 0.564706 0.384314
1.000000 0.584314 0.400000
0.062745 0.584314 0.235294
0.090196 0.584314 0.227451
0.121569 0.588235 0.235294
0.156863 0.588235 0.239216
0.188235 0.592157 0.235294
0.239216 0.592157 0.239216
0.270588 0.596078 0.235294
0.321569 0.596078 0.243137
0.368627 0.600000 0.247059
0.423529 0.603922 0.250980
0.474510 0.611765 0.258824
0.521569 0.611765 0.258824
0.580392 0.623529 0.262745
0.631373 0.627451 0.274510
0.682353 0.627451 0.282353
0.729412 0.627451 0.294118
0.776471 0.623529 0.313725
0.811765 0.615686 0.329412
0.850980 0.615686 0.333333
0.886275 0.611765 0.341176
0.925490 0.607843 0.360784
0.960784 0.607843 0.372549
1.000000 0.607843 0.388235
0.996078 0.603922 0.400000
1.000000 0.619608 0.419608
0.113725 0.619608 0.247059
0.129412 0.627451 0.254902
0.156863 0.627451 0.247059
0.180392 0.623529 0.254902
0.219608 0.627451 0.254902
0.243137 0.635294 0.250980
0.286275 0.627451 0.247059
0.329412 0.631373 0.262745
0.376471 0.631373 0.262745
0.431373 0.643137 0.274510
0.474510 0.635294 0.258824
0.525490 0.647059 0.278431
0.584314 0.650980 0.282353
0.631373 0.658824 0.294118
0.678431 0.666667 0.301961
0.733333 0.674510 0.309804
0.768627 0.666667 0.325490
0.811765 0.662745 0.345098
0.850980 0.658824 0.349020
0.886275 0.654902 0.356863
0.925490 0.650980 0.376471
0.956863 0.647059 0.384314
0.984314 0.650980 0.400000
0.996078 0.650980 0.411765
1.000000 0.654902 0.435294
0.176471 0.670588 0.270588
0.184314 0.678431 0.278431
0.203922 0.678431 0.274510
0.231373 0.670588 0.278431
0.254902 0.678431 0.270588
0.282353 0.674510 0.282353
0.321569 0.682353 0.286275
0.352941 0.686275 0.290196
0.400000 0.682353 0.290196
0.447059 0.682353 0.290196
0.490196 0.686275 0.305882
0.545098 0.694118 0.305882
0.592157 0.694118 0.305882
0.643137 0.698039 0.313725
0.690196 0.709804 0.317647
0.737255 0.717647 0.325490
0.784314 0.725490 0.337255
0.815686 0.709804 0.352941
0.870588 0.713725 0.372549
0.905882 0.705882 0.380392
0.933333 0.709804 0.407843
0.972549 0.705882 0.411765
0.988235 0.701961 0.431373
1.000000 0.705882 0.443137
0.996078 0.705882 0.458824
0.211765 0.701961 0.286275
0.227451 0.709804 0.282353
0.239216 0.717647 0.290196
0.266667 0.709804 0.294118
0.286275 0.713725 0.294118
0.313725 0.717647 0.298039
0.349020 0.713725 0.294118
0.376471 0.717647 0.305882
0.415686 0.717647 0.301961
0.462745 0.717647 0.309804
0.498039 0.729412 0.313725
0.545098 0.729412 0.321569
0.584314 0.737255 0.321569
0.639216 0.745098 0.341176
0.686275 0.745098 0.333333
0.733333 0.741176 0.345098
0.780392 0.749020 0.360784
0.823529 0.752941 0.360784
0.874510 0.752941 0.400000
0.901961 0.756863 0.400000
0.933333 0.756863 0.431373
0.972549 0.749020 0.431373
1.000000 0.745098 0.454902
1.000000 0.749020 0.466667
1.000000 0.752941 0.474510
0.254902 0.749020 0.317647
0.270588 0.749020 0.313725
0.270588 0.737255 0.305882
0.298039 0.752941 0.325490
0.313725 0.752941 0.313725
0.345098 0.752941 0.317647
0.368627 0.752941 0.309804
0.400000 0.749020 0.317647
0.435294 0.756863 0.321569
0.462745 0.760784 0.325490
0.505882 0.764706 0.333333
0.560784 0.764706 0.333333
0.600000 0.764706 0.333333
0.635294 0.776471 0.345098
0.690196 0.772549 0.368627
0.725490 0.776471 0.364706
0.776471 0.780392 0.380392
0.827451 0.780392 0.388235
0.858824 0.788235 0.396078
0.894118 0.792157 0.411765
0.933333 0.796078 0.435294
0.972549 0.800000 0.450980
1.000000 0.792157 0.470588
1.000000 0.796078 0.490196
1.000000 0.792157 0.498039
0.298039 0.788235 0.325490
0.305882 0.788235 0.329412
0.325490 0.792157 0.337255
0.325490 0.784314 0.337255
0.356863 0.788235 0.337255
0.368627 0.788235 0.333333
0.400000 0.792157 0.345098
0.423529 0.792157 0.341176
0.454902 0.796078 0.345098
0.486275 0.788235 0.341176
0.529412 0.796078 0.352941
0.568627 0.796078 0.352941
0.611765 0.792157 0.368627
0.654902 0.803922 0.376471
0.694118 0.811765 0.372549
0.737255 0.807843 0.384314
0.780392 0.815686 0.403922
0.827451 0.823529 0.407843
0.866667 0.819608 0.427451
0.901961 0.831373 0.431373
0.937255 0.827451 0.439216
0.968627 0.831373 0.478431
1.000000 0.827451 0.478431
1.000000 0.827451 0.494118
0.996078 0.835294 0.513725
0.352941 0.827451 0.360784
0.352941 0.819608 0.349020
0.376471 0.827451 0.360784
0.368627 0.831373 0.349020
0.392157 0.827451 0.356863
0.419608 0.831373 0.364706
0.435294 0.831373 0.360784
0.458824 0.827451 0.376471
0.486275 0.827451 0.368627
0.509804 0.827451 0.364706
0.549020 0.835294 0.376471
0.588235 0.835294 0.384314
0.623529 0.835294 0.396078
0.670588 0.843137 0.400000
0.701961 0.847059 0.403922
0.745098 0.847059 0.415686
0.784314 0.847059 0.427451
0.819608 0.850980 0.423529
0.854902 0.850980 0.435294
0.901961 0.858824 0.439216
0.941176 0.866667 0.458824
0.960784 0.858824 0.478431
1.000000 0.858824 0.490196
1.000000 0.874510 0.509804
1.000000 0.866667 0.525490
0.419608 0.854902 0.380392
0.419608 0.847059 0.376471
0.419608 0.847059 0.380392
0.439216 0.862745 0.384314
0.447059 0.850980 0.392157
0.458824 0.854902 0.384314
0.482353 0.854902 0.392157
0.498039 0.847059 0.384314
0.521569 0.854902 0.388235
0.552941 0.854902 0.392157
0.572549 0.858824 0.400000
0.607843 0.862745 0.400000
0.631373 0.866667 0.411765
0.674510 0.870588 0.419608
0.713725 0.870588 0.431373
0.749020 0.874510 0.439216
0.784314 0.878431 0.447059
0.815686 0.886275 0.454902
0.862745 0.886275 0.462745
0.898039 0.894118 0.478431
0.925490 0.894118 0.470588
0.960784 0.890196 0.498039
0.996078 0.901961 0.509804
0.996078 0.898039 0.533333
1.000000 0.898039 0.556863
0.454902 0.909804 0.419608
0.454902 0.878431 0.400000
0.458824 0.890196 0.407843
0.470588 0.882353 0.407843
0.482353 0.890196 0.407843
0.501961 0.894118 0.407843
0.513725 0.886275 0.407843
0.533333 0.890196 0.415686
0.556863 0.890196 0.431373
0.568627 0.898039 0.419608
0.600000 0.886275 0.423529
0.631373 0.901961 0.435294
0.674510 0.898039 0.447059
0.690196 0.901961 0.431373
0.721569 0.905882 0.450980
0.756863 0.909804 0.458824
0.796078 0.905882 0.462745
0.835294 0.913725 0.478431
0.862745 0.917647 0.482353
0.898039 0.917647 0.513725
0.929412 0.925490 0.501961
0.968627 0.933333 0.521569
0.996078 0.941176 0.525490
0.996078 0.933333 0.556863
1.000000 0.933333 0.588235
0.509804 0.945098 0.435294
0.501961 0.929412 0.431373
0.513725 0.929412 0.435294
0.513725 0.921569 0.431373
0.529412 0.921569 0.435294
0.537255 0.921569 0.439216
0.552941 0.921569 0.443137
0.560784 0.929412 0.443137
0.588235 0.921569 0.447059
0.607843 0.929412 0.443137
0.631373 0.925490 0.450980
0.654902 0.933333 0.454902
0.686275 0.933333 0.466667
0.717647 0.933333 0.466667
0.745098 0.937255 0.474510
0.784314 0.941176 0.494118
0.807843 0.956863 0.490196
0.843137 0.956863 0.501961
0.878431 0.949020 0.517647
0.905882 0.960784 0.525490
0.937255 0.960784 0.537255
0.968627 0.956863 0.552941
0.988235 0.968627 0.560784
1.000000 0.968627 0.580392
0.992157 0.968627 0.592157
0.560784 0.980392 0.470588
0.549020 0.964706 0.470588
0.549020 0.960784 0.458824
0.556863 0.968627 0.462745
0.568627 0.960784 0.466667
0.580392 0.968627 0.470588
0.596078 0.964706 0.474510
0.611765 0.964706 0.478431
0.615686 0.964706 0.470588
0.647059 0.976471 0.490196
0.662745 0.972549 0.474510
0.678431 0.968627 0.494118
0.709804 0.980392 0.490196
0.741176 0.980392 0.505882
0.764706 0.976471 0.505882
0.796078 0.992157 0.517647
0.831373 0.984314 0.525490
0.850980 0.976471 0.541176
0.878431 0.988235 0.545098
0.913725 0.992157 0.549020
0.937255 0.988235 0.572549
0.964706 0.992157 0.576471
1.000000 0.992157 0.600000
1.000000 0.992157 0.600000
1.000000 1.000000 0.635294
0.607843 0.996078 0.498039
0.615686 1.000000 0.509804
0.607843 0.996078 0.501961
0.619608 0.992157 0.513725
0.627451 0.996078 0.509804
0.639216 0.996078 0.521569
0.647059 0.992157 0.509804
0.666667 0.996078 0.517647
0.666667 1.000000 0.521569
0.694118 1.000000 0.533333
0.701961 0.996078 0.521569
0.729412 1.000000 0.533333
0.745098 1.000000 0.529412
0.764706 1.000000 0.545098
0.788235 0.996078 0.549020
0.827451 1.000000 0.564706
0.847059 1.000000 0.564706
0.870588 1.000000 0.580392
0.894118 1.000000 0.588235
0.937255 1.000000 0.611765
0.937255 1.000000 0.611765
0.964706 1.000000 0.615686
0.988235 1.000000 0.635294
1.000000 0.996078 0.643137
0.996078 1.000000 0.650980
0.000000 0.000000 0.027451
0.011765 0.000000 0.035294
0.066667 0.000000 0.039216
0.113725 0.000000 0.027451
0.149020 0.007843 0.023529
0.192157 0.039216 0.050980
0.235294 0.054902 0.062745
0.266667 0.074510 0.058824
0.317647 0.082353 0.074510
0.364706 0.098039 0.086275
0.400000 0.105882 0.086275
0.443137 0.129412 0.101961
0.501961 0.137255 0.109804
0.537255 0.149020 0.125490
0.584314 0.164706 0.133333
0.635294 0.176471 0.141176
0.674510 0.188235 0.156863
0.717647 0.196078 0.168627
0.756863 0.215686 0.176471
0.803922 0.223529 0.192157
0.843137 0.239216 0.215686
0.894118 0.254902 0.227451
0.925490 0.266667 0.227451
0.972549 0.282353 0.250980
1.000000 0.301961 0.270588
0.003922 0.023529 0.035294
0.019608 0.035294 0.047059
0.062745 0.039216 0.039216
0.113725 0.039216 0.047059
0.156863 0.058824 0.043137
0.192157 0.070588 0.062745
0.247059 0.074510 0.070588
0.282353 0.090196 0.074510
0.321569 0.105882 0.086275
0.364706 0.117647 0.090196
0.403922 0.129412 0.098039
0.450980 0.141176 0.113725
0.494118 0.152941 0.117647
0.549020 0.168627 0.133333
0.588235 0.180392 0.137255
0.631373 0.184314 0.141176
0.682353 0.196078 0.164706
0.729412 0.211765 0.172549
0.768627 0.219608 0.192157
0.807843 0.239216 0.188235
0.847059 0.250980 0.207843
0.882353 0.254902 0.215686
0.933333 0.274510 0.235294
0.976471 0.294118 0.258824
0.996078 0.309804 0.266667
0.000000 0.082353 0.047059
0.023529 0.082353 0.054902
0.062745 0.090196 0.058824
0.117647 0.090196 0.058824
0.160784 0.094118 0.066667
0.207843 0.101961 0.074510
0.247059 0.113725 0.078431
0.290196 0.117647 0.082353
0.325490 0.133333 0.078431
0.372549 0.137255 0.105882
0.415686 0.141176 0.101961
0.458824 0.156863 0.117647
0.498039 0.168627 0.125490
0.545098 0.184314 0.141176
0.592157 0.192157 0.152941
0.639216 0.200000 0.156863
0.682353 0.215686 0.168627
0.729412 0.219608 0.180392
0.760784 0.239216 0.188235
0.803922 0.239216 0.203922
0.850980 0.254902 0.211765
0.894118 0.274510 0.223529
0.933333 0.286275 0.243137
0.972549 0.298039 0.250980
1.000000 0.313725 0.262745
0.003922 0.141176 0.062745
0.011765 0.141176 0.058824
0.062745 0.145098 0.078431
0.117647 0.145098 0.074510
0.172549 0.149020 0.086275
0.215686 0.145098 0.090196
0.262745 0.145098 0.105882
0.294118 0.145098 0.094118
0.345098 0.164706 0.113725
0.376471 0.168627 0.113725
0.419608 0.176471 0.125490
0.466667 0.184314 0.129412
0.505882 0.196078 0.145098
0.549020 0.200000 0.152941
0.600000 0.211765 0.152941
0.647059 0.219608 0.168627
0.694118 0.235294 0.168627
0.729412 0.247059 0.188235
0.772549 0.247059 0.203922
0.815686 0.258824 0.211765
0.858824 0.274510 0.219608
0.890196 0.282353 0.227451
0.937255 0.298039 0.247059
0.976471 0.313725 0.262745
1.000000 0.321569 0.266667
0.003922 0.196078 0.082353
0.003922 0.196078 0.082353
0.062745 0.196078 0.090196
0.113725 0.203922 0.094118
0.168627 0.203922 0.090196
0.219608 0.203922 0.098039
0.266667 0.203922 0.113725
0.301961 0.196078 0.121569
0.352941 0.203922 0.129412
0.384314 0.200000 0.129412
0.435294 0.211765 0.145098
0.478431 0.215686 0.149020
0.525490 0.227451 0.164706
0.572549 0.231373 0.164706
0.611765 0.239216 0.168627
0.658824 0.243137 0.188235
0.698039 0.254902 0.184314
0.741176 0.266667 0.200000
0.776471 0.270588 0.207843
0.815686 0.278431 0.215686
0.854902 0.286275 0.227451
0.894118 0.301961 0.235294
0.941176 0.309804 0.247059
0.968627 0.329412 0.262745
1.000000 0.329412 0.270588
0.000000 0.223529 0.094118
0.007843 0.231373 0.101961
0.043137 0.227451 0.101961
0.090196 0.223529 0.090196
0.149020 0.231373 0.109804
0.200000 0.239216 0.105882
0.239216 0.235294 0.117647
0.286275 0.231373 0.117647
0.333333 0.231373 0.133333
0.376471 0.235294 0.149020
0.423529 0.235294 0.156863
0.474510 0.235294 0.160784
0.509804 0.250980 0.164706
0.560784 0.254902 0.168627
0.607843 0.262745 0.184314
0.650980 0.274510 0.188235
0.698039 0.278431 0.207843
0.741176 0.286275 0.203922
0.784314 0.286275 0.219608
0.819608 0.305882 0.227451
0.850980 0.317647 0.235294
0.886275 0.321569 0.247059
0.937255 0.333333 0.254902
0.968627 0.349020 0.266667
1.000000 0.364706 0.286275
0.000000 0.266667 0.105882
0.000000 0.262745 0.109804
0.023529 0.266667 0.105882
0.090196 0.274510 0.109804
0.137255 0.274510 0.117647
0.196078 0.274510 0.125490
0.243137 0.282353 0.137255
0.290196 0.278431 0.141176
0.337255 0.278431 0.149020
0.384314 0.282353 0.160784
0.431373 0.278431 0.164706
0.482353 0.278431 0.184314
0.529412 0.286275 0.188235
0.580392 0.290196 0.192157
0.627451 0.298039 0.203922
0.658824 0.305882 0.203922
0.705882 0.305882 0.215686
0.749020 0.317647 0.227451
0.788235 0.329412 0.231373
0.823529 0.329412 0.243137
0.862745 0.341176 0.250980
0.905882 0.349020 0.262745
0.945098 0.356863 0.270588
0.980392 0.368627 0.282353
0.996078 0.384314 0.298039
0.000000 0.309804 0.133333
0.000000 0.309804 0.133333
0.035294 0.317647 0.133333
0.086275 0.317647 0.137255
0.137255 0.317647 0.137255
0.192157 0.321569 0.137255
0.239216 0.325490 0.145098
0.294118 0.329412 0.160784
0.337255 0.329412 0.168627
0.388235 0.337255 0.164706
0.443137 0.333333 0.188235
0.490196 0.333333 0.192157
0.545098 0.337255 0.215686
0.592157 0.329412 0.215686
0.635294 0.333333 0.215686
0.678431 0.337255 0.227451
0.721569 0.341176 0.235294
0.756863 0.345098 0.239216
0.800000 0.352941 0.243137
0.835294 0.360784 0.254902
0.874510 0.364706 0.262745
0.909804 0.372549 0.270588
0.949020 0.376471 0.278431
0.984314 0.392157 0.294118
1.000000 0.407843 0.309804
0.000000 0.352941 0.152941
0.003922 0.349020 0.160784
0.027451 0.356863 0.156863
0.082353 0.356863 0.152941
0.133333 0.360784 0.160784
0.180392 0.364706 0.160784
0.239216 0.364706 0.168627
0.294118 0.368627 0.180392
0.341176 0.380392 0.176471
0.388235 0.380392 0.188235
0.435294 0.380392 0.188235
0.498039 0.384314 0.211765
0.552941 0.384314 0.215686
0.607843 0.384314 0.223529
0.650980 0.376471 0.243137
0.694118 0.380392 0.243137
0.729412 0.380392 0.254902
0.768627 0.380392 0.250980
0.811765 0.384314 0.262745
0.839216 0.388235 0.266667
0.882353 0.400000 0.278431
0.917647 0.403922 0.286275
0.949020 0.415686 0.298039
0.996078 0.419608 0.309804
1.000000 0.443137 0.325490
0.000000 0.392157 0.180392
0.000000 0.403922 0.172549
0.027451 0.400000 0.172549
0.086275 0.403922 0.176471
0.137255 0.400000 0.180392
0.184314 0.407843 0.192157
0.239216 0.407843 0.188235
0.301961 0.415686 0.196078
0.349020 0.419608 0.192157
0.403922 0.423529 0.203922
0.450980 0.431373 0.211765
0.501961 0.435294 0.223529
0.560784 0.439216 0.227451
0.603922 0.435294 0.239216
0.650980 0.423529 0.239216
0.701961 0.423529 0.254902
0.745098 0.415686 0.266667
0.780392 0.419608 0.274510
0.819608 0.419608 0.278431
0.850980 0.419608 0.274510
0.882353 0.427451 0.290196
0.921569 0.435294 0.301961
0.952941 0.443137 0.309804
0.996078 0.447059 0.317647
1.000000 0.466667 0.333333
0.000000 0.454902 0.200000
0.000000 0.454902 0.200000
0.043137 0.454902 0.196078
0.101961 0.454902 0.203922
0.145098 0.458824 0.203922
0.200000 0.458824 0.207843
0.247059 0.462745 0.207843
0.305882 0.470588 0.211765
