qml/filters/cineCold.cube
#Generated with IWLTBAP LUT Generator
#Website: http://luts.iwltbap.com
TITLE "FG_CineCold"
#LUT size
LUT_3D_SIZE 5
#LUT data points
0.000000 0.000000 0.000000
0.227451 0.035294 0.019608
0.482353 0.121569 0.062745
0.756863 0.200000 0.160784
0.996078 0.298039 0.250980
0.000000 0.266667 0.074510
0.250980 0.286275 0.101961
0.533333 0.286275 0.164706
0.792157 0.317647 0.215686
0.996078 0.388235 0.286275
0.007843 0.549020 0.215686
0.266667 0.556863 0.223529
0.592157 0.588235 0.266667
0.862745 0.564706 0.329412
1.000000 0.584314 0.400000
0.298039 0.788235 0.325490
0.400000 0.792157 0.345098
0.611765 0.792157 0.368627
0.866667 0.819608 0.427451
0.996078 0.835294 0.513725
0.607843 0.996078 0.498039
0.647059 0.992157 0.509804
0.745098 1.000000 0.529412
0.894118 1.000000 0.588235
0.996078 1.000000 0.650980
0.000000 0.003922 0.266667
0.219608 0.027451 0.294118
0.478431 0.117647 0.278431
0.713725 0.250980 0.305882
0.980392 0.329412 0.345098
0.000000 0.262745 0.286275
0.207843 0.266667 0.294118
0.478431 0.298039 0.309804
0.745098 0.341176 0.325490
1.000000 0.407843 0.364706
0.003922 0.529412 0.329412
0.254902 0.541176 0.333333
0.568627 0.568627 0.356863
0.839216 0.568627 0.415686
1.000000 0.603922 0.462745
0.329412 0.784314 0.403922
0.411765 0.780392 0.403922
0.615686 0.792157 0.427451
0.854902 0.815686 0.466667
0.996078 0.823529 0.545098
0.603922 1.000000 0.537255
0.643137 0.996078 0.541176
0.752941 1.000000 0.564706
0.901961 1.000000 0.615686
0.992157 1.000000 0.670588
0.007843 0.050980 0.505882
0.168627 0.082353 0.505882
0.490196 0.113725 0.501961
0.737255 0.156863 0.501961
0.988235 0.219608 0.470588
0.000000 0.290196 0.466667
0.172549 0.270588 0.490196
0.478431 0.282353 0.490196
0.737255 0.298039 0.494118
0.988235 0.337255 0.486275
0.000000 0.517647 0.498039
0.243137 0.529412 0.501961
0.509804 0.517647 0.498039
0.764706 0.552941 0.521569
1.000000 0.607843 0.545098
0.349020 0.764706 0.521569
0.431373 0.768627 0.529412
0.603922 0.776471 0.537255
0.847059 0.811765 0.580392
1.000000 0.835294 0.654902
0.584314 1.000000 0.615686
0.627451 1.000000 0.615686
0.737255 1.000000 0.635294
0.890196 0.996078 0.678431
0.996078 1.000000 0.737255
0.007843 0.113725 0.713725
0.098039 0.129412 0.705882
0.474510 0.145098 0.694118
0.756863 0.160784 0.690196
0.988235 0.219608 0.682353
0.000000 0.278431 0.670588
0.109804 0.286275 0.674510
0.462745 0.290196 0.674510
0.741176 0.294118 0.670588
0.988235 0.337255 0.690196
0.027451 0.529412 0.674510
0.266667 0.537255 0.666667
0.494118 0.513725 0.678431
0.749020 0.521569 0.686275
1.000000 0.537255 0.694118
0.298039 0.756863 0.682353
0.388235 0.756863 0.686275
0.564706 0.752941 0.690196
0.780392 0.749020 0.698039
1.000000 0.803922 0.737255
0.513725 1.000000 0.749020
0.564706 1.000000 0.752941
0.678431 0.996078 0.756863
0.870588 1.000000 0.792157
1.000000 1.000000 0.850980
0.000000 0.168627 0.996078
0.000000 0.172549 1.000000
0.435294 0.180392 0.996078
0.752941 0.188235 0.984314
0.996078 0.243137 0.976471
0.007843 0.294118 0.976471
0.000000 0.294118 0.976471
0.423529 0.298039 0.976471
0.756863 0.301961 0.980392
0.996078 0.356863 0.988235
0.000000 0.560784 0.976471
0.000000 0.545098 0.980392
0.415686 0.513725 0.984314
0.749020 0.517647 0.988235
1.000000 0.541176 1.000000
0.113725 0.815686 1.000000
0.270588 0.807843 1.000000
0.490196 0.792157 0.996078
0.729412 0.745098 0.992157
0.996078 0.756863 0.988235
0.450980 1.000000 0.996078
0.509804 0.996078 0.996078
0.627451 0.996078 0.992157
0.823529 0.996078 0.992157
1.000000 1.000000 1.000000
