qml/filters/cineOrangeTeal.cube
#Generated with IWLTBAP LUT Generator
#Website: http://luts.iwltbap.com
TITLE "FGCineTealOrange2"
#LUT size
LUT_3D_SIZE 5
#LUT data points
0.105882 0.101961 0.086275
0.266667 0.113725 0.086275
0.615686 0.196078 0.000000
0.952941 0.325490 0.000000
0.996078 0.388235 0.000000
0.121569 0.164706 0.109804
0.286275 0.192157 0.090196
0.647059 0.239216 0.000000
0.945098 0.345098 0.000000
1.000000 0.400000 0.003922
0.184314 0.368627 0.196078
0.337255 0.423529 0.180392
0.690196 0.474510 0.019608
0.949020 0.458824 0.000000
0.996078 0.435294 0.003922
0.250980 0.666667 0.384314
0.368627 0.686275 0.368627
0.670588 0.741176 0.270588
0.952941 0.666667 0.113725
1.000000 0.596078 0.003922
0.564706 0.886275 0.690196
0.611765 0.898039 0.713725
0.721569 0.913725 0.658824
0.972549 0.917647 0.541176
0.992157 0.788235 0.349020
0.000000 0.149020 0.200000
0.231373 0.145098 0.196078
0.549020 0.227451 0.145098
0.917647 0.329412 0.000000
1.000000 0.388235 0.000000
0.133333 0.207843 0.200000
0.247059 0.207843 0.200000
0.560784 0.262745 0.172549
0.898039 0.345098 0.035294
1.000000 0.400000 0.003922
0.243137 0.400000 0.305882
0.282353 0.396078 0.278431
0.611765 0.447059 0.227451
0.898039 0.439216 0.125490
1.000000 0.427451 0.000000
0.262745 0.654902 0.435294
0.341176 0.658824 0.427451
0.611765 0.705882 0.376471
0.921569 0.670588 0.290196
1.000000 0.600000 0.109804
0.564706 0.890196 0.717647
0.588235 0.890196 0.717647
0.701961 0.898039 0.698039
0.945098 0.917647 0.611765
1.000000 0.792157 0.439216
0.015686 0.337255 0.521569
0.003922 0.282353 0.533333
0.631373 0.337255 0.592157
0.854902 0.439216 0.447059
1.000000 0.521569 0.400000
0.003922 0.372549 0.509804
0.000000 0.372549 0.509804
0.588235 0.411765 0.572549
0.815686 0.494118 0.450980
1.000000 0.525490 0.411765
0.000000 0.501961 0.545098
0.247059 0.509804 0.533333
0.505882 0.498039 0.501961
0.831373 0.529412 0.458824
1.000000 0.545098 0.384314
0.372549 0.733333 0.690196
0.462745 0.737255 0.686275
0.529412 0.698039 0.592157
0.858824 0.721569 0.572549
1.000000 0.666667 0.482353
0.674510 0.898039 0.831373
0.678431 0.905882 0.819608
0.674510 0.894118 0.788235
0.878431 0.921569 0.752941
1.000000 0.850980 0.674510
0.003922 0.533333 0.823529
0.007843 0.521569 0.835294
0.403922 0.529412 0.854902
0.854902 0.674510 0.866667
0.960784 0.772549 0.835294
0.003922 0.556863 0.807843
0.000000 0.556863 0.807843
0.419608 0.568627 0.823529
0.839216 0.705882 0.850980
0.949020 0.776471 0.827451
0.000000 0.639216 0.800000
0.000000 0.639216 0.800000
0.392157 0.635294 0.780392
0.800000 0.737255 0.839216
0.937255 0.792157 0.819608
0.176471 0.772549 0.823529
0.317647 0.772549 0.823529
0.525490 0.776471 0.815686
0.721569 0.752941 0.764706
0.980392 0.792157 0.776471
0.627451 0.937255 0.913725
0.674510 0.929412 0.913725
0.741176 0.925490 0.894118
0.792157 0.913725 0.854902
1.000000 0.913725 0.862745
0.003922 0.682353 0.972549
0.000000 0.705882 0.972549
0.568627 0.780392 0.968627
0.811765 0.839216 0.952941
0.949020 0.905882 0.968627
0.000000 0.705882 0.952941
0.000000 0.725490 0.964706
0.556863 0.784314 0.968627
0.807843 0.850980 0.960784
0.952941 0.905882 0.960784
0.000000 0.745098 0.972549
0.003922 0.741176 0.960784
0.454902 0.800000 0.945098
0.800000 0.854902 0.956863
0.945098 0.913725 0.956863
0.007843 0.831373 0.968627
0.082353 0.835294 0.964706
0.443137 0.850980 0.956863
0.729412 0.874510 0.949020
0.952941 0.945098 0.964706
0.568627 0.933333 0.964706
0.611765 0.941176 0.980392
0.709804 0.949020 0.968627
0.843137 0.952941 0.968627
0.952941 0.968627 0.972549
