qml/filters/cineLessContrast.cube
#Generated with IWLTBAP LUT Generator
#Website: http://luts.iwltbap.com
TITLE "FGCineBasic"
#LUT size
LUT_3D_SIZE 9
#LUT data points
0.105882 0.113725 0.109804
0.188235 0.109804 0.113725
0.274510 0.121569 0.094118
0.372549 0.137255 0.098039
0.462745 0.164706 0.101961
0.552941 0.192157 0.109804
0.670588 0.227451 0.109804
0.780392 0.250980 0.101961
0.901961 0.286275 0.078431
0.133333 0.192157 0.101961
0.196078 0.184314 0.109804
0.274510 0.164706 0.109804
0.360784 0.176471 0.113725
0.454902 0.192157 0.117647
0.552941 0.215686 0.117647
0.658824 0.243137 0.117647
0.772549 0.270588 0.094118
0.909804 0.301961 0.090196
0.168627 0.278431 0.121569
0.219608 0.278431 0.109804
0.305882 0.290196 0.105882
0.380392 0.262745 0.121569
0.435294 0.243137 0.125490
0.537255 0.262745 0.121569
0.643137 0.286275 0.121569
0.764706 0.309804 0.109804
0.890196 0.345098 0.082353
0.219608 0.380392 0.105882
0.258824 0.380392 0.105882
0.349020 0.396078 0.105882
0.443137 0.403922 0.125490
0.521569 0.380392 0.145098
0.545098 0.337255 0.141176
0.611765 0.325490 0.125490
0.741176 0.356863 0.117647
0.866667 0.384314 0.082353
0.278431 0.501961 0.098039
0.309804 0.498039 0.098039
0.380392 0.509804 0.098039
0.478431 0.525490 0.094118
0.588235 0.545098 0.125490
0.674510 0.513725 0.160784
0.701961 0.458824 0.141176
0.725490 0.419608 0.105882
0.854902 0.439216 0.070588
0.325490 0.627451 0.078431
0.356863 0.627451 0.070588
0.419608 0.627451 0.062745
0.505882 0.635294 0.074510
0.623529 0.658824 0.098039
0.729412 0.678431 0.125490
0.839216 0.662745 0.196078
0.874510 0.600000 0.156863
0.921569 0.560784 0.094118
0.384314 0.756863 0.011765
0.407843 0.764706 0.015686
0.466667 0.749020 0.015686
0.549020 0.756863 0.003922
0.650980 0.768627 0.050980
0.760784 0.784314 0.117647
0.870588 0.800000 0.180392
0.968627 0.784314 0.278431
1.000000 0.725490 0.207843
0.439216 0.874510 0.000000
0.478431 0.878431 0.000000
0.513725 0.874510 0.007843
0.603922 0.878431 0.003922
0.678431 0.882353 0.003922
0.784314 0.894118 0.086275
0.898039 0.905882 0.172549
0.996078 0.913725 0.258824
0.996078 0.866667 0.352941
0.517647 1.000000 0.000000
0.541176 0.992157 0.000000
0.580392 0.992157 0.000000
0.643137 0.996078 0.000000
0.729412 0.992157 0.000000
0.811765 1.000000 0.086275
0.909804 0.996078 0.188235
0.992157 0.992157 0.262745
1.000000 0.992157 0.345098
0.105882 0.109804 0.180392
0.188235 0.101961 0.184314
0.282353 0.117647 0.172549
0.384314 0.152941 0.176471
0.462745 0.184314 0.168627
0.572549 0.207843 0.176471
0.682353 0.243137 0.164706
0.784314 0.262745 0.164706
0.913725 0.298039 0.141176
0.121569 0.184314 0.184314
0.188235 0.180392 0.200000
0.266667 0.188235 0.184314
0.368627 0.196078 0.184314
0.466667 0.215686 0.176471
0.560784 0.235294 0.172549
0.670588 0.254902 0.168627
0.784314 0.278431 0.152941
0.901961 0.313725 0.149020
0.145098 0.278431 0.184314
0.203922 0.282353 0.184314
0.305882 0.274510 0.184314
0.372549 0.262745 0.180392
0.443137 0.258824 0.180392
0.533333 0.266667 0.176471
0.647059 0.294118 0.160784
0.772549 0.313725 0.152941
0.901961 0.341176 0.145098
0.192157 0.388235 0.172549
0.247059 0.380392 0.172549
0.333333 0.392157 0.168627
0.439216 0.400000 0.192157
0.517647 0.372549 0.196078
0.533333 0.329412 0.172549
0.627451 0.341176 0.172549
0.741176 0.360784 0.160784
0.878431 0.388235 0.137255
0.243137 0.513725 0.156863
0.290196 0.498039 0.152941
0.360784 0.501961 0.149020
0.466667 0.517647 0.164706
0.588235 0.545098 0.192157
0.670588 0.517647 0.223529
0.698039 0.462745 0.180392
0.721569 0.411765 0.152941
0.878431 0.439216 0.109804
0.313725 0.627451 0.145098
0.333333 0.631373 0.137255
0.407843 0.627451 0.129412
0.501961 0.639216 0.137255
0.603922 0.650980 0.156863
0.733333 0.678431 0.188235
0.831373 0.654902 0.250980
0.874510 0.592157 0.192157
0.929412 0.552941 0.129412
0.368627 0.752941 0.121569
0.400000 0.756863 0.109804
0.454902 0.752941 0.113725
0.533333 0.749020 0.105882
0.635294 0.772549 0.129412
0.756863 0.784314 0.168627
0.870588 0.800000 0.227451
0.960784 0.776471 0.321569
0.996078 0.729412 0.239216
0.443137 0.886275 0.086275
0.474510 0.874510 0.098039
0.509804 0.878431 0.086275
0.588235 0.882353 0.074510
0.682353 0.882353 0.101961
0.780392 0.894118 0.149020
0.894118 0.905882 0.219608
0.988235 0.905882 0.298039
0.996078 0.874510 0.380392
0.513725 0.996078 0.090196
0.537255 0.992157 0.086275
0.576471 0.992157 0.090196
0.635294 0.996078 0.082353
0.729412 0.992157 0.090196
0.819608 0.996078 0.152941
0.913725 1.000000 0.231373
0.996078 0.992157 0.294118
1.000000 0.988235 0.380392
0.105882 0.101961 0.274510
0.172549 0.105882 0.278431
0.278431 0.117647 0.282353
0.380392 0.129412 0.274510
0.490196 0.133333 0.262745
0.600000 0.160784 0.247059
0.701961 0.266667 0.262745
0.811765 0.286275 0.258824
0.937255 0.305882 0.243137
0.117647 0.184314 0.286275
0.180392 0.180392 0.274510
0.270588 0.184314 0.282353
0.368627 0.192157 0.274510
0.494118 0.192157 0.270588
0.596078 0.247059 0.262745
0.690196 0.278431 0.262745
0.803922 0.301961 0.250980
0.929412 0.325490 0.247059
0.121569 0.270588 0.270588
0.188235 0.270588 0.282353
0.274510 0.282353 0.278431
0.372549 0.278431 0.270588
0.462745 0.286275 0.266667
0.564706 0.305882 0.258824
0.670588 0.309804 0.250980
0.792157 0.337255 0.247059
0.913725 0.364706 0.235294
0.098039 0.392157 0.270588
0.164706 0.388235 0.258824
0.294118 0.388235 0.262745
0.419608 0.400000 0.286275
0.482353 0.360784 0.278431
0.529412 0.341176 0.250980
0.647059 0.360784 0.243137
0.768627 0.376471 0.235294
0.898039 0.403922 0.215686
0.188235 0.509804 0.258824
0.239216 0.498039 0.254902
0.325490 0.505882 0.254902
0.439216 0.513725 0.254902
0.568627 0.537255 0.286275
0.643137 0.505882 0.290196
0.670588 0.443137 0.254902
0.733333 0.419608 0.219608
0.878431 0.450980 0.196078
0.270588 0.627451 0.247059
0.294118 0.631373 0.243137
0.372549 0.623529 0.243137
0.474510 0.635294 0.227451
0.592157 0.658824 0.258824
0.713725 0.674510 0.290196
0.815686 0.650980 0.329412
0.854902 0.588235 0.270588
0.898039 0.541176 0.192157
0.325490 0.752941 0.243137
0.360784 0.752941 0.227451
0.427451 0.756863 0.219608
0.517647 0.752941 0.219608
0.635294 0.760784 0.231373
0.745098 0.784314 0.270588
0.862745 0.800000 0.321569
0.976471 0.788235 0.396078
1.000000 0.729412 0.313725
0.400000 0.874510 0.215686
0.427451 0.878431 0.227451
0.486275 0.874510 0.203922
0.568627 0.874510 0.200000
0.662745 0.882353 0.219608
0.772549 0.894118 0.254902
0.882353 0.901961 0.305882
0.984314 0.905882 0.384314
0.996078 0.874510 0.450980
0.490196 1.000000 0.219608
0.509804 0.996078 0.219608
0.549020 0.996078 0.215686
0.615686 1.000000 0.219608
0.705882 0.996078 0.215686
0.803922 0.996078 0.250980
0.905882 0.996078 0.305882
0.992157 1.000000 0.368627
1.000000 0.984314 0.435294
0.105882 0.109804 0.372549
0.164706 0.113725 0.384314
0.266667 0.121569 0.384314
0.368627 0.125490 0.380392
0.490196 0.137255 0.388235
0.603922 0.141176 0.376471
0.713725 0.141176 0.356863
0.843137 0.145098 0.309804
0.952941 0.290196 0.341176
0.113725 0.180392 0.384314
0.172549 0.180392 0.380392
0.274510 0.180392 0.384314
0.372549 0.184314 0.380392
0.486275 0.180392 0.376471
0.603922 0.188235 0.368627
0.725490 0.192157 0.349020
0.847059 0.243137 0.337255
0.956863 0.337255 0.352941
0.117647 0.270588 0.384314
0.180392 0.274510 0.376471
0.282353 0.270588 0.392157
0.368627 0.274510 0.376471
0.482353 0.278431 0.376471
0.600000 0.282353 0.356863
0.713725 0.309804 0.352941
0.823529 0.372549 0.360784
0.949020 0.384314 0.349020
0.113725 0.380392 0.384314
0.172549 0.384314 0.384314
0.270588 0.384314 0.376471
0.372549 0.380392 0.376471
0.470588 0.388235 0.376471
0.576471 0.392157 0.364706
0.682353 0.400000 0.345098
0.800000 0.419608 0.352941
0.925490 0.423529 0.333333
0.054902 0.505882 0.372549
0.133333 0.501961 0.368627
0.247059 0.505882 0.364706
0.396078 0.501961 0.364706
0.537255 0.517647 0.392157
0.603922 0.482353 0.372549
0.635294 0.435294 0.329412
0.776471 0.450980 0.325490
0.898039 0.474510 0.301961
0.050980 0.627451 0.341176
0.192157 0.627451 0.356863
0.301961 0.623529 0.360784
0.427451 0.631373 0.349020
0.564706 0.643137 0.364706
0.698039 0.670588 0.403922
0.780392 0.635294 0.419608
0.819608 0.564706 0.345098
0.874510 0.521569 0.254902
0.247059 0.760784 0.352941
0.294118 0.760784 0.341176
0.364706 0.749020 0.345098
0.478431 0.756863 0.349020
0.596078 0.756863 0.341176
0.721569 0.780392 0.384314
0.843137 0.800000 0.439216
0.941176 0.776471 0.486275
1.000000 0.721569 0.376471
0.345098 0.878431 0.345098
0.368627 0.878431 0.352941
0.439216 0.878431 0.337255
0.537255 0.882353 0.341176
0.635294 0.882353 0.333333
0.760784 0.886275 0.349020
0.870588 0.905882 0.415686
0.980392 0.909804 0.478431
1.000000 0.890196 0.552941
0.431373 1.000000 0.333333
0.454902 1.000000 0.337255
0.513725 0.996078 0.333333
0.592157 0.996078 0.333333
0.686275 0.996078 0.341176
0.792157 0.992157 0.345098
0.894118 0.996078 0.403922
0.992157 0.996078 0.458824
1.000000 0.992157 0.525490
0.113725 0.113725 0.490196
0.164706 0.121569 0.490196
0.262745 0.125490 0.486275
0.376471 0.129412 0.494118
0.482353 0.133333 0.494118
0.600000 0.133333 0.494118
0.717647 0.133333 0.494118
0.843137 0.129412 0.482353
0.972549 0.113725 0.443137
0.117647 0.184314 0.490196
0.184314 0.176471 0.501961
0.266667 0.184314 0.494118
0.372549 0.188235 0.501961
0.490196 0.188235 0.494118
0.596078 0.188235 0.490196
0.717647 0.192157 0.494118
0.843137 0.184314 0.478431
0.968627 0.176471 0.435294
0.109804 0.262745 0.486275
0.172549 0.270588 0.498039
0.262745 0.270588 0.501961
0.372549 0.274510 0.498039
0.478431 0.270588 0.490196
0.592157 0.274510 0.505882
0.721569 0.278431 0.498039
0.839216 0.270588 0.470588
0.984314 0.270588 0.431373
0.101961 0.380392 0.498039
0.149020 0.384314 0.494118
0.254902 0.376471 0.490196
0.364706 0.380392 0.494118
0.482353 0.376471 0.501961
0.596078 0.384314 0.494118
0.729412 0.384314 0.478431
0.850980 0.384314 0.462745
0.945098 0.447059 0.474510
0.062745 0.498039 0.501961
0.141176 0.498039 0.501961
0.247059 0.498039 0.501961
0.360784 0.501961 0.501961
0.478431 0.501961 0.501961
0.580392 0.498039 0.486275
0.694118 0.501961 0.474510
0.815686 0.501961 0.466667
0.933333 0.513725 0.450980
0.000000 0.627451 0.494118
0.047059 0.623529 0.490196
0.207843 0.623529 0.482353
0.333333 0.627451 0.474510
0.505882 0.623529 0.474510
0.654902 0.654902 0.513725
0.725490 0.603922 0.494118
0.760784 0.521569 0.400000
0.901961 0.552941 0.388235
0.007843 0.749020 0.450980
0.000000 0.756863 0.447059
0.176471 0.752941 0.466667
0.388235 0.752941 0.474510
0.541176 0.760784 0.466667
0.690196 0.768627 0.490196
0.819608 0.796078 0.552941
0.913725 0.768627 0.556863
0.984314 0.694118 0.462745
0.203922 0.886275 0.474510
0.247059 0.878431 0.470588
0.345098 0.882353 0.458824
0.458824 0.878431 0.462745
0.584314 0.882353 0.458824
0.725490 0.886275 0.478431
0.854902 0.901961 0.517647
0.968627 0.905882 0.600000
0.992157 0.894118 0.643137
0.349020 1.000000 0.466667
0.376471 1.000000 0.462745
0.439216 0.996078 0.462745
0.529412 1.000000 0.466667
0.639216 1.000000 0.462745
0.756863 0.992157 0.458824
0.882353 1.000000 0.505882
0.972549 1.000000 0.552941
1.000000 0.984314 0.607843
0.105882 0.121569 0.603922
0.172549 0.125490 0.619608
0.254902 0.129412 0.611765
0.372549 0.129412 0.619608
0.486275 0.129412 0.611765
0.600000 0.133333 0.603922
0.721569 0.125490 0.619608
0.839216 0.113725 0.619608
0.984314 0.101961 0.611765
0.109804 0.180392 0.611765
0.164706 0.180392 0.607843
0.266667 0.180392 0.607843
0.368627 0.180392 0.611765
0.482353 0.184314 0.619608
0.603922 0.180392 0.619608
0.717647 0.176471 0.611765
0.839216 0.172549 0.619608
0.980392 0.164706 0.619608
0.105882 0.266667 0.619608
0.152941 0.270588 0.615686
0.254902 0.270588 0.611765
0.376471 0.262745 0.615686
0.486275 0.266667 0.615686
0.603922 0.266667 0.615686
0.713725 0.266667 0.611765
0.847059 0.262745 0.615686
0.972549 0.258824 0.611765
0.062745 0.376471 0.623529
0.145098 0.372549 0.619608
0.247059 0.372549 0.611765
0.360784 0.376471 0.623529
0.486275 0.376471 0.607843
0.603922 0.376471 0.615686
0.721569 0.376471 0.603922
0.843137 0.380392 0.615686
0.984314 0.372549 0.596078
0.003922 0.490196 0.619608
0.117647 0.494118 0.619608
0.227451 0.498039 0.627451
0.345098 0.498039 0.611765
0.474510 0.494118 0.611765
0.600000 0.494118 0.623529
0.721569 0.501961 0.615686
0.858824 0.494118 0.607843
0.980392 0.498039 0.568627
0.007843 0.615686 0.623529
0.035294 0.611765 0.611765
0.207843 0.623529 0.615686
0.333333 0.623529 0.627451
0.470588 0.619608 0.623529
0.596078 0.619608 0.611765
0.713725 0.619608 0.611765
0.819608 0.623529 0.596078
0.956863 0.619608 0.576471
0.003922 0.745098 0.619608
0.000000 0.749020 0.615686
0.149020 0.749020 0.615686
0.313725 0.749020 0.611765
0.454902 0.752941 0.603922
0.631373 0.756863 0.603922
0.788235 0.788235 0.654902
0.866667 0.729412 0.619608
0.933333 0.627451 0.470588
0.011765 0.882353 0.588235
0.003922 0.878431 0.584314
0.000000 0.882353 0.584314
0.282353 0.886275 0.588235
0.509804 0.886275 0.603922
0.674510 0.882353 0.600000
0.823529 0.890196 0.623529
0.949020 0.913725 0.698039
1.000000 0.878431 0.701961
0.000000 1.000000 0.560784
0.007843 0.992157 0.572549
0.290196 1.000000 0.596078
0.450980 1.000000 0.603922
0.580392 1.000000 0.592157
0.713725 1.000000 0.588235
0.847059 0.996078 0.607843
0.964706 0.996078 0.662745
1.000000 0.992157 0.713725
0.105882 0.117647 0.733333
0.168627 0.125490 0.745098
0.258824 0.125490 0.737255
0.376471 0.125490 0.737255
0.490196 0.121569 0.741176
0.600000 0.125490 0.733333
0.725490 0.117647 0.737255
0.854902 0.109804 0.745098
0.980392 0.094118 0.737255
0.090196 0.176471 0.745098
0.152941 0.188235 0.733333
0.270588 0.188235 0.741176
0.380392 0.176471 0.749020
0.482353 0.180392 0.745098
0.603922 0.176471 0.737255
0.729412 0.168627 0.733333
0.831373 0.168627 0.729412
0.976471 0.152941 0.745098
0.066667 0.270588 0.741176
0.141176 0.266667 0.741176
0.262745 0.262745 0.741176
0.364706 0.266667 0.737255
0.482353 0.270588 0.749020
0.600000 0.266667 0.741176
0.721569 0.258824 0.741176
0.847059 0.254902 0.737255
0.976471 0.254902 0.749020
0.003922 0.364706 0.749020
0.094118 0.372549 0.733333
0.219608 0.372549 0.737255
0.349020 0.372549 0.741176
0.478431 0.372549 0.737255
0.592157 0.368627 0.737255
0.725490 0.368627 0.741176
0.847059 0.372549 0.745098
0.980392 0.372549 0.749020
0.000000 0.490196 0.741176
0.035294 0.486275 0.733333
0.196078 0.490196 0.745098
0.333333 0.494118 0.745098
0.474510 0.490196 0.745098
0.600000 0.486275 0.745098
0.725490 0.490196 0.741176
0.850980 0.490196 0.745098
0.980392 0.494118 0.737255
0.000000 0.619608 0.745098
0.000000 0.619608 0.745098
0.172549 0.623529 0.737255
0.321569 0.619608 0.745098
0.454902 0.611765 0.741176
0.592157 0.615686 0.749020
0.725490 0.619608 0.749020
0.850980 0.619608 0.737255
0.988235 0.619608 0.713725
0.000000 0.745098 0.745098
0.000000 0.745098 0.737255
0.121569 0.749020 0.749020
0.305882 0.752941 0.752941
0.439216 0.752941 0.749020
0.584314 0.749020 0.741176
0.721569 0.745098 0.737255
0.835294 0.745098 0.725490
0.968627 0.737255 0.705882
0.003922 0.870588 0.729412
0.007843 0.874510 0.737255
0.000000 0.870588 0.741176
0.278431 0.878431 0.745098
0.431373 0.886275 0.741176
0.572549 0.878431 0.725490
0.756863 0.882353 0.729412
0.925490 0.909804 0.796078
0.992157 0.862745 0.741176
0.011765 0.996078 0.717647
0.000000 1.000000 0.717647
0.003922 0.996078 0.709804
0.254902 1.000000 0.713725
0.435294 0.996078 0.705882
0.643137 1.000000 0.729412
0.800000 1.000000 0.737255
0.941176 0.996078 0.764706
1.000000 0.992157 0.815686
0.074510 0.125490 0.870588
0.164706 0.121569 0.866667
0.270588 0.125490 0.874510
0.364706 0.121569 0.862745
0.490196 0.117647 0.870588
0.607843 0.109804 0.874510
0.729412 0.101961 0.870588
0.847059 0.086275 0.870588
0.980392 0.062745 0.866667
0.070588 0.176471 0.870588
0.149020 0.176471 0.874510
0.250980 0.172549 0.866667
0.364706 0.172549 0.866667
0.482353 0.172549 0.866667
0.611765 0.168627 0.874510
0.725490 0.156863 0.866667
0.843137 0.156863 0.866667
0.980392 0.141176 0.878431
0.011765 0.262745 0.878431
0.121569 0.266667 0.866667
0.247059 0.266667 0.870588
0.360784 0.262745 0.862745
0.490196 0.258824 0.870588
0.607843 0.258824 0.870588
0.729412 0.254902 0.870588
0.854902 0.250980 0.870588
0.976471 0.243137 0.866667
0.011765 0.356863 0.878431
0.023529 0.368627 0.862745
0.203922 0.376471 0.866667
0.352941 0.372549 0.874510
0.474510 0.372549 0.870588
0.596078 0.364706 0.866667
0.725490 0.368627 0.874510
0.854902 0.364706 0.874510
0.980392 0.360784 0.866667
0.011765 0.490196 0.862745
0.007843 0.482353 0.862745
0.160784 0.486275 0.862745
0.317647 0.482353 0.874510
0.462745 0.486275 0.870588
0.592157 0.482353 0.874510
0.725490 0.490196 0.874510
0.854902 0.486275 0.874510
0.992157 0.482353 0.874510
0.011765 0.611765 0.866667
0.007843 0.619608 0.878431
0.117647 0.611765 0.870588
0.294118 0.611765 0.870588
0.450980 0.611765 0.870588
0.584314 0.615686 0.870588
0.717647 0.611765 0.874510
0.850980 0.611765 0.874510
0.984314 0.603922 0.874510
0.000000 0.745098 0.870588
0.003922 0.749020 0.874510
0.043137 0.745098 0.870588
0.286275 0.741176 0.870588
0.435294 0.745098 0.866667
0.576471 0.745098 0.878431
0.713725 0.749020 0.878431
0.858824 0.745098 0.870588
0.980392 0.749020 0.874510
0.000000 0.874510 0.870588
0.000000 0.874510 0.874510
0.000000 0.874510 0.874510
0.262745 0.874510 0.870588
0.427451 0.874510 0.874510
0.576471 0.874510 0.866667
0.713725 0.878431 0.870588
0.858824 0.874510 0.870588
0.984314 0.870588 0.854902
0.000000 1.000000 0.874510
0.000000 1.000000 0.866667
0.011765 0.996078 0.866667
0.247059 1.000000 0.870588
0.427451 1.000000 0.870588
0.572549 1.000000 0.866667
0.721569 1.000000 0.858824
0.898039 0.996078 0.874510
1.000000 1.000000 0.921569
0.054902 0.113725 0.996078
0.141176 0.117647 0.988235
0.254902 0.117647 1.000000
0.372549 0.109804 1.000000
0.486275 0.105882 0.996078
0.615686 0.101961 0.996078
0.737255 0.086275 0.996078
0.858824 0.062745 1.000000
0.984314 0.027451 1.000000
0.027451 0.168627 0.992157
0.125490 0.172549 0.996078
0.247059 0.176471 1.000000
0.364706 0.168627 0.996078
0.490196 0.164706 1.000000
0.607843 0.160784 0.992157
0.737255 0.152941 1.000000
0.854902 0.137255 1.000000
0.984314 0.125490 0.984314
0.000000 0.266667 1.000000
0.101961 0.262745 1.000000
0.235294 0.266667 1.000000
0.352941 0.254902 0.996078
0.490196 0.258824 1.000000
0.603922 0.254902 1.000000
0.729412 0.250980 1.000000
0.858824 0.243137 1.000000
0.984314 0.235294 0.992157
0.000000 0.368627 1.000000
0.003922 0.364706 0.996078
0.200000 0.364706 1.000000
0.333333 0.364706 0.996078
0.470588 0.368627 1.000000
0.600000 0.364706 1.000000
0.729412 0.356863 0.992157
0.850980 0.356863 0.992157
0.984314 0.352941 1.000000
0.000000 0.482353 0.996078
0.003922 0.482353 1.000000
0.109804 0.478431 1.000000
0.301961 0.474510 0.996078
0.450980 0.478431 1.000000
0.584314 0.478431 1.000000
0.721569 0.478431 1.000000
0.854902 0.478431 1.000000
0.988235 0.470588 1.000000
0.000000 0.615686 1.000000
0.003922 0.611765 1.000000
0.003922 0.615686 0.980392
0.274510 0.607843 1.000000
0.427451 0.603922 0.992157
0.576471 0.607843 0.996078
0.713725 0.603922 1.000000
0.858824 0.603922 1.000000
0.988235 0.603922 1.000000
0.000000 0.749020 1.000000
0.003922 0.745098 1.000000
0.015686 0.745098 1.000000
0.254902 0.737255 1.000000
0.427451 0.737255 1.000000
0.564706 0.741176 1.000000
0.709804 0.737255 1.000000
0.854902 0.733333 1.000000
0.988235 0.745098 1.000000
0.007843 0.878431 1.000000
0.003922 0.870588 1.000000
0.000000 0.874510 1.000000
0.239216 0.874510 1.000000
0.407843 0.874510 1.000000
0.564706 0.874510 0.996078
0.713725 0.870588 1.000000
0.854902 0.870588 1.000000
0.992157 0.870588 1.000000
0.000000 0.996078 0.996078
0.000000 1.000000 1.000000
0.000000 1.000000 1.000000
0.250980 0.996078 0.988235
0.427451 1.000000 1.000000
0.568627 1.000000 0.996078
0.721569 1.000000 0.996078
0.862745 0.996078 1.000000
1.000000 1.000000 1.000000
