qml/filters/cineOrangeTeal.cube
#Generated with IWLTBAP LUT Generator
#Website: http://luts.iwltbap.com
TITLE "FGCineTealOrange2"
#LUT size
LUT_3D_SIZE 25
#LUT data points
0.105882 0.101961 0.086275
0.105882 0.101961 0.094118
0.113725 0.098039 0.086275
0.141176 0.101961 0.094118
0.184314 0.101961 0.082353
0.227451 0.113725 0.090196
0.266667 0.113725 0.086275
0.309804 0.113725 0.078431
0.360784 0.129412 0.074510
0.415686 0.137255 0.058824
0.486275 0.156863 0.047059
0.549020 0.176471 0.019608
0.615686 0.196078 0.000000
0.690196 0.223529 0.000000
0.760784 0.247059 0.000000
0.823529 0.266667 0.000000
0.870588 0.290196 0.000000
0.909804 0.305882 0.000000
0.952941 0.325490 0.000000
0.988235 0.333333 0.000000
1.000000 0.345098 0.000000
0.992157 0.356863 0.000000
1.000000 0.364706 0.007843
1.000000 0.380392 0.007843
0.996078 0.388235 0.000000
0.121569 0.101961 0.090196
0.109804 0.094118 0.090196
0.113725 0.109804 0.094118
0.156863 0.094118 0.094118
0.184314 0.109804 0.094118
0.215686 0.109804 0.082353
0.266667 0.117647 0.078431
0.305882 0.117647 0.070588
0.356863 0.133333 0.066667
0.407843 0.149020 0.062745
0.478431 0.160784 0.047059
0.533333 0.172549 0.019608
0.596078 0.188235 0.003922
0.678431 0.219608 0.007843
0.752941 0.243137 0.000000
0.819608 0.278431 0.003922
0.862745 0.294118 0.007843
0.901961 0.305882 0.000000
0.941176 0.325490 0.000000
0.988235 0.337255 0.000000
1.000000 0.345098 0.000000
0.992157 0.356863 0.000000
0.996078 0.368627 0.007843
1.000000 0.380392 0.000000
0.996078 0.388235 0.000000
0.113725 0.098039 0.086275
0.117647 0.094118 0.094118
0.133333 0.105882 0.082353
0.164706 0.109804 0.098039
0.196078 0.105882 0.086275
0.223529 0.109804 0.086275
0.262745 0.121569 0.074510
0.309804 0.125490 0.086275
0.352941 0.133333 0.074510
0.407843 0.145098 0.070588
0.462745 0.160784 0.043137
0.533333 0.172549 0.027451
0.592157 0.192157 0.000000
0.670588 0.219608 0.000000
0.733333 0.250980 0.000000
0.800000 0.274510 0.003922
0.850980 0.290196 0.000000
0.898039 0.305882 0.000000
0.941176 0.321569 0.000000
0.968627 0.337255 0.000000
0.996078 0.341176 0.000000
1.000000 0.356863 0.003922
0.996078 0.368627 0.007843
1.000000 0.376471 0.000000
1.000000 0.388235 0.015686
0.109804 0.113725 0.082353
0.117647 0.113725 0.094118
0.137255 0.121569 0.086275
0.168627 0.117647 0.086275
0.188235 0.121569 0.082353
0.235294 0.121569 0.090196
0.266667 0.125490 0.078431
0.309804 0.129412 0.078431
0.352941 0.133333 0.074510
0.407843 0.149020 0.062745
0.458824 0.164706 0.043137
0.525490 0.184314 0.023529
0.592157 0.200000 0.003922
0.658824 0.227451 0.003922
0.729412 0.254902 0.000000
0.792157 0.274510 0.000000
0.835294 0.290196 0.003922
0.882353 0.298039 0.000000
0.921569 0.317647 0.003922
0.960784 0.325490 0.000000
0.996078 0.341176 0.000000
1.000000 0.352941 0.000000
0.996078 0.360784 0.000000
0.996078 0.376471 0.000000
1.000000 0.384314 0.003922
0.113725 0.125490 0.090196
0.121569 0.125490 0.094118
0.133333 0.133333 0.094118
0.160784 0.137255 0.074510
0.203922 0.133333 0.086275
0.231373 0.141176 0.082353
0.266667 0.141176 0.082353
0.305882 0.137255 0.074510
0.356863 0.141176 0.070588
0.407843 0.156863 0.058824
0.458824 0.168627 0.039216
0.521569 0.180392 0.011765
0.600000 0.203922 0.000000
0.658824 0.227451 0.003922
0.721569 0.247059 0.000000
0.776471 0.270588 0.003922
0.827451 0.286275 0.003922
0.870588 0.301961 0.007843
0.909804 0.317647 0.000000
0.941176 0.329412 0.000000
0.988235 0.337255 0.000000
1.000000 0.352941 0.000000
0.996078 0.360784 0.000000
1.000000 0.372549 0.003922
1.000000 0.384314 0.003922
0.125490 0.149020 0.101961
0.137255 0.149020 0.105882
0.149020 0.156863 0.101961
0.172549 0.160784 0.094118
0.207843 0.156863 0.086275
0.243137 0.160784 0.078431
0.286275 0.168627 0.074510
0.337255 0.176471 0.074510
0.384314 0.176471 0.050980
0.439216 0.180392 0.043137
0.505882 0.188235 0.019608
0.576471 0.211765 0.011765
0.650980 0.235294 0.007843
0.717647 0.254902 0.003922
0.772549 0.282353 0.000000
0.839216 0.301961 0.000000
0.886275 0.309804 0.000000
0.917647 0.325490 0.007843
0.945098 0.345098 0.007843
0.980392 0.356863 0.007843
0.996078 0.360784 0.003922
0.996078 0.368627 0.000000
1.000000 0.380392 0.000000
1.000000 0.392157 0.000000
1.000000 0.403922 0.007843
0.121569 0.164706 0.109804
0.141176 0.172549 0.121569
0.156863 0.172549 0.113725
0.176471 0.172549 0.094118
0.200000 0.180392 0.094118
0.250980 0.180392 0.101961
0.286275 0.192157 0.090196
0.341176 0.196078 0.082353
0.388235 0.196078 0.066667
0.447059 0.203922 0.050980
0.513725 0.207843 0.015686
0.580392 0.235294 0.000000
0.647059 0.239216 0.000000
0.713725 0.262745 0.000000
0.772549 0.282353 0.000000
0.823529 0.301961 0.000000
0.866667 0.313725 0.003922
0.909804 0.329412 0.000000
0.945098 0.345098 0.000000
0.988235 0.356863 0.003922
0.996078 0.360784 0.000000
0.996078 0.376471 0.000000
0.996078 0.384314 0.011765
1.000000 0.388235 0.015686
1.000000 0.400000 0.003922
0.141176 0.192157 0.125490
0.145098 0.188235 0.125490
0.149020 0.192157 0.125490
0.184314 0.203922 0.125490
0.207843 0.207843 0.113725
0.235294 0.215686 0.098039
0.278431 0.211765 0.094118
0.333333 0.211765 0.090196
0.388235 0.235294 0.082353
0.454902 0.243137 0.054902
0.505882 0.250980 0.031373
0.576471 0.266667 0.003922
0.643137 0.274510 0.000000
0.701961 0.278431 0.003922
0.756863 0.290196 0.000000
0.819608 0.305882 0.000000
0.858824 0.317647 0.000000
0.901961 0.329412 0.003922
0.937255 0.345098 0.003922
0.972549 0.360784 0.000000
1.000000 0.364706 0.000000
1.000000 0.376471 0.007843
0.992157 0.392157 0.000000
1.000000 0.400000 0.000000
1.000000 0.403922 0.000000
0.149020 0.215686 0.145098
0.152941 0.207843 0.141176
0.172549 0.219608 0.141176
0.172549 0.219608 0.125490
0.219608 0.227451 0.133333
0.243137 0.239216 0.121569
0.290196 0.250980 0.113725
0.337255 0.250980 0.105882
0.388235 0.262745 0.078431
0.458824 0.274510 0.054902
0.513725 0.286275 0.035294
0.576471 0.294118 0.003922
0.639216 0.301961 0.000000
0.705882 0.309804 0.000000
0.756863 0.317647 0.000000
0.803922 0.317647 0.000000
0.843137 0.325490 0.003922
0.890196 0.337255 0.000000
0.925490 0.349020 0.000000
0.964706 0.356863 0.003922
0.996078 0.368627 0.007843
1.000000 0.376471 0.007843
0.996078 0.388235 0.000000
1.000000 0.396078 0.003922
1.000000 0.403922 0.000000
0.160784 0.239216 0.141176
0.160784 0.239216 0.141176
0.180392 0.239216 0.149020
0.192157 0.254902 0.145098
0.215686 0.258824 0.141176
0.254902 0.270588 0.133333
0.294118 0.282353 0.113725
0.345098 0.290196 0.105882
0.400000 0.298039 0.098039
0.462745 0.309804 0.086275
0.517647 0.321569 0.050980
0.572549 0.325490 0.015686
0.639216 0.337255 0.000000
0.698039 0.345098 0.000000
0.741176 0.345098 0.000000
0.784314 0.349020 0.000000
0.835294 0.345098 0.000000
0.874510 0.345098 0.000000
0.917647 0.349020 0.000000
0.952941 0.360784 0.003922
0.984314 0.376471 0.000000
0.992157 0.384314 0.000000
1.000000 0.392157 0.000000
1.000000 0.400000 0.003922
0.992157 0.403922 0.000000
0.176471 0.313725 0.180392
0.180392 0.313725 0.180392
0.196078 0.321569 0.176471
0.223529 0.325490 0.180392
0.247059 0.329412 0.168627
0.282353 0.345098 0.160784
0.333333 0.364706 0.133333
0.396078 0.380392 0.125490
0.466667 0.376471 0.113725
0.521569 0.392157 0.090196
0.584314 0.400000 0.047059
0.650980 0.411765 0.003922
0.705882 0.415686 0.000000
0.764706 0.419608 0.000000
0.807843 0.411765 0.003922
0.847059 0.411765 0.000000
0.882353 0.411765 0.000000
0.925490 0.403922 0.000000
0.960784 0.392157 0.003922
0.992157 0.384314 0.000000
1.000000 0.388235 0.000000
1.000000 0.400000 0.000000
1.000000 0.411765 0.000000
0.992157 0.419608 0.000000
0.992157 0.431373 0.000000
0.180392 0.337255 0.192157
0.184314 0.345098 0.188235
0.196078 0.345098 0.184314
0.223529 0.360784 0.192157
0.254902 0.360784 0.184314
0.298039 0.376471 0.176471
0.337255 0.400000 0.156863
0.392157 0.400000 0.145098
0.447059 0.415686 0.121569
0.505882 0.423529 0.098039
0.584314 0.427451 0.082353
0.643137 0.439216 0.039216
0.698039 0.450980 0.000000
0.745098 0.450980 0.000000
0.800000 0.447059 0.000000
0.843137 0.443137 0.007843
0.878431 0.443137 0.000000
0.917647 0.435294 0.000000
0.952941 0.427451 0.000000
0.984314 0.419608 0.003922
1.000000 0.411765 0.000000
1.000000 0.411765 0.000000
1.000000 0.407843 0.000000
0.992157 0.427451 0.007843
1.000000 0.431373 0.000000
0.184314 0.368627 0.196078
0.188235 0.380392 0.196078
0.211765 0.380392 0.211765
0.223529 0.396078 0.203922
0.250980 0.403922 0.196078
0.282353 0.419608 0.192157
0.337255 0.423529 0.180392
0.388235 0.439216 0.160784
0.439216 0.458824 0.145098
0.501961 0.462745 0.113725
0.556863 0.458824 0.094118
0.635294 0.466667 0.054902
0.690196 0.474510 0.019608
0.741176 0.470588 0.000000
0.788235 0.482353 0.003922
0.835294 0.474510 0.007843
0.870588 0.470588 0.000000
0.917647 0.470588 0.000000
0.949020 0.458824 0.000000
0.980392 0.450980 0.000000
1.000000 0.439216 0.000000
0.996078 0.435294 0.000000
1.000000 0.419608 0.003922
1.000000 0.431373 0.000000
0.996078 0.435294 0.003922
0.192157 0.403922 0.211765
0.207843 0.411765 0.223529
0.219608 0.411765 0.223529
0.227451 0.431373 0.231373
0.250980 0.439216 0.211765
0.294118 0.443137 0.211765
0.341176 0.458824 0.207843
0.372549 0.466667 0.172549
0.431373 0.482353 0.168627
0.498039 0.498039 0.145098
0.556863 0.509804 0.117647
0.619608 0.498039 0.090196
0.678431 0.501961 0.050980
0.737255 0.505882 0.003922
0.784314 0.505882 0.003922
0.831373 0.505882 0.003922
0.866667 0.501961 0.000000
0.905882 0.494118 0.000000
0.941176 0.490196 0.000000
0.972549 0.478431 0.003922
1.000000 0.470588 0.007843
0.996078 0.458824 0.003922
0.996078 0.454902 0.000000
0.996078 0.443137 0.000000
1.000000 0.439216 0.000000
0.196078 0.439216 0.239216
0.207843 0.454902 0.239216
0.207843 0.454902 0.239216
0.231373 0.462745 0.235294
0.262745 0.474510 0.247059
0.290196 0.478431 0.235294
0.329412 0.490196 0.223529
0.372549 0.501961 0.215686
0.427451 0.513725 0.192157
0.494118 0.529412 0.180392
0.556863 0.541176 0.149020
0.611765 0.549020 0.113725
0.658824 0.537255 0.082353
0.721569 0.533333 0.039216
0.780392 0.533333 0.000000
0.819608 0.533333 0.000000
0.854902 0.529412 0.000000
0.890196 0.529412 0.007843
0.925490 0.517647 0.003922
0.964706 0.509804 0.000000
1.000000 0.505882 0.000000
1.000000 0.494118 0.000000
1.000000 0.478431 0.000000
1.000000 0.466667 0.000000
0.992157 0.454902 0.000000
0.235294 0.592157 0.329412
0.239216 0.588235 0.329412
0.250980 0.584314 0.321569
0.270588 0.588235 0.317647
0.301961 0.588235 0.317647
0.329412 0.596078 0.309804
0.372549 0.600000 0.298039
0.423529 0.607843 0.286275
0.478431 0.619608 0.266667
0.525490 0.627451 0.239216
0.592157 0.639216 0.207843
0.658824 0.650980 0.184314
0.717647 0.643137 0.141176
0.776471 0.631373 0.113725
0.827451 0.615686 0.082353
0.870588 0.607843 0.054902
0.898039 0.600000 0.000000
0.937255 0.584314 0.000000
0.964706 0.572549 0.000000
0.996078 0.564706 0.000000
1.000000 0.552941 0.000000
0.992157 0.545098 0.000000
1.000000 0.525490 0.003922
1.000000 0.517647 0.003922
0.996078 0.505882 0.003922
0.227451 0.576471 0.309804
0.239216 0.592157 0.317647
0.258824 0.592157 0.329412
0.258824 0.600000 0.333333
0.290196 0.611765 0.321569
0.321569 0.619608 0.325490
0.364706 0.623529 0.325490
0.411765 0.639216 0.301961
0.454902 0.647059 0.290196
0.509804 0.654902 0.278431
0.572549 0.654902 0.243137
0.643137 0.678431 0.219608
0.705882 0.674510 0.184314
0.760784 0.670588 0.160784
0.807843 0.654902 0.141176
0.862745 0.635294 0.105882
0.898039 0.631373 0.070588
0.933333 0.615686 0.015686
0.960784 0.607843 0.000000
0.992157 0.596078 0.000000
1.000000 0.584314 0.003922
0.996078 0.576471 0.000000
1.000000 0.560784 0.000000
0.996078 0.549020 0.000000
0.992157 0.541176 0.003922
0.243137 0.623529 0.352941
0.250980 0.623529 0.356863
0.254902 0.635294 0.356863
0.270588 0.631373 0.345098
0.305882 0.650980 0.360784
0.341176 0.643137 0.360784
0.364706 0.658824 0.333333
0.415686 0.662745 0.337255
0.458824 0.670588 0.325490
0.505882 0.678431 0.298039
0.560784 0.686275 0.290196
0.631373 0.701961 0.262745
0.690196 0.713725 0.227451
0.752941 0.721569 0.196078
0.800000 0.694118 0.172549
0.847059 0.682353 0.156863
0.886275 0.662745 0.117647
0.929412 0.650980 0.086275
0.964706 0.639216 0.039216
0.992157 0.631373 0.007843
1.000000 0.615686 0.000000
0.992157 0.603922 0.003922
1.000000 0.592157 0.007843
0.996078 0.572549 0.003922
1.000000 0.568627 0.000000
0.250980 0.666667 0.384314
0.266667 0.662745 0.388235
0.258824 0.674510 0.384314
0.301961 0.666667 0.388235
0.305882 0.682353 0.384314
0.341176 0.686275 0.388235
0.368627 0.686275 0.368627
0.411765 0.701961 0.368627
0.454902 0.705882 0.356863
0.501961 0.713725 0.337255
0.560784 0.725490 0.333333
0.615686 0.729412 0.298039
0.670588 0.741176 0.270588
0.745098 0.749020 0.250980
0.796078 0.749020 0.215686
0.835294 0.725490 0.192157
0.878431 0.705882 0.176471
0.917647 0.686275 0.145098
0.952941 0.666667 0.113725
0.980392 0.654902 0.054902
1.000000 0.639216 0.000000
1.000000 0.627451 0.000000
1.000000 0.619608 0.003922
1.000000 0.600000 0.000000
1.000000 0.596078 0.003922
0.274510 0.698039 0.403922
0.286275 0.705882 0.423529
0.301961 0.705882 0.419608
0.317647 0.709804 0.423529
0.333333 0.717647 0.423529
0.356863 0.717647 0.415686
0.384314 0.725490 0.415686
0.423529 0.733333 0.407843
0.462745 0.737255 0.392157
0.505882 0.745098 0.380392
0.552941 0.749020 0.368627
0.603922 0.752941 0.356863
0.658824 0.768627 0.337255
0.713725 0.764706 0.309804
0.784314 0.768627 0.274510
0.839216 0.768627 0.243137
0.870588 0.741176 0.203922
0.913725 0.721569 0.180392
0.956863 0.709804 0.164706
0.984314 0.686275 0.145098
0.996078 0.678431 0.086275
0.996078 0.658824 0.050980
1.000000 0.650980 0.015686
1.000000 0.631373 0.003922
1.000000 0.619608 0.003922
0.431373 0.803922 0.568627
0.431373 0.803922 0.568627
0.415686 0.807843 0.564706
0.423529 0.811765 0.556863
0.435294 0.807843 0.549020
0.450980 0.807843 0.537255
0.466667 0.803922 0.525490
0.501961 0.803922 0.521569
0.525490 0.815686 0.521569
0.556863 0.807843 0.501961
0.596078 0.811765 0.486275
0.639216 0.819608 0.474510
0.682353 0.819608 0.450980
0.741176 0.827451 0.435294
0.796078 0.831373 0.403922
0.843137 0.831373 0.372549
0.890196 0.815686 0.341176
0.925490 0.792157 0.309804
0.960784 0.764706 0.282353
0.996078 0.745098 0.258824
1.000000 0.729412 0.223529
0.988235 0.713725 0.188235
1.000000 0.694118 0.156863
1.000000 0.682353 0.121569
0.996078 0.670588 0.035294
0.403922 0.807843 0.529412
0.415686 0.807843 0.564706
0.439216 0.815686 0.564706
0.443137 0.819608 0.560784
0.443137 0.819608 0.568627
0.458824 0.819608 0.564706
0.474510 0.827451 0.545098
0.501961 0.827451 0.552941
0.537255 0.835294 0.552941
0.556863 0.831373 0.545098
0.600000 0.839216 0.533333
0.631373 0.843137 0.505882
0.682353 0.850980 0.501961
0.729412 0.850980 0.482353
0.780392 0.850980 0.458824
0.831373 0.854902 0.431373
0.882353 0.854902 0.407843
0.921569 0.835294 0.364706
0.952941 0.811765 0.333333
0.984314 0.784314 0.317647
1.000000 0.764706 0.294118
0.996078 0.745098 0.262745
0.996078 0.729412 0.239216
1.000000 0.713725 0.200000
1.000000 0.701961 0.160784
0.450980 0.839216 0.607843
0.466667 0.839216 0.603922
0.478431 0.835294 0.603922
0.482353 0.847059 0.623529
0.478431 0.847059 0.611765
0.494118 0.854902 0.607843
0.517647 0.854902 0.615686
0.537255 0.850980 0.611765
0.552941 0.850980 0.596078
0.584314 0.858824 0.584314
0.611765 0.858824 0.572549
0.650980 0.862745 0.568627
0.678431 0.862745 0.541176
0.721569 0.870588 0.529412
0.768627 0.870588 0.521569
0.819608 0.874510 0.501961
0.866667 0.878431 0.466667
0.913725 0.874510 0.431373
0.956863 0.854902 0.411765
0.980392 0.823529 0.388235
1.000000 0.796078 0.349020
1.000000 0.780392 0.313725
1.000000 0.756863 0.282353
1.000000 0.745098 0.243137
1.000000 0.729412 0.215686
0.509804 0.858824 0.639216
0.513725 0.862745 0.650980
0.521569 0.878431 0.654902
0.525490 0.874510 0.662745
0.537255 0.866667 0.654902
0.541176 0.874510 0.650980
0.556863 0.866667 0.643137
0.580392 0.866667 0.650980
0.596078 0.874510 0.654902
0.611765 0.878431 0.639216
0.627451 0.886275 0.643137
0.654902 0.886275 0.619608
0.694118 0.890196 0.611765
0.721569 0.886275 0.596078
0.772549 0.894118 0.588235
0.803922 0.890196 0.556863
0.854902 0.898039 0.529412
0.905882 0.898039 0.501961
0.952941 0.886275 0.470588
0.984314 0.858824 0.423529
1.000000 0.831373 0.403922
0.988235 0.803922 0.364706
0.992157 0.788235 0.321569
1.000000 0.768627 0.309804
1.000000 0.752941 0.254902
0.564706 0.886275 0.690196
0.552941 0.894118 0.686275
0.576471 0.894118 0.717647
0.596078 0.894118 0.701961
0.592157 0.898039 0.705882
0.600000 0.898039 0.709804
0.611765 0.898039 0.713725
0.615686 0.898039 0.709804
0.627451 0.901961 0.698039
0.635294 0.901961 0.694118
0.658824 0.905882 0.690196
0.690196 0.905882 0.678431
0.721569 0.913725 0.658824
0.745098 0.905882 0.639216
0.772549 0.913725 0.631373
0.811765 0.921569 0.623529
0.866667 0.917647 0.603922
0.925490 0.917647 0.576471
0.972549 0.917647 0.541176
0.992157 0.894118 0.501961
1.000000 0.854902 0.482353
1.000000 0.835294 0.435294
0.996078 0.815686 0.380392
0.992157 0.796078 0.352941
0.992157 0.788235 0.349020
0.121569 0.105882 0.094118
0.117647 0.101961 0.098039
0.121569 0.098039 0.098039
0.141176 0.098039 0.090196
0.180392 0.098039 0.086275
0.223529 0.109804 0.086275
0.262745 0.117647 0.078431
0.305882 0.121569 0.082353
0.352941 0.129412 0.070588
0.407843 0.149020 0.062745
0.474510 0.164706 0.047059
0.529412 0.180392 0.015686
0.596078 0.200000 0.000000
0.674510 0.223529 0.000000
0.745098 0.247059 0.000000
0.811765 0.270588 0.000000
0.862745 0.294118 0.007843
0.898039 0.305882 0.003922
0.933333 0.321569 0.000000
0.976471 0.337255 0.000000
0.992157 0.345098 0.000000
1.000000 0.352941 0.003922
1.000000 0.364706 0.007843
1.000000 0.380392 0.007843
0.996078 0.388235 0.000000
0.113725 0.090196 0.090196
0.121569 0.098039 0.105882
0.105882 0.101961 0.086275
0.149020 0.105882 0.090196
0.176471 0.101961 0.074510
0.227451 0.105882 0.086275
0.262745 0.109804 0.090196
0.305882 0.113725 0.086275
0.349020 0.125490 0.066667
0.407843 0.145098 0.070588
0.466667 0.152941 0.047059
0.529412 0.180392 0.031373
0.592157 0.192157 0.003922
0.666667 0.227451 0.007843
0.737255 0.247059 0.000000
0.800000 0.266667 0.000000
0.858824 0.290196 0.003922
0.905882 0.305882 0.007843
0.937255 0.317647 0.000000
0.976471 0.333333 0.011765
0.996078 0.345098 0.007843
0.996078 0.360784 0.003922
1.000000 0.364706 0.000000
0.996078 0.376471 0.000000
0.996078 0.396078 0.000000
0.109804 0.094118 0.090196
0.117647 0.094118 0.094118
0.129412 0.117647 0.090196
0.156863 0.101961 0.090196
0.188235 0.105882 0.086275
0.223529 0.109804 0.086275
0.247059 0.121569 0.074510
0.298039 0.125490 0.082353
0.341176 0.133333 0.070588
0.400000 0.141176 0.078431
0.450980 0.160784 0.054902
0.517647 0.172549 0.027451
0.588235 0.196078 0.000000
0.662745 0.223529 0.003922
0.721569 0.247059 0.000000
0.788235 0.266667 0.000000
0.843137 0.286275 0.000000
0.886275 0.301961 0.003922
0.933333 0.317647 0.007843
0.964706 0.333333 0.000000
1.000000 0.345098 0.000000
1.000000 0.356863 0.007843
0.996078 0.368627 0.007843
1.000000 0.372549 0.003922
0.996078 0.388235 0.003922
0.109804 0.105882 0.098039
0.117647 0.113725 0.098039
0.133333 0.121569 0.086275
0.164706 0.113725 0.082353
0.192157 0.117647 0.094118
0.223529 0.117647 0.090196
0.254902 0.121569 0.086275
0.298039 0.125490 0.074510
0.337255 0.129412 0.066667
0.400000 0.145098 0.058824
0.450980 0.164706 0.039216
0.525490 0.180392 0.031373
0.580392 0.196078 0.003922
0.658824 0.227451 0.000000
0.721569 0.247059 0.000000
0.776471 0.266667 0.000000
0.831373 0.282353 0.011765
0.874510 0.298039 0.000000
0.909804 0.313725 0.000000
0.952941 0.325490 0.000000
0.984314 0.337255 0.000000
0.992157 0.356863 0.000000
1.000000 0.360784 0.000000
0.996078 0.376471 0.003922
1.000000 0.384314 0.003922
0.117647 0.129412 0.094118
0.125490 0.129412 0.105882
0.133333 0.133333 0.101961
0.164706 0.137255 0.098039
0.188235 0.133333 0.090196
0.223529 0.137255 0.086275
0.254902 0.141176 0.086275
0.301961 0.141176 0.074510
0.345098 0.137255 0.066667
0.396078 0.152941 0.062745
0.454902 0.168627 0.043137
0.505882 0.180392 0.023529
0.580392 0.203922 0.007843
0.639216 0.223529 0.000000
0.713725 0.247059 0.000000
0.760784 0.266667 0.000000
0.811765 0.278431 0.003922
0.858824 0.298039 0.000000
0.909804 0.317647 0.007843
0.945098 0.333333 0.003922
0.980392 0.341176 0.000000
0.988235 0.352941 0.000000
1.000000 0.364706 0.000000
1.000000 0.372549 0.003922
1.000000 0.380392 0.000000
0.125490 0.156863 0.113725
0.129412 0.152941 0.105882
0.145098 0.160784 0.105882
0.172549 0.164706 0.105882
0.207843 0.160784 0.098039
0.239216 0.164706 0.098039
0.274510 0.164706 0.082353
0.325490 0.164706 0.086275
0.372549 0.168627 0.074510
0.423529 0.172549 0.062745
0.486275 0.180392 0.039216
0.556863 0.203922 0.015686
0.627451 0.227451 0.000000
0.698039 0.254902 0.000000
0.764706 0.270588 0.000000
0.823529 0.294118 0.003922
0.866667 0.305882 0.000000
0.901961 0.321569 0.000000
0.945098 0.333333 0.000000
0.980392 0.341176 0.000000
0.992157 0.356863 0.000000
0.996078 0.368627 0.000000
1.000000 0.376471 0.000000
0.996078 0.388235 0.000000
0.996078 0.396078 0.000000
0.141176 0.172549 0.121569
0.145098 0.168627 0.121569
0.152941 0.176471 0.129412
0.168627 0.176471 0.125490
0.192157 0.188235 0.117647
0.243137 0.184314 0.109804
0.274510 0.196078 0.098039
0.317647 0.192157 0.094118
0.368627 0.196078 0.090196
0.419608 0.200000 0.070588
0.498039 0.211765 0.043137
0.556863 0.223529 0.011765
0.627451 0.239216 0.007843
0.686275 0.258824 0.003922
0.760784 0.282353 0.000000
0.815686 0.298039 0.003922
0.858824 0.317647 0.003922
0.901961 0.329412 0.003922
0.937255 0.337255 0.000000
0.976471 0.345098 0.000000
0.992157 0.356863 0.000000
0.992157 0.372549 0.000000
1.000000 0.380392 0.000000
1.000000 0.384314 0.000000
0.992157 0.403922 0.000000
0.152941 0.184314 0.133333
0.145098 0.192157 0.145098
0.149020 0.192157 0.129412
0.172549 0.207843 0.133333
0.207843 0.203922 0.125490
0.235294 0.211765 0.117647
0.278431 0.211765 0.109804
0.325490 0.219608 0.105882
0.376471 0.227451 0.086275
0.439216 0.235294 0.078431
0.498039 0.247059 0.058824
0.572549 0.258824 0.027451
0.627451 0.262745 0.000000
0.686275 0.278431 0.007843
0.741176 0.286275 0.000000
0.796078 0.298039 0.000000
0.850980 0.313725 0.007843
0.890196 0.329412 0.000000
0.929412 0.341176 0.000000
0.964706 0.349020 0.000000
1.000000 0.364706 0.000000
1.000000 0.372549 0.000000
1.000000 0.380392 0.000000
0.996078 0.388235 0.000000
0.988235 0.403922 0.003922
0.149020 0.219608 0.133333
0.156863 0.215686 0.141176
0.172549 0.219608 0.141176
0.176471 0.223529 0.137255
0.211765 0.231373 0.137255
0.243137 0.239216 0.129412
0.290196 0.250980 0.121569
0.333333 0.243137 0.109804
0.384314 0.254902 0.094118
0.450980 0.266667 0.086275
0.501961 0.278431 0.062745
0.560784 0.290196 0.019608
0.623529 0.305882 0.000000
0.686275 0.305882 0.000000
0.733333 0.309804 0.000000
0.788235 0.313725 0.000000
0.835294 0.321569 0.000000
0.870588 0.329412 0.011765
0.913725 0.341176 0.007843
0.949020 0.356863 0.007843
0.980392 0.368627 0.007843
1.000000 0.372549 0.000000
0.996078 0.388235 0.003922
1.000000 0.400000 0.003922
0.996078 0.407843 0.000000
0.164706 0.239216 0.152941
0.168627 0.243137 0.156863
0.180392 0.239216 0.156863
0.188235 0.247059 0.156863
0.207843 0.258824 0.152941
0.247059 0.266667 0.141176
0.290196 0.274510 0.125490
0.337255 0.286275 0.121569
0.392157 0.290196 0.101961
0.454902 0.298039 0.098039
0.509804 0.305882 0.070588
0.568627 0.321569 0.050980
0.619608 0.325490 0.000000
0.674510 0.337255 0.003922
0.721569 0.341176 0.000000
0.772549 0.341176 0.000000
0.819608 0.345098 0.003922
0.862745 0.341176 0.000000
0.905882 0.349020 0.000000
0.945098 0.360784 0.007843
0.980392 0.368627 0.000000
0.992157 0.384314 0.000000
0.996078 0.388235 0.000000
0.996078 0.396078 0.000000
0.996078 0.407843 0.000000
0.176471 0.305882 0.184314
0.188235 0.309804 0.188235
0.196078 0.309804 0.184314
0.215686 0.317647 0.180392
0.243137 0.321569 0.176471
0.274510 0.333333 0.164706
0.325490 0.352941 0.152941
0.384314 0.364706 0.149020
